; Generated with MatterSlice 1.0
; filamentDiameter = 1.7
; extrusionWidth = 0.45
; firstLayerExtrusionWidth = 0.5625
; layerThickness = 0.2
; firstLayerThickness = 0.3
; automatic settings before start_gcode
G21 ; set units to millimeters
M107 ; fan off
M190 S60 ; wait for bed temperature to be reached
M104 T0 S215 ; start heating extruder 1
M109 T0 S215 ; wait for extruder 1
T0 ; set the active extruder to 0
; settings from start_gcode
G28
; automatic settings after start_gcode
T0 ; set the active extruder to 0
G90 ; use absolute coordinates
G92 E0 ; reset the expected extruder position
M82 ; use absolute distance for extrusion
; Layer count: 160
; Layer Change GCode
; LAYER:0
G4 P0
M107
G0 F12000 X60.854 Y-42.409 Z0.8
; TYPE:SKIRT
G1 Z0.3
G1 F6000 E0
G1 F900 X62.316 Y-41.045 E0.14852
G1 X62.972 Y-39.142 E0.29804
G1 X62.972 Y39.145 E6.11317
G1 X62.318 Y41.039 E6.26201
G1 X60.861 Y42.408 E6.41051
G1 X59.101 Y42.972 E6.54779
G1 X-59.101 Y42.972 E15.32779
G1 X-60.861 Y42.408 E15.46507
G1 X-62.318 Y41.039 E15.61358
G1 X-62.972 Y39.145 E15.76241
G1 X-62.972 Y-39.142 E21.57755
G1 X-62.316 Y-41.045 E21.72706
G1 X-60.854 Y-42.409 E21.87558
G1 X-59.101 Y-42.971 E22.01232
G1 X59.101 Y-42.971 E30.79233
G1 X60.854 Y-42.409 E30.92907
G0 F12000 X60.562 Y-41.912
G1 F900 X61.831 Y-40.73 E31.05788
G1 X62.41 Y-39.048 E31.19002
G1 X62.41 Y39.051 E36.99118
G1 X61.832 Y40.724 E37.12266
G1 X60.569 Y41.911 E37.25141
G1 X59.013 Y42.41 E37.37278
G1 X-59.013 Y42.41 E46.13971
G1 X-60.569 Y41.911 E46.26109
G1 X-61.832 Y40.724 E46.38983
G1 X-62.41 Y39.051 E46.52131
G1 X-62.41 Y-39.048 E52.32248
G1 X-61.831 Y-40.73 E52.45461
G1 X-60.562 Y-41.912 E52.58343
G1 X-59.013 Y-42.409 E52.70426
G1 X59.013 Y-42.409 E61.47119
G1 X60.562 Y-41.912 E61.59203
G1 F6000 E59.79203
G1 Z0.8
G0 F12000 X-58.455 Y38.848
; TYPE:WALL-OUTER
G1 Z0.3
G1 F6000 E61.59203
G1 F900 X-58.455 Y38.848 E61.59203
G1 X-58.717 Y38.764 E61.61247
G1 X-58.751 Y38.732 E61.61594
G1 X-58.848 Y38.451 E61.63802
G1 X-58.848 Y-38.451 E67.35027
G1 X-58.752 Y-38.73 E67.37219
G1 X-58.716 Y-38.763 E67.37582
G1 X-58.455 Y-38.847 E67.39618
G1 X58.455 Y-38.847 E76.08022
G1 X58.716 Y-38.763 E76.10058
G1 X58.752 Y-38.73 E76.10421
G1 X58.848 Y-38.451 E76.12613
G1 X58.848 Y38.451 E81.83838
G1 X58.751 Y38.732 E81.86046
G1 X58.717 Y38.764 E81.86393
G1 X58.455 Y38.848 E81.88437
G1 X-58.455 Y38.848 E90.5684
G0 F12000 X-58.286 Y38.286
; TYPE:WALL-INNER
G1 F900 X-58.286 Y38.286 E90.5684
G1 X-58.286 Y-38.285 E96.25607
G1 X58.286 Y-38.285 E104.91499
G1 X58.286 Y38.286 E110.60266
G1 X-58.286 Y38.286 E119.26159
G0 F12000 X-57.724 Y37.724
G1 F900 X-57.724 Y37.724 E119.26159
G1 X-57.724 Y-37.723 E124.86577
G1 X57.724 Y-37.723 E133.4412
G1 X57.724 Y37.724 E139.04538
G1 X-57.724 Y37.724 E147.62082
G0 F12000 X-57.412 Y37.092
; TYPE:BOTTOM-FILL
G1 F900 X57.412 Y37.092 E156.1499
G0 F12000 X57.412 Y36.53
G1 F900 X-57.412 Y36.53 E164.67899
G0 F12000 X-57.412 Y35.968
G1 F900 X57.412 Y35.968 E173.20808
G0 F12000 X57.412 Y35.406
G1 F900 X-57.412 Y35.406 E181.73716
G0 F12000 X-57.412 Y34.844
G1 F900 X57.412 Y34.844 E190.26625
G0 F12000 X57.412 Y34.282
G1 F900 X-57.412 Y34.282 E198.79533
G0 F12000 X-57.412 Y33.72
G1 F900 X57.412 Y33.72 E207.32442
G0 F12000 X57.412 Y33.158
G1 F900 X-57.412 Y33.158 E215.85351
G0 F12000 X-57.412 Y32.596
G1 F900 X57.412 Y32.595 E224.38259
G0 F12000 X57.412 Y32.033
G1 F900 X-57.412 Y32.034 E232.91168
G0 F12000 X-57.412 Y31.472
G1 F900 X57.412 Y31.471 E241.44077
G0 F12000 X57.412 Y30.909
G1 F900 X-57.412 Y30.91 E249.96985
G0 F12000 X-57.412 Y30.348
G1 F900 X57.412 Y30.347 E258.49894
G0 F12000 X57.412 Y29.785
G1 F900 X-57.412 Y29.786 E267.02803
G0 F12000 X-57.412 Y29.224
G1 F900 X57.412 Y29.223 E275.55711
G0 F12000 X57.412 Y28.661
G1 F900 X-57.412 Y28.662 E284.0862
G0 F12000 X-57.412 Y28.1
G1 F900 X57.412 Y28.099 E292.61529
G0 F12000 X57.412 Y27.537
G1 F900 X-57.412 Y27.538 E301.14437
G0 F12000 X-57.412 Y26.976
G1 F900 X57.412 Y26.975 E309.67346
G0 F12000 X57.412 Y26.413
G1 F900 X-57.412 Y26.414 E318.20255
G0 F12000 X-57.412 Y25.852
G1 F900 X57.412 Y25.851 E326.73163
G0 F12000 X57.412 Y25.289
G1 F900 X-57.412 Y25.29 E335.26072
G0 F12000 X-57.412 Y24.728
G1 F900 X57.412 Y24.727 E343.78981
G0 F12000 X57.412 Y24.165
G1 F900 X-57.412 Y24.166 E352.31889
G0 F12000 X-57.412 Y23.604
G1 F900 X57.412 Y23.603 E360.84798
G0 F12000 X57.412 Y23.041
G1 F900 X-57.412 Y23.042 E369.37706
G0 F12000 X-57.412 Y22.48
G1 F900 X57.412 Y22.479 E377.90615
G0 F12000 X57.412 Y21.917
G1 F900 X-57.412 Y21.918 E386.43524
G0 F12000 X-57.412 Y21.356
G1 F900 X57.412 Y21.355 E394.96432
G0 F12000 X57.412 Y20.793
G1 F900 X-57.412 Y20.794 E403.49341
G0 F12000 X-57.412 Y20.232
G1 F900 X57.412 Y20.231 E412.0225
G0 F12000 X57.412 Y19.669
G1 F900 X-57.412 Y19.67 E420.55158
G0 F12000 X-57.412 Y19.108
G1 F900 X57.412 Y19.107 E429.08067
G0 F12000 X57.412 Y18.545
G1 F900 X-57.412 Y18.546 E437.60976
G0 F12000 X-57.412 Y17.984
G1 F900 X57.412 Y17.983 E446.13884
G0 F12000 X57.412 Y17.421
G1 F900 X-57.412 Y17.422 E454.66793
G0 F12000 X-57.412 Y16.86
G1 F900 X57.412 Y16.859 E463.19702
G0 F12000 X57.412 Y16.297
G1 F900 X-57.412 Y16.298 E471.7261
G0 F12000 X-57.412 Y15.736
G1 F900 X57.412 Y15.735 E480.25519
G0 F12000 X57.412 Y15.173
G1 F900 X-57.412 Y15.174 E488.78428
G0 F12000 X-57.412 Y14.612
G1 F900 X57.412 Y14.611 E497.31336
G0 F12000 X57.412 Y14.049
G1 F900 X-57.412 Y14.05 E505.84245
G0 F12000 X-57.412 Y13.488
G1 F900 X57.412 Y13.487 E514.37153
G0 F12000 X57.412 Y12.925
G1 F900 X-57.412 Y12.926 E522.90062
G0 F12000 X-57.412 Y12.364
G1 F900 X57.412 Y12.363 E531.42971
G0 F12000 X57.412 Y11.801
G1 F900 X-57.412 Y11.802 E539.95879
G0 F12000 X-57.412 Y11.24
G1 F900 X57.412 Y11.239 E548.48788
G0 F12000 X57.412 Y10.677
G1 F900 X-57.412 Y10.678 E557.01697
G0 F12000 X-57.412 Y10.116
G1 F900 X57.412 Y10.115 E565.54605
G0 F12000 X57.412 Y9.553
G1 F900 X-57.412 Y9.554 E574.07514
G0 F12000 X-57.412 Y8.992
G1 F900 X57.412 Y8.991 E582.60423
G0 F12000 X57.412 Y8.429
G1 F900 X-57.412 Y8.43 E591.13331
G0 F12000 X-57.412 Y7.868
G1 F900 X57.412 Y7.867 E599.6624
G0 F12000 X57.412 Y7.305
G1 F900 X-57.412 Y7.306 E608.19149
G0 F12000 X-57.412 Y6.744
G1 F900 X57.412 Y6.743 E616.72057
G0 F12000 X57.412 Y6.181
G1 F900 X-57.412 Y6.182 E625.24966
G0 F12000 X-57.412 Y5.62
G1 F900 X57.412 Y5.619 E633.77875
G0 F12000 X57.412 Y5.057
G1 F900 X-57.412 Y5.058 E642.30783
G0 F12000 X-57.412 Y4.496
G1 F900 X57.412 Y4.495 E650.83692
G0 F12000 X57.412 Y3.933
G1 F900 X-57.412 Y3.934 E659.366
G0 F12000 X-57.412 Y3.372
G1 F900 X57.412 Y3.371 E667.89509
G0 F12000 X57.412 Y2.809
G1 F900 X-57.412 Y2.81 E676.42418
G0 F12000 X-57.412 Y2.248
G1 F900 X57.412 Y2.247 E684.95326
G0 F12000 X57.412 Y1.685
G1 F900 X-57.412 Y1.686 E693.48235
G0 F12000 X-57.412 Y1.124
G1 F900 X57.412 Y1.123 E702.01144
G0 F12000 X57.412 Y0.561
G1 F900 X-57.412 Y0.562 E710.54052
G0 F12000 X-57.412 Y0
G1 F900 X57.412 Y0 E719.06961
G0 F12000 X57.412 Y-0.562
G1 F900 X-57.412 Y-0.561 E727.5987
G0 F12000 X-57.412 Y-1.123
G1 F900 X57.412 Y-1.124 E736.12778
G0 F12000 X57.412 Y-1.686
G1 F900 X-57.412 Y-1.685 E744.65687
G0 F12000 X-57.412 Y-2.247
G1 F900 X57.412 Y-2.248 E753.18596
G0 F12000 X57.412 Y-2.81
G1 F900 X-57.412 Y-2.809 E761.71504
G0 F12000 X-57.412 Y-3.371
G1 F900 X57.412 Y-3.372 E770.24413
G0 F12000 X57.412 Y-3.934
G1 F900 X-57.412 Y-3.933 E778.77322
G0 F12000 X-57.412 Y-4.495
G1 F900 X57.412 Y-4.496 E787.3023
G0 F12000 X57.412 Y-5.058
G1 F900 X-57.412 Y-5.057 E795.83139
G0 F12000 X-57.412 Y-5.619
G1 F900 X57.412 Y-5.62 E804.36048
G0 F12000 X57.412 Y-6.182
G1 F900 X-57.412 Y-6.181 E812.88956
G0 F12000 X-57.412 Y-6.743
G1 F900 X57.412 Y-6.744 E821.41865
G0 F12000 X57.412 Y-7.306
G1 F900 X-57.412 Y-7.305 E829.94773
G0 F12000 X-57.412 Y-7.867
G1 F900 X57.412 Y-7.868 E838.47682
G0 F12000 X57.412 Y-8.43
G1 F900 X-57.412 Y-8.429 E847.00591
G0 F12000 X-57.412 Y-8.991
G1 F900 X57.412 Y-8.992 E855.53499
G0 F12000 X57.412 Y-9.554
G1 F900 X-57.412 Y-9.553 E864.06408
G0 F12000 X-57.412 Y-10.115
G1 F900 X57.412 Y-10.116 E872.59317
G0 F12000 X57.412 Y-10.678
G1 F900 X-57.412 Y-10.677 E881.12225
G0 F12000 X-57.412 Y-11.239
G1 F900 X57.412 Y-11.24 E889.65134
G0 F12000 X57.412 Y-11.802
G1 F900 X-57.412 Y-11.801 E898.18043
G0 F12000 X-57.412 Y-12.363
G1 F900 X57.412 Y-12.364 E906.70951
G0 F12000 X57.412 Y-12.926
G1 F900 X-57.412 Y-12.925 E915.2386
G0 F12000 X-57.412 Y-13.487
G1 F900 X57.412 Y-13.488 E923.76769
G0 F12000 X57.412 Y-14.05
G1 F900 X-57.412 Y-14.049 E932.29677
G0 F12000 X-57.412 Y-14.611
G1 F900 X57.412 Y-14.612 E940.82586
G0 F12000 X57.412 Y-15.174
G1 F900 X-57.412 Y-15.173 E949.35495
G0 F12000 X-57.412 Y-15.735
G1 F900 X57.412 Y-15.736 E957.88403
G0 F12000 X57.412 Y-16.298
G1 F900 X-57.412 Y-16.297 E966.41312
G0 F12000 X-57.412 Y-16.859
G1 F900 X57.412 Y-16.86 E974.9422
G0 F12000 X57.412 Y-17.422
G1 F900 X-57.412 Y-17.421 E983.47129
G0 F12000 X-57.412 Y-17.983
G1 F900 X57.412 Y-17.984 E992.00038
G0 F12000 X57.412 Y-18.546
G1 F900 X-57.412 Y-18.545 E1000.52946
G0 F12000 X-57.412 Y-19.107
G1 F900 X57.412 Y-19.108 E1009.05855
G0 F12000 X57.412 Y-19.67
G1 F900 X-57.412 Y-19.669 E1017.58764
G0 F12000 X-57.412 Y-20.231
G1 F900 X57.412 Y-20.232 E1026.11672
G0 F12000 X57.412 Y-20.794
G1 F900 X-57.412 Y-20.793 E1034.64581
G0 F12000 X-57.412 Y-21.355
G1 F900 X57.412 Y-21.356 E1043.1749
G0 F12000 X57.412 Y-21.918
G1 F900 X-57.412 Y-21.917 E1051.70398
G0 F12000 X-57.412 Y-22.479
G1 F900 X57.412 Y-22.48 E1060.23307
G0 F12000 X57.412 Y-23.042
G1 F900 X-57.412 Y-23.041 E1068.76216
G0 F12000 X-57.412 Y-23.603
G1 F900 X57.412 Y-23.604 E1077.29124
G0 F12000 X57.412 Y-24.166
G1 F900 X-57.412 Y-24.165 E1085.82033
G0 F12000 X-57.412 Y-24.727
G1 F900 X57.412 Y-24.728 E1094.34942
G0 F12000 X57.412 Y-25.29
G1 F900 X-57.412 Y-25.289 E1102.8785
G0 F12000 X-57.412 Y-25.851
G1 F900 X57.412 Y-25.852 E1111.40759
G0 F12000 X57.412 Y-26.414
G1 F900 X-57.412 Y-26.413 E1119.93667
G0 F12000 X-57.412 Y-26.975
G1 F900 X57.412 Y-26.976 E1128.46576
G0 F12000 X57.412 Y-27.538
G1 F900 X-57.412 Y-27.537 E1136.99485
G0 F12000 X-57.412 Y-28.099
G1 F900 X57.412 Y-28.1 E1145.52393
G0 F12000 X57.412 Y-28.662
G1 F900 X-57.412 Y-28.661 E1154.05302
G0 F12000 X-57.412 Y-29.223
G1 F900 X57.412 Y-29.224 E1162.58211
G0 F12000 X57.412 Y-29.786
G1 F900 X-57.412 Y-29.785 E1171.11119
G0 F12000 X-57.412 Y-30.347
G1 F900 X57.412 Y-30.348 E1179.64028
G0 F12000 X57.412 Y-30.91
G1 F900 X-57.412 Y-30.909 E1188.16937
G0 F12000 X-57.412 Y-31.471
G1 F900 X57.412 Y-31.472 E1196.69845
G0 F12000 X57.412 Y-32.034
G1 F900 X-57.412 Y-32.033 E1205.22754
G0 F12000 X-57.412 Y-32.595
G1 F900 X57.412 Y-32.596 E1213.75663
G0 F12000 X57.412 Y-33.158
G1 F900 X-57.412 Y-33.158 E1222.28571
G0 F12000 X-57.412 Y-33.72
G1 F900 X57.412 Y-33.72 E1230.8148
G0 F12000 X57.412 Y-34.282
G1 F900 X-57.412 Y-34.282 E1239.34389
G0 F12000 X-57.412 Y-34.844
G1 F900 X57.412 Y-34.844 E1247.87297
G0 F12000 X57.412 Y-35.406
G1 F900 X-57.412 Y-35.406 E1256.40206
G0 F12000 X-57.412 Y-35.968
G1 F900 X57.412 Y-35.968 E1264.93115
G0 F12000 X57.412 Y-36.53
G1 F900 X-57.412 Y-36.53 E1273.46023
G0 F12000 X-57.412 Y-37.092
G1 F900 X57.412 Y-37.092 E1281.98932
; Layer Change GCode
; LAYER:1
G0 F12000 X-58.452 Y38.96 Z0.5
G0 X-58.452 Y38.96
G0 X-58.48 Y39.284
G0 X-58.48 Y39.284
G0 X-58.384 Y38.384
; TYPE:WALL-INNER
G1 F2400 X-58.384 Y38.384 E1281.98932
G1 X-58.384 Y-38.381 E1285.03313
G1 X58.383 Y-38.384 E1289.66307
G1 X58.384 Y38.384 E1292.707
G1 X-58.384 Y38.384 E1297.33697
G0 F12000 X-58.834 Y38.429
G1 F2400 X-58.834 Y38.429 E1297.33697
G1 X-58.834 Y-38.428 E1300.38444
G1 X-58.795 Y-38.611 E1300.39185
G1 X-58.698 Y-38.748 E1300.39851
G1 X-58.576 Y-38.812 E1300.40397
G1 X-58.446 Y-38.834 E1300.4092
G1 X58.446 Y-38.834 E1305.04409
G1 X58.576 Y-38.812 E1305.04932
G1 X58.698 Y-38.748 E1305.05478
G1 X58.795 Y-38.611 E1305.06144
G1 X58.834 Y-38.428 E1305.06886
G1 X58.834 Y38.429 E1308.11632
G1 X58.795 Y38.611 E1308.1237
G1 X58.694 Y38.754 E1308.13064
G1 X58.579 Y38.811 E1308.13573
G1 X58.446 Y38.834 E1308.14108
G1 X-58.446 Y38.834 E1312.77597
G1 X-58.576 Y38.812 E1312.7812
G1 X-58.698 Y38.748 E1312.78666
G1 X-58.795 Y38.611 E1312.79332
G1 X-58.834 Y38.429 E1312.8007
G0 F12000 X-58.48 Y39.284
; TYPE:WALL-OUTER
G1 F1800 X-58.48 Y39.284 E1312.8007
G1 X-58.721 Y39.243 E1312.81039
G1 X-59.004 Y39.096 E1312.82304
G1 X-59.216 Y38.795 E1312.83764
G1 X-59.284 Y38.476 E1312.85057
G1 X-59.284 Y-38.475 E1315.90176
G1 X-59.216 Y-38.795 E1315.91473
G1 X-59.004 Y-39.096 E1315.92933
G1 X-58.721 Y-39.243 E1315.94197
G1 X-58.48 Y-39.284 E1315.95167
G1 X58.48 Y-39.284 E1320.58925
G1 X58.721 Y-39.243 E1320.59895
G1 X59.004 Y-39.096 E1320.61159
G1 X59.216 Y-38.795 E1320.62619
G1 X59.284 Y-38.475 E1320.63916
G1 X59.284 Y38.476 E1323.69035
G1 X59.216 Y38.795 E1323.70328
G1 X58.996 Y39.106 E1323.71839
G1 X58.724 Y39.242 E1323.73045
G1 X58.48 Y39.284 E1323.74026
G1 X-58.48 Y39.284 E1328.37785
G0 F12000 X-58.543 Y38.557
; TYPE:FILL
G1 F2400 X-58.517 Y38.507 E1328.37841
G0 F12000 X-57.599 Y37.973
G1 F2400 X-57.6 Y-37.972 E1331.38971
G0 F12000 X-57.15 Y-37.972
G1 F2400 X-57.149 Y37.973 E1334.40101
G0 F12000 X-56.699 Y37.973
G1 F2400 X-56.7 Y-37.972 E1337.41231
G0 F12000 X-56.25 Y-37.972
G1 F2400 X-56.249 Y37.973 E1340.42361
G0 F12000 X-55.799 Y37.973
G1 F2400 X-55.8 Y-37.972 E1343.43491
G0 F12000 X-55.35 Y-37.972
G1 F2400 X-55.349 Y37.973 E1346.44621
G0 F12000 X-54.899 Y37.973
G1 F2400 X-54.9 Y-37.972 E1349.45751
G0 F12000 X-54.45 Y-37.972
G1 F2400 X-54.449 Y37.973 E1352.46881
G0 F12000 X-53.999 Y37.973
G1 F2400 X-54 Y-37.972 E1355.48011
G0 F12000 X-53.55 Y-37.972
G1 F2400 X-53.549 Y37.973 E1358.49141
G0 F12000 X-53.099 Y37.973
G1 F2400 X-53.1 Y-37.972 E1361.50271
G0 F12000 X-52.65 Y-37.972
G1 F2400 X-52.649 Y37.973 E1364.51401
G0 F12000 X-52.199 Y37.973
G1 F2400 X-52.2 Y-37.972 E1367.52531
G0 F12000 X-51.75 Y-37.972
G1 F2400 X-51.749 Y37.973 E1370.53661
G0 F12000 X-51.299 Y37.973
G1 F2400 X-51.3 Y-37.972 E1373.54791
G0 F12000 X-50.85 Y-37.972
G1 F2400 X-50.849 Y37.973 E1376.55921
G0 F12000 X-50.399 Y37.973
G1 F2400 X-50.4 Y-37.972 E1379.57051
G0 F12000 X-49.95 Y-37.972
G1 F2400 X-49.949 Y37.973 E1382.58181
G0 F12000 X-49.499 Y37.973
G1 F2400 X-49.5 Y-37.972 E1385.59311
G0 F12000 X-49.05 Y-37.972
G1 F2400 X-49.049 Y37.973 E1388.60441
G0 F12000 X-48.599 Y37.973
G1 F2400 X-48.6 Y-37.972 E1391.6157
G0 F12000 X-48.15 Y-37.972
G1 F2400 X-48.149 Y37.973 E1394.627
G0 F12000 X-47.699 Y37.973
G1 F2400 X-47.7 Y-37.972 E1397.6383
G0 F12000 X-47.25 Y-37.972
G1 F2400 X-47.249 Y37.973 E1400.6496
G0 F12000 X-46.799 Y37.973
G1 F2400 X-46.8 Y-37.972 E1403.6609
G0 F12000 X-46.35 Y-37.972
G1 F2400 X-46.349 Y37.973 E1406.6722
G0 F12000 X-45.899 Y37.973
G1 F2400 X-45.9 Y-37.972 E1409.6835
G0 F12000 X-45.45 Y-37.972
G1 F2400 X-45.449 Y37.973 E1412.6948
G0 F12000 X-44.999 Y37.973
G1 F2400 X-45 Y-37.972 E1415.7061
G0 F12000 X-44.55 Y-37.972
G1 F2400 X-44.549 Y37.973 E1418.7174
G0 F12000 X-44.099 Y37.973
G1 F2400 X-44.1 Y-37.972 E1421.7287
G0 F12000 X-43.65 Y-37.972
G1 F2400 X-43.649 Y37.973 E1424.74
G0 F12000 X-43.199 Y37.973
G1 F2400 X-43.2 Y-37.972 E1427.7513
G0 F12000 X-42.75 Y-37.972
G1 F2400 X-42.749 Y37.973 E1430.7626
G0 F12000 X-42.299 Y37.973
G1 F2400 X-42.3 Y-37.972 E1433.7739
G0 F12000 X-41.85 Y-37.972
G1 F2400 X-41.849 Y37.973 E1436.7852
G0 F12000 X-41.399 Y37.973
G1 F2400 X-41.4 Y-37.972 E1439.7965
G0 F12000 X-40.95 Y-37.972
G1 F2400 X-40.949 Y37.973 E1442.8078
G0 F12000 X-40.499 Y37.973
G1 F2400 X-40.5 Y-37.972 E1445.8191
G0 F12000 X-40.05 Y-37.972
G1 F2400 X-40.049 Y37.973 E1448.8304
G0 F12000 X-39.599 Y37.973
G1 F2400 X-39.6 Y-37.972 E1451.8417
G0 F12000 X-39.15 Y-37.972
G1 F2400 X-39.149 Y37.973 E1454.853
G0 F12000 X-38.699 Y37.973
G1 F2400 X-38.7 Y-37.972 E1457.8643
G0 F12000 X-38.25 Y-37.972
G1 F2400 X-38.249 Y37.973 E1460.8756
G0 F12000 X-37.799 Y37.973
G1 F2400 X-37.8 Y-37.972 E1463.8869
G0 F12000 X-37.35 Y-37.972
G1 F2400 X-37.349 Y37.973 E1466.8982
G0 F12000 X-36.899 Y37.973
G1 F2400 X-36.9 Y-37.972 E1469.9095
G0 F12000 X-36.45 Y-37.972
G1 F2400 X-36.449 Y37.973 E1472.9208
G0 F12000 X-35.999 Y37.973
G1 F2400 X-36 Y-37.972 E1475.93209
G0 F12000 X-35.55 Y-37.972
G1 F2400 X-35.549 Y37.973 E1478.94339
G0 F12000 X-35.099 Y37.973
G1 F2400 X-35.1 Y-37.972 E1481.95469
G0 F12000 X-34.65 Y-37.972
G1 F2400 X-34.649 Y37.973 E1484.96599
G0 F12000 X-34.199 Y37.973
G1 F2400 X-34.2 Y-37.972 E1487.97729
G0 F12000 X-33.75 Y-37.972
G1 F2400 X-33.749 Y37.973 E1490.98859
G0 F12000 X-33.299 Y37.973
G1 F2400 X-33.3 Y-37.972 E1493.99989
G0 F12000 X-32.85 Y-37.972
G1 F2400 X-32.849 Y37.973 E1497.01119
G0 F12000 X-32.399 Y37.973
G1 F2400 X-32.4 Y-37.972 E1500.02249
G0 F12000 X-31.95 Y-37.972
G1 F2400 X-31.949 Y37.973 E1503.03379
G0 F12000 X-31.499 Y37.973
G1 F2400 X-31.5 Y-37.972 E1506.04509
G0 F12000 X-31.05 Y-37.972
G1 F2400 X-31.049 Y37.973 E1509.05639
G0 F12000 X-30.599 Y37.973
G1 F2400 X-30.6 Y-37.972 E1512.06769
G0 F12000 X-30.15 Y-37.972
G1 F2400 X-30.149 Y37.973 E1515.07899
G0 F12000 X-29.699 Y37.973
G1 F2400 X-29.7 Y-37.973 E1518.09033
G0 F12000 X-29.25 Y-37.973
G1 F2400 X-29.249 Y37.973 E1521.10167
G0 F12000 X-28.799 Y37.973
G1 F2400 X-28.8 Y-37.973 E1524.11301
G0 F12000 X-28.35 Y-37.973
G1 F2400 X-28.349 Y37.973 E1527.12435
G0 F12000 X-27.899 Y37.973
G1 F2400 X-27.9 Y-37.973 E1530.13569
G0 F12000 X-27.45 Y-37.973
G1 F2400 X-27.449 Y37.973 E1533.14703
G0 F12000 X-26.999 Y37.973
G1 F2400 X-27 Y-37.973 E1536.15837
G0 F12000 X-26.55 Y-37.973
G1 F2400 X-26.549 Y37.973 E1539.1697
G0 F12000 X-26.099 Y37.973
G1 F2400 X-26.1 Y-37.973 E1542.18104
G0 F12000 X-25.65 Y-37.973
G1 F2400 X-25.649 Y37.973 E1545.19238
G0 F12000 X-25.199 Y37.973
G1 F2400 X-25.2 Y-37.973 E1548.20372
G0 F12000 X-24.75 Y-37.973
G1 F2400 X-24.749 Y37.973 E1551.21506
G0 F12000 X-24.299 Y37.973
G1 F2400 X-24.3 Y-37.973 E1554.2264
G0 F12000 X-23.85 Y-37.973
G1 F2400 X-23.849 Y37.973 E1557.23774
G0 F12000 X-23.399 Y37.973
G1 F2400 X-23.4 Y-37.973 E1560.24908
G0 F12000 X-22.95 Y-37.973
G1 F2400 X-22.949 Y37.973 E1563.26042
G0 F12000 X-22.499 Y37.973
G1 F2400 X-22.5 Y-37.973 E1566.27176
G0 F12000 X-22.05 Y-37.973
G1 F2400 X-22.049 Y37.973 E1569.2831
G0 F12000 X-21.599 Y37.973
G1 F2400 X-21.6 Y-37.973 E1572.29444
G0 F12000 X-21.15 Y-37.973
G1 F2400 X-21.149 Y37.973 E1575.30578
G0 F12000 X-20.699 Y37.973
G1 F2400 X-20.7 Y-37.973 E1578.31712
G0 F12000 X-20.25 Y-37.973
G1 F2400 X-20.249 Y37.973 E1581.32845
G0 F12000 X-19.799 Y37.973
G1 F2400 X-19.8 Y-37.973 E1584.33979
G0 F12000 X-19.35 Y-37.973
G1 F2400 X-19.349 Y37.973 E1587.35113
G0 F12000 X-18.899 Y37.973
G1 F2400 X-18.9 Y-37.973 E1590.36247
G0 F12000 X-18.45 Y-37.973
G1 F2400 X-18.449 Y37.973 E1593.37381
G0 F12000 X-17.999 Y37.973
G1 F2400 X-18 Y-37.973 E1596.38515
G0 F12000 X-17.55 Y-37.973
G1 F2400 X-17.549 Y37.973 E1599.39649
G0 F12000 X-17.099 Y37.973
G1 F2400 X-17.1 Y-37.973 E1602.40783
G0 F12000 X-16.65 Y-37.973
G1 F2400 X-16.649 Y37.973 E1605.41917
G0 F12000 X-16.199 Y37.973
G1 F2400 X-16.2 Y-37.973 E1608.43051
G0 F12000 X-15.75 Y-37.973
G1 F2400 X-15.749 Y37.973 E1611.44185
G0 F12000 X-15.299 Y37.973
G1 F2400 X-15.3 Y-37.973 E1614.45319
G0 F12000 X-14.85 Y-37.973
G1 F2400 X-14.849 Y37.973 E1617.46453
G0 F12000 X-14.399 Y37.973
G1 F2400 X-14.4 Y-37.973 E1620.47587
G0 F12000 X-13.95 Y-37.973
G1 F2400 X-13.949 Y37.973 E1623.4872
G0 F12000 X-13.499 Y37.973
G1 F2400 X-13.5 Y-37.973 E1626.49854
G0 F12000 X-13.05 Y-37.973
G1 F2400 X-13.049 Y37.973 E1629.50988
G0 F12000 X-12.599 Y37.973
G1 F2400 X-12.6 Y-37.973 E1632.52122
G0 F12000 X-12.15 Y-37.973
G1 F2400 X-12.149 Y37.973 E1635.53256
G0 F12000 X-11.699 Y37.973
G1 F2400 X-11.7 Y-37.973 E1638.5439
G0 F12000 X-11.25 Y-37.973
G1 F2400 X-11.249 Y37.973 E1641.55524
G0 F12000 X-10.799 Y37.973
G1 F2400 X-10.8 Y-37.973 E1644.56658
G0 F12000 X-10.35 Y-37.973
G1 F2400 X-10.349 Y37.973 E1647.57792
G0 F12000 X-9.899 Y37.973
G1 F2400 X-9.9 Y-37.973 E1650.58926
G0 F12000 X-9.45 Y-37.973
G1 F2400 X-9.449 Y37.973 E1653.6006
G0 F12000 X-8.999 Y37.973
G1 F2400 X-9 Y-37.973 E1656.61194
G0 F12000 X-8.55 Y-37.973
G1 F2400 X-8.549 Y37.973 E1659.62328
G0 F12000 X-8.099 Y37.973
G1 F2400 X-8.1 Y-37.973 E1662.63462
G0 F12000 X-7.65 Y-37.973
G1 F2400 X-7.649 Y37.973 E1665.64595
G0 F12000 X-7.199 Y37.973
G1 F2400 X-7.2 Y-37.973 E1668.65729
G0 F12000 X-6.75 Y-37.973
G1 F2400 X-6.749 Y37.973 E1671.66863
G0 F12000 X-6.299 Y37.973
G1 F2400 X-6.3 Y-37.973 E1674.67997
G0 F12000 X-5.85 Y-37.973
G1 F2400 X-5.849 Y37.973 E1677.69131
G0 F12000 X-5.399 Y37.973
G1 F2400 X-5.4 Y-37.973 E1680.70265
G0 F12000 X-4.95 Y-37.973
G1 F2400 X-4.949 Y37.973 E1683.71399
G0 F12000 X-4.499 Y37.973
G1 F2400 X-4.5 Y-37.973 E1686.72533
G0 F12000 X-4.05 Y-37.973
G1 F2400 X-4.049 Y37.973 E1689.73667
G0 F12000 X-3.599 Y37.973
G1 F2400 X-3.6 Y-37.973 E1692.74801
G0 F12000 X-3.15 Y-37.973
G1 F2400 X-3.149 Y37.973 E1695.75935
G0 F12000 X-2.699 Y37.973
G1 F2400 X-2.7 Y-37.973 E1698.77069
G0 F12000 X-2.25 Y-37.973
G1 F2400 X-2.249 Y37.973 E1701.78203
G0 F12000 X-1.799 Y37.973
G1 F2400 X-1.8 Y-37.973 E1704.79337
G0 F12000 X-1.35 Y-37.973
G1 F2400 X-1.349 Y37.973 E1707.8047
G0 F12000 X-0.899 Y37.973
G1 F2400 X-0.9 Y-37.973 E1710.81604
G0 F12000 X-0.45 Y-37.973
G1 F2400 X-0.449 Y37.973 E1713.82738
G0 F12000 X0 Y37.974
G1 F2400 X0 Y-37.973 E1716.83876
G0 F12000 X0.449 Y-37.972
G1 F2400 X0.45 Y37.974 E1719.8501
G0 F12000 X0.9 Y37.974
G1 F2400 X0.899 Y-37.972 E1722.86144
G0 F12000 X1.349 Y-37.972
G1 F2400 X1.35 Y37.974 E1725.87278
G0 F12000 X1.8 Y37.974
G1 F2400 X1.799 Y-37.972 E1728.88412
G0 F12000 X2.249 Y-37.972
G1 F2400 X2.25 Y37.974 E1731.89546
G0 F12000 X2.7 Y37.974
G1 F2400 X2.699 Y-37.972 E1734.9068
G0 F12000 X3.149 Y-37.972
G1 F2400 X3.15 Y37.974 E1737.91814
G0 F12000 X3.6 Y37.974
G1 F2400 X3.599 Y-37.972 E1740.92948
G0 F12000 X4.049 Y-37.972
G1 F2400 X4.05 Y37.974 E1743.94082
G0 F12000 X4.5 Y37.974
G1 F2400 X4.499 Y-37.972 E1746.95215
G0 F12000 X4.949 Y-37.972
G1 F2400 X4.95 Y37.974 E1749.96349
G0 F12000 X5.4 Y37.974
G1 F2400 X5.399 Y-37.972 E1752.97483
G0 F12000 X5.849 Y-37.972
G1 F2400 X5.85 Y37.974 E1755.98617
G0 F12000 X6.3 Y37.974
G1 F2400 X6.299 Y-37.972 E1758.99751
G0 F12000 X6.749 Y-37.972
G1 F2400 X6.75 Y37.974 E1762.00885
G0 F12000 X7.2 Y37.974
G1 F2400 X7.199 Y-37.972 E1765.02019
G0 F12000 X7.649 Y-37.972
G1 F2400 X7.65 Y37.974 E1768.03153
G0 F12000 X8.1 Y37.974
G1 F2400 X8.099 Y-37.972 E1771.04287
G0 F12000 X8.549 Y-37.972
G1 F2400 X8.55 Y37.974 E1774.05421
G0 F12000 X9 Y37.974
G1 F2400 X8.999 Y-37.972 E1777.06555
G0 F12000 X9.449 Y-37.972
G1 F2400 X9.45 Y37.974 E1780.07689
G0 F12000 X9.9 Y37.974
G1 F2400 X9.899 Y-37.972 E1783.08823
G0 F12000 X10.349 Y-37.972
G1 F2400 X10.35 Y37.974 E1786.09957
G0 F12000 X10.8 Y37.974
G1 F2400 X10.799 Y-37.972 E1789.1109
G0 F12000 X11.249 Y-37.972
G1 F2400 X11.25 Y37.974 E1792.12224
G0 F12000 X11.7 Y37.974
G1 F2400 X11.699 Y-37.972 E1795.13358
G0 F12000 X12.149 Y-37.972
G1 F2400 X12.15 Y37.974 E1798.14492
G0 F12000 X12.6 Y37.974
G1 F2400 X12.599 Y-37.972 E1801.15626
G0 F12000 X13.049 Y-37.972
G1 F2400 X13.05 Y37.974 E1804.1676
G0 F12000 X13.5 Y37.974
G1 F2400 X13.499 Y-37.972 E1807.17894
G0 F12000 X13.949 Y-37.972
G1 F2400 X13.95 Y37.974 E1810.19028
G0 F12000 X14.4 Y37.974
G1 F2400 X14.399 Y-37.972 E1813.20162
G0 F12000 X14.849 Y-37.972
G1 F2400 X14.85 Y37.974 E1816.21296
G0 F12000 X15.3 Y37.974
G1 F2400 X15.299 Y-37.972 E1819.2243
G0 F12000 X15.749 Y-37.972
G1 F2400 X15.75 Y37.974 E1822.23564
G0 F12000 X16.2 Y37.974
G1 F2400 X16.199 Y-37.972 E1825.24698
G0 F12000 X16.649 Y-37.972
G1 F2400 X16.65 Y37.974 E1828.25832
G0 F12000 X17.1 Y37.974
G1 F2400 X17.099 Y-37.972 E1831.26965
G0 F12000 X17.549 Y-37.972
G1 F2400 X17.55 Y37.974 E1834.28099
G0 F12000 X18 Y37.974
G1 F2400 X17.999 Y-37.972 E1837.29233
G0 F12000 X18.449 Y-37.972
G1 F2400 X18.45 Y37.974 E1840.30367
G0 F12000 X18.9 Y37.974
G1 F2400 X18.899 Y-37.972 E1843.31501
G0 F12000 X19.349 Y-37.972
G1 F2400 X19.35 Y37.974 E1846.32635
G0 F12000 X19.8 Y37.974
G1 F2400 X19.799 Y-37.972 E1849.33769
G0 F12000 X20.249 Y-37.972
G1 F2400 X20.25 Y37.974 E1852.34903
G0 F12000 X20.7 Y37.974
G1 F2400 X20.699 Y-37.972 E1855.36037
G0 F12000 X21.149 Y-37.972
G1 F2400 X21.15 Y37.974 E1858.37171
G0 F12000 X21.6 Y37.974
G1 F2400 X21.599 Y-37.972 E1861.38305
G0 F12000 X22.049 Y-37.972
G1 F2400 X22.05 Y37.974 E1864.39439
G0 F12000 X22.5 Y37.974
G1 F2400 X22.499 Y-37.972 E1867.40573
G0 F12000 X22.949 Y-37.972
G1 F2400 X22.95 Y37.974 E1870.41707
G0 F12000 X23.4 Y37.974
G1 F2400 X23.399 Y-37.972 E1873.4284
G0 F12000 X23.849 Y-37.972
G1 F2400 X23.85 Y37.974 E1876.43974
G0 F12000 X24.3 Y37.974
G1 F2400 X24.299 Y-37.972 E1879.45108
G0 F12000 X24.749 Y-37.972
G1 F2400 X24.75 Y37.974 E1882.46242
G0 F12000 X25.2 Y37.974
G1 F2400 X25.199 Y-37.972 E1885.47376
G0 F12000 X25.649 Y-37.972
G1 F2400 X25.65 Y37.974 E1888.4851
G0 F12000 X26.1 Y37.974
G1 F2400 X26.099 Y-37.972 E1891.49644
G0 F12000 X26.549 Y-37.972
G1 F2400 X26.55 Y37.974 E1894.50778
G0 F12000 X27 Y37.974
G1 F2400 X26.999 Y-37.972 E1897.51912
G0 F12000 X27.449 Y-37.972
G1 F2400 X27.45 Y37.974 E1900.53046
G0 F12000 X27.9 Y37.974
G1 F2400 X27.899 Y-37.972 E1903.5418
G0 F12000 X28.349 Y-37.972
G1 F2400 X28.35 Y37.974 E1906.55314
G0 F12000 X28.8 Y37.974
G1 F2400 X28.799 Y-37.972 E1909.56448
G0 F12000 X29.249 Y-37.972
G1 F2400 X29.25 Y37.974 E1912.57582
G0 F12000 X29.7 Y37.974
G1 F2400 X29.699 Y-37.972 E1915.58716
G0 F12000 X30.149 Y-37.972
G1 F2400 X30.15 Y37.973 E1918.59845
G0 F12000 X30.6 Y37.973
G1 F2400 X30.599 Y-37.972 E1921.60975
G0 F12000 X31.049 Y-37.972
G1 F2400 X31.05 Y37.973 E1924.62105
G0 F12000 X31.5 Y37.973
G1 F2400 X31.499 Y-37.972 E1927.63235
G0 F12000 X31.949 Y-37.972
G1 F2400 X31.95 Y37.973 E1930.64365
G0 F12000 X32.4 Y37.973
G1 F2400 X32.399 Y-37.972 E1933.65495
G0 F12000 X32.849 Y-37.972
G1 F2400 X32.85 Y37.973 E1936.66625
G0 F12000 X33.3 Y37.973
G1 F2400 X33.299 Y-37.972 E1939.67755
G0 F12000 X33.749 Y-37.972
G1 F2400 X33.75 Y37.973 E1942.68885
G0 F12000 X34.2 Y37.973
G1 F2400 X34.199 Y-37.972 E1945.70015
G0 F12000 X34.649 Y-37.972
G1 F2400 X34.65 Y37.973 E1948.71145
G0 F12000 X35.1 Y37.973
G1 F2400 X35.099 Y-37.972 E1951.72275
G0 F12000 X35.549 Y-37.972
G1 F2400 X35.55 Y37.973 E1954.73405
G0 F12000 X36 Y37.973
G1 F2400 X35.999 Y-37.972 E1957.74535
G0 F12000 X36.449 Y-37.972
G1 F2400 X36.45 Y37.973 E1960.75665
G0 F12000 X36.9 Y37.973
G1 F2400 X36.899 Y-37.972 E1963.76795
G0 F12000 X37.349 Y-37.972
G1 F2400 X37.35 Y37.973 E1966.77925
G0 F12000 X37.8 Y37.973
G1 F2400 X37.799 Y-37.972 E1969.79055
G0 F12000 X38.249 Y-37.972
G1 F2400 X38.25 Y37.973 E1972.80185
G0 F12000 X38.7 Y37.973
G1 F2400 X38.699 Y-37.972 E1975.81315
G0 F12000 X39.149 Y-37.972
G1 F2400 X39.15 Y37.973 E1978.82445
G0 F12000 X39.6 Y37.973
G1 F2400 X39.599 Y-37.972 E1981.83575
G0 F12000 X40.049 Y-37.972
G1 F2400 X40.05 Y37.973 E1984.84705
G0 F12000 X40.5 Y37.973
G1 F2400 X40.499 Y-37.972 E1987.85835
G0 F12000 X40.949 Y-37.972
G1 F2400 X40.95 Y37.973 E1990.86965
G0 F12000 X41.4 Y37.973
G1 F2400 X41.399 Y-37.972 E1993.88095
G0 F12000 X41.849 Y-37.972
G1 F2400 X41.85 Y37.973 E1996.89225
G0 F12000 X42.3 Y37.973
G1 F2400 X42.299 Y-37.972 E1999.90354
G0 F12000 X42.749 Y-37.972
G1 F2400 X42.75 Y37.973 E2002.91484
G0 F12000 X43.2 Y37.973
G1 F2400 X43.199 Y-37.972 E2005.92614
G0 F12000 X43.649 Y-37.972
G1 F2400 X43.65 Y37.973 E2008.93744
G0 F12000 X44.1 Y37.973
G1 F2400 X44.099 Y-37.972 E2011.94874
G0 F12000 X44.549 Y-37.972
G1 F2400 X44.55 Y37.973 E2014.96004
G0 F12000 X45 Y37.973
G1 F2400 X44.999 Y-37.972 E2017.97134
G0 F12000 X45.449 Y-37.972
G1 F2400 X45.45 Y37.973 E2020.98264
G0 F12000 X45.9 Y37.973
G1 F2400 X45.899 Y-37.972 E2023.99394
G0 F12000 X46.349 Y-37.972
G1 F2400 X46.35 Y37.973 E2027.00524
G0 F12000 X46.8 Y37.973
G1 F2400 X46.799 Y-37.972 E2030.01654
G0 F12000 X47.249 Y-37.972
G1 F2400 X47.25 Y37.973 E2033.02784
G0 F12000 X47.7 Y37.973
G1 F2400 X47.699 Y-37.972 E2036.03914
G0 F12000 X48.149 Y-37.972
G1 F2400 X48.15 Y37.973 E2039.05044
G0 F12000 X48.6 Y37.973
G1 F2400 X48.599 Y-37.972 E2042.06174
G0 F12000 X49.049 Y-37.972
G1 F2400 X49.05 Y37.973 E2045.07304
G0 F12000 X49.5 Y37.973
G1 F2400 X49.499 Y-37.972 E2048.08434
G0 F12000 X49.949 Y-37.972
G1 F2400 X49.95 Y37.973 E2051.09564
G0 F12000 X50.4 Y37.973
G1 F2400 X50.399 Y-37.972 E2054.10694
G0 F12000 X50.849 Y-37.972
G1 F2400 X50.85 Y37.973 E2057.11824
G0 F12000 X51.3 Y37.973
G1 F2400 X51.299 Y-37.972 E2060.12954
G0 F12000 X51.749 Y-37.972
G1 F2400 X51.75 Y37.973 E2063.14084
G0 F12000 X52.2 Y37.973
G1 F2400 X52.199 Y-37.972 E2066.15214
G0 F12000 X52.649 Y-37.972
G1 F2400 X52.65 Y37.973 E2069.16344
G0 F12000 X53.1 Y37.973
G1 F2400 X53.099 Y-37.972 E2072.17474
G0 F12000 X53.549 Y-37.972
G1 F2400 X53.55 Y37.973 E2075.18604
G0 F12000 X54 Y37.973
G1 F2400 X53.999 Y-37.972 E2078.19734
G0 F12000 X54.449 Y-37.972
G1 F2400 X54.45 Y37.973 E2081.20864
G0 F12000 X54.9 Y37.973
G1 F2400 X54.899 Y-37.972 E2084.21993
G0 F12000 X55.349 Y-37.972
G1 F2400 X55.35 Y37.973 E2087.23123
G0 F12000 X55.8 Y37.973
G1 F2400 X55.799 Y-37.972 E2090.24253
G0 F12000 X56.249 Y-37.972
G1 F2400 X56.25 Y37.973 E2093.25383
G0 F12000 X56.7 Y37.973
G1 F2400 X56.699 Y-37.972 E2096.26513
G0 F12000 X57.149 Y-37.972
G1 F2400 X57.15 Y37.973 E2099.27643
G0 F12000 X57.6 Y37.973
G1 F2400 X57.599 Y-37.972 E2102.28773
G0 F12000 X58.517 Y-38.507
G1 F2400 X58.543 Y-38.557 E2102.28829
G0 F12000 X58.517 Y38.507
G0 X58.517 Y38.507
G1 F2400 X58.548 Y38.556 E2102.28884
G0 F12000 X-58.517 Y-38.507
G0 X-58.517 Y-38.507
G1 F2400 X-58.543 Y-38.557 E2102.2894
G0 F12000 X-58.184 Y-37.8
; TYPE:BOTTOM-FILL
G1 F2400 X58.183 Y-37.8 E2106.90347
G0 F12000 X58.183 Y-37.35
G1 F2400 X57.474 Y-37.125 E2106.93159
G1 X58.183 Y-36.675 E2106.95971
G1 X57.474 Y-36.225 E2106.98782
G1 X58.183 Y-35.775 E2107.01594
G1 X57.474 Y-35.325 E2107.04406
G1 X58.183 Y-34.875 E2107.07218
G1 X57.474 Y-34.425 E2107.10029
G1 X58.183 Y-33.975 E2107.12841
G1 X57.474 Y-33.525 E2107.15653
G1 X58.183 Y-33.075 E2107.18465
G1 X57.474 Y-32.625 E2107.21276
G1 X58.183 Y-32.175 E2107.24088
G1 X57.474 Y-31.725 E2107.269
G1 X58.183 Y-31.275 E2107.29712
G1 X57.474 Y-30.825 E2107.32523
G1 X58.183 Y-30.375 E2107.35335
G1 X57.474 Y-29.925 E2107.38147
G1 X58.183 Y-29.475 E2107.40959
G1 X57.474 Y-29.025 E2107.4377
G1 X58.183 Y-28.575 E2107.46582
G1 X57.474 Y-28.125 E2107.49394
G1 X58.183 Y-27.675 E2107.52206
G1 X57.474 Y-27.225 E2107.55017
G1 X58.183 Y-26.775 E2107.57829
G1 X57.474 Y-26.325 E2107.60641
G1 X58.183 Y-25.875 E2107.63453
G1 X57.474 Y-25.425 E2107.66264
G1 X58.183 Y-24.975 E2107.69076
G1 X57.474 Y-24.525 E2107.71888
G1 X58.183 Y-24.075 E2107.747
G1 X57.474 Y-23.625 E2107.77511
G1 X58.183 Y-23.175 E2107.80323
G1 X57.474 Y-22.725 E2107.83135
G1 X58.183 Y-22.275 E2107.85947
G1 X57.474 Y-21.825 E2107.88758
G1 X58.183 Y-21.375 E2107.9157
G1 X57.474 Y-20.925 E2107.94382
G1 X58.183 Y-20.475 E2107.97194
G1 X57.474 Y-20.025 E2108.00005
G1 X58.183 Y-19.575 E2108.02817
G1 X57.474 Y-19.125 E2108.05629
G1 X58.183 Y-18.675 E2108.0844
G1 X57.474 Y-18.225 E2108.11252
G1 X58.183 Y-17.775 E2108.14064
G1 X57.474 Y-17.325 E2108.16876
G1 X58.183 Y-16.875 E2108.19687
G1 X57.474 Y-16.425 E2108.22499
G1 X58.183 Y-15.975 E2108.25311
G1 X57.474 Y-15.525 E2108.28123
G1 X58.183 Y-15.075 E2108.30934
G1 X57.474 Y-14.625 E2108.33746
G1 X58.183 Y-14.175 E2108.36558
G1 X57.474 Y-13.725 E2108.3937
G1 X58.183 Y-13.275 E2108.42181
G1 X57.474 Y-12.825 E2108.44993
G1 X58.183 Y-12.375 E2108.47805
G1 X57.474 Y-11.925 E2108.50617
G1 X58.183 Y-11.475 E2108.53428
G1 X57.474 Y-11.025 E2108.5624
G1 X58.183 Y-10.575 E2108.59052
G1 X57.474 Y-10.125 E2108.61864
G1 X58.183 Y-9.675 E2108.64675
G1 X57.474 Y-9.225 E2108.67487
G1 X58.183 Y-8.775 E2108.70299
G1 X57.474 Y-8.325 E2108.73111
G1 X58.183 Y-7.875 E2108.75922
G1 X57.474 Y-7.425 E2108.78734
G1 X58.183 Y-6.975 E2108.81546
G1 X57.474 Y-6.525 E2108.84358
G1 X58.183 Y-6.075 E2108.87169
G1 X57.474 Y-5.625 E2108.89981
G1 X58.183 Y-5.175 E2108.92793
G1 X57.474 Y-4.725 E2108.95605
G1 X58.183 Y-4.275 E2108.98416
G1 X57.474 Y-3.825 E2109.01228
G1 X58.183 Y-3.375 E2109.0404
G1 X57.474 Y-2.925 E2109.06852
G1 X58.183 Y-2.475 E2109.09663
G1 X57.474 Y-2.025 E2109.12475
G1 X58.183 Y-1.575 E2109.15287
G1 X57.474 Y-1.125 E2109.18099
G1 X58.183 Y-0.675 E2109.2091
G1 X57.474 Y-0.225 E2109.23722
G1 X58.184 Y0.224 E2109.26535
G1 X57.474 Y0.674 E2109.29349
G1 X58.184 Y1.124 E2109.32164
G1 X57.474 Y1.574 E2109.34979
G1 X58.184 Y2.024 E2109.37793
G1 X57.474 Y2.474 E2109.40608
G1 X58.184 Y2.924 E2109.43422
G1 X57.474 Y3.374 E2109.46237
G1 X58.184 Y3.824 E2109.49051
G1 X57.474 Y4.274 E2109.51866
G1 X58.184 Y4.724 E2109.54681
G1 X57.474 Y5.174 E2109.57495
G1 X58.184 Y5.624 E2109.6031
G1 X57.474 Y6.074 E2109.63124
G1 X58.184 Y6.524 E2109.65939
G1 X57.474 Y6.974 E2109.68754
G1 X58.184 Y7.424 E2109.71568
G1 X57.474 Y7.874 E2109.74383
G1 X58.184 Y8.324 E2109.77197
G1 X57.474 Y8.774 E2109.80012
G1 X58.184 Y9.224 E2109.82826
G1 X57.474 Y9.674 E2109.85641
G1 X58.184 Y10.124 E2109.88456
G1 X57.474 Y10.574 E2109.9127
G1 X58.184 Y11.024 E2109.94085
G1 X57.474 Y11.474 E2109.96899
G1 X58.184 Y11.924 E2109.99714
G1 X57.474 Y12.374 E2110.02528
G1 X58.184 Y12.824 E2110.05343
G1 X57.474 Y13.274 E2110.08158
G1 X58.184 Y13.724 E2110.10972
G1 X57.474 Y14.174 E2110.13787
G1 X58.184 Y14.624 E2110.16601
G1 X57.474 Y15.074 E2110.19416
G1 X58.184 Y15.524 E2110.2223
G1 X57.474 Y15.974 E2110.25045
G1 X58.184 Y16.424 E2110.2786
G1 X57.474 Y16.874 E2110.30674
G1 X58.184 Y17.324 E2110.33489
G1 X57.474 Y17.774 E2110.36303
G1 X58.184 Y18.224 E2110.39118
G1 X57.474 Y18.674 E2110.41932
G1 X58.184 Y19.124 E2110.44747
G1 X57.474 Y19.574 E2110.47562
G1 X58.184 Y20.024 E2110.50376
G1 X57.474 Y20.474 E2110.53191
G1 X58.184 Y20.924 E2110.56005
G1 X57.474 Y21.374 E2110.5882
G1 X58.184 Y21.824 E2110.61634
G1 X57.474 Y22.274 E2110.64449
G1 X58.184 Y22.724 E2110.67264
G1 X57.474 Y23.174 E2110.70078
G1 X58.184 Y23.624 E2110.72893
G1 X57.474 Y24.074 E2110.75707
G1 X58.184 Y24.524 E2110.78522
G1 X57.474 Y24.974 E2110.81336
G1 X58.184 Y25.424 E2110.84151
G1 X57.474 Y25.874 E2110.86966
G1 X58.184 Y26.324 E2110.8978
G1 X57.474 Y26.774 E2110.92595
G1 X58.184 Y27.224 E2110.95409
G1 X57.474 Y27.674 E2110.98224
G1 X58.184 Y28.124 E2111.01038
G1 X57.474 Y28.574 E2111.03853
G1 X58.184 Y29.024 E2111.06668
G1 X57.474 Y29.474 E2111.09482
G1 X58.184 Y29.924 E2111.12297
G1 X57.474 Y30.374 E2111.15111
G1 X58.184 Y30.824 E2111.17926
G1 X57.474 Y31.274 E2111.20741
G1 X58.184 Y31.724 E2111.23555
G1 X57.474 Y32.174 E2111.2637
G1 X58.184 Y32.624 E2111.29184
G1 X57.474 Y33.075 E2111.31993
G1 X58.184 Y33.525 E2111.34808
G1 X57.474 Y33.975 E2111.37622
G1 X58.184 Y34.425 E2111.40437
G1 X57.474 Y34.875 E2111.43251
G1 X58.184 Y35.325 E2111.46066
G1 X57.474 Y35.775 E2111.48881
G1 X58.184 Y36.225 E2111.51695
G1 X57.474 Y36.675 E2111.5451
G1 X58.184 Y37.125 E2111.57324
G1 X57.474 Y37.35 E2111.60278
G0 F12000 X58.184 Y37.8
G1 F2400 X-58.184 Y37.8 E2116.21689
G0 F12000 X-58.184 Y37.35
G1 F2400 X-57.474 Y37.125 E2116.24504
G1 X-58.184 Y36.675 E2116.27319
G1 X-57.474 Y36.225 E2116.30134
G1 X-58.184 Y35.775 E2116.32948
G1 X-57.474 Y35.325 E2116.35763
G1 X-58.184 Y34.875 E2116.38577
G1 X-57.474 Y34.425 E2116.41392
G1 X-58.184 Y33.975 E2116.44206
G1 X-57.474 Y33.525 E2116.47021
G1 X-58.184 Y33.075 E2116.49836
G1 X-57.474 Y32.625 E2116.5265
G1 X-58.184 Y32.175 E2116.55465
G1 X-57.474 Y31.725 E2116.58279
G1 X-58.184 Y31.275 E2116.61094
G1 X-57.474 Y30.825 E2116.63908
G1 X-58.184 Y30.375 E2116.66723
G1 X-57.474 Y29.925 E2116.69538
G1 X-58.184 Y29.475 E2116.72352
G1 X-57.474 Y29.025 E2116.75167
G1 X-58.184 Y28.575 E2116.77981
G1 X-57.474 Y28.125 E2116.80796
G1 X-58.184 Y27.675 E2116.8361
G1 X-57.474 Y27.225 E2116.86425
G1 X-58.184 Y26.775 E2116.8924
G1 X-57.474 Y26.325 E2116.92054
G1 X-58.184 Y25.875 E2116.94869
G1 X-57.474 Y25.425 E2116.97683
G1 X-58.184 Y24.975 E2117.00498
G1 X-57.474 Y24.525 E2117.03312
G1 X-58.184 Y24.075 E2117.06127
G1 X-57.474 Y23.625 E2117.08942
G1 X-58.184 Y23.175 E2117.11756
G1 X-57.474 Y22.725 E2117.14571
G1 X-58.184 Y22.275 E2117.17385
G1 X-57.474 Y21.825 E2117.202
G1 X-58.184 Y21.375 E2117.23014
G1 X-57.474 Y20.925 E2117.25829
G1 X-58.184 Y20.475 E2117.28644
G1 X-57.474 Y20.025 E2117.31458
G1 X-58.184 Y19.575 E2117.34273
G1 X-57.474 Y19.125 E2117.37087
G1 X-58.184 Y18.675 E2117.39902
G1 X-57.474 Y18.225 E2117.42716
G1 X-58.184 Y17.775 E2117.45531
G1 X-57.474 Y17.325 E2117.48346
G1 X-58.184 Y16.875 E2117.5116
G1 X-57.474 Y16.425 E2117.53975
G1 X-58.184 Y15.975 E2117.56789
G1 X-57.474 Y15.525 E2117.59604
G1 X-58.184 Y15.075 E2117.62419
G1 X-57.474 Y14.625 E2117.65233
G1 X-58.184 Y14.175 E2117.68048
G1 X-57.474 Y13.725 E2117.70862
G1 X-58.184 Y13.275 E2117.73677
G1 X-57.474 Y12.825 E2117.76491
G1 X-58.184 Y12.375 E2117.79306
G1 X-57.474 Y11.925 E2117.82121
G1 X-58.184 Y11.475 E2117.84935
G1 X-57.474 Y11.025 E2117.8775
G1 X-58.184 Y10.575 E2117.90564
G1 X-57.474 Y10.125 E2117.93379
G1 X-58.184 Y9.675 E2117.96193
G1 X-57.474 Y9.225 E2117.99008
G1 X-58.184 Y8.775 E2118.01823
G1 X-57.474 Y8.325 E2118.04637
G1 X-58.184 Y7.875 E2118.07452
G1 X-57.474 Y7.425 E2118.10266
G1 X-58.184 Y6.975 E2118.13081
G1 X-57.474 Y6.525 E2118.15895
G1 X-58.184 Y6.075 E2118.1871
G1 X-57.474 Y5.625 E2118.21525
G1 X-58.184 Y5.175 E2118.24339
G1 X-57.474 Y4.725 E2118.27154
G1 X-58.184 Y4.275 E2118.29968
G1 X-57.474 Y3.825 E2118.32783
G1 X-58.184 Y3.375 E2118.35597
G1 X-57.474 Y2.925 E2118.38412
G1 X-58.184 Y2.475 E2118.41227
G1 X-57.474 Y2.025 E2118.44041
G1 X-58.184 Y1.575 E2118.46856
G1 X-57.474 Y1.125 E2118.4967
G1 X-58.184 Y0.675 E2118.52485
G1 X-57.474 Y0.225 E2118.55299
G1 X-58.184 Y-0.224 E2118.58112
G1 X-57.474 Y-0.674 E2118.60927
G1 X-58.184 Y-1.124 E2118.63741
G1 X-57.474 Y-1.574 E2118.66556
G1 X-58.184 Y-2.024 E2118.69371
G1 X-57.474 Y-2.474 E2118.72185
G1 X-58.184 Y-2.924 E2118.75
G1 X-57.474 Y-3.374 E2118.77814
G1 X-58.184 Y-3.824 E2118.80629
G1 X-57.474 Y-4.274 E2118.83443
G1 X-58.184 Y-4.724 E2118.86258
G1 X-57.474 Y-5.174 E2118.89073
G1 X-58.184 Y-5.624 E2118.91887
G1 X-57.474 Y-6.074 E2118.94702
G1 X-58.184 Y-6.524 E2118.97516
G1 X-57.474 Y-6.974 E2119.00331
G1 X-58.184 Y-7.424 E2119.03145
G1 X-57.474 Y-7.874 E2119.0596
G1 X-58.184 Y-8.324 E2119.08775
G1 X-57.474 Y-8.774 E2119.11589
G1 X-58.184 Y-9.224 E2119.14404
G1 X-57.474 Y-9.674 E2119.17218
G1 X-58.184 Y-10.124 E2119.20033
G1 X-57.474 Y-10.574 E2119.22847
G1 X-58.184 Y-11.024 E2119.25662
G1 X-57.474 Y-11.474 E2119.28477
G1 X-58.184 Y-11.924 E2119.31291
G1 X-57.474 Y-12.374 E2119.34106
G1 X-58.184 Y-12.824 E2119.3692
G1 X-57.474 Y-13.274 E2119.39735
G1 X-58.184 Y-13.724 E2119.42549
G1 X-57.474 Y-14.174 E2119.45364
G1 X-58.184 Y-14.624 E2119.48179
G1 X-57.474 Y-15.074 E2119.50993
G1 X-58.184 Y-15.524 E2119.53808
G1 X-57.474 Y-15.974 E2119.56622
G1 X-58.184 Y-16.424 E2119.59437
G1 X-57.474 Y-16.874 E2119.62251
G1 X-58.184 Y-17.324 E2119.65066
G1 X-57.474 Y-17.774 E2119.67881
G1 X-58.184 Y-18.224 E2119.70695
G1 X-57.474 Y-18.674 E2119.7351
G1 X-58.184 Y-19.124 E2119.76324
G1 X-57.474 Y-19.574 E2119.79139
G1 X-58.184 Y-20.024 E2119.81953
G1 X-57.474 Y-20.474 E2119.84768
G1 X-58.184 Y-20.924 E2119.87583
G1 X-57.474 Y-21.374 E2119.90397
G1 X-58.184 Y-21.824 E2119.93212
G1 X-57.474 Y-22.274 E2119.96026
G1 X-58.184 Y-22.724 E2119.98841
G1 X-57.474 Y-23.174 E2120.01656
G1 X-58.184 Y-23.624 E2120.0447
G1 X-57.474 Y-24.074 E2120.07285
G1 X-58.184 Y-24.524 E2120.10099
G1 X-57.474 Y-24.974 E2120.12914
G1 X-58.184 Y-25.424 E2120.15728
G1 X-57.474 Y-25.874 E2120.18543
G1 X-58.184 Y-26.324 E2120.21358
G1 X-57.474 Y-26.774 E2120.24172
G1 X-58.184 Y-27.224 E2120.26987
G1 X-57.474 Y-27.674 E2120.29801
G1 X-58.184 Y-28.124 E2120.32616
G1 X-57.474 Y-28.574 E2120.3543
G1 X-58.184 Y-29.024 E2120.38245
G1 X-57.474 Y-29.474 E2120.4106
G1 X-58.184 Y-29.924 E2120.43874
G1 X-57.474 Y-30.374 E2120.46689
G1 X-58.184 Y-30.824 E2120.49503
G1 X-57.474 Y-31.274 E2120.52318
G1 X-58.184 Y-31.724 E2120.55132
G1 X-57.474 Y-32.174 E2120.57947
G1 X-58.184 Y-32.624 E2120.60762
G1 X-57.474 Y-33.075 E2120.63571
G1 X-58.184 Y-33.525 E2120.66385
G1 X-57.474 Y-33.975 E2120.692
G1 X-58.184 Y-34.425 E2120.72014
G1 X-57.474 Y-34.875 E2120.74829
G1 X-58.184 Y-35.325 E2120.77643
G1 X-57.474 Y-35.775 E2120.80458
G1 X-58.184 Y-36.225 E2120.83273
G1 X-57.474 Y-36.675 E2120.86087
G1 X-58.184 Y-37.125 E2120.88902
G1 X-57.474 Y-37.35 E2120.91855
; Layer Change GCode
; LAYER:2
G0 F12000 X-58.474 Y39.033 Z0.7
G0 X-58.479 Y39.433
G0 X-58.476 Y39.134
G0 X-58.476 Y39.134
G0 X-58.488 Y39.459
G0 X-58.488 Y39.459
G0 X-58.509 Y38.553
; TYPE:WALL-INNER
G1 F2400 X-58.509 Y38.553 E2120.91855
G1 X-58.539 Y38.528 E2120.9201
G1 X-58.559 Y38.408 E2120.92492
G1 X-58.559 Y-38.407 E2123.97072
G1 X-58.54 Y-38.52 E2123.97526
G1 X-58.498 Y-38.554 E2123.9774
G1 X58.449 Y-38.559 E2128.61448
G1 X58.507 Y-38.553 E2128.61679
G1 X58.539 Y-38.527 E2128.61842
G1 X58.559 Y-38.407 E2128.62325
G1 X58.559 Y38.408 E2131.66904
G1 X58.54 Y38.522 E2131.67362
G1 X58.499 Y38.554 E2131.67569
G1 X-58.509 Y38.553 E2136.31518
G0 F12000 X-58.606 Y38.995
G1 F2400 X-58.606 Y38.995 E2136.31518
G1 X-58.727 Y38.956 E2136.32022
G1 X-58.897 Y38.817 E2136.32893
G1 X-58.972 Y38.672 E2136.3354
G1 X-59.009 Y38.445 E2136.34452
G1 X-59.009 Y-38.444 E2139.39325
G1 X-58.971 Y-38.674 E2139.40249
G1 X-58.901 Y-38.809 E2139.40852
G1 X-58.702 Y-38.967 E2139.4186
G1 X-58.611 Y-38.994 E2139.42236
G1 X-58.463 Y-39.009 E2139.42826
G1 X58.463 Y-39.009 E2144.0645
G1 X58.606 Y-38.995 E2144.0702
G1 X58.726 Y-38.956 E2144.0752
G1 X58.898 Y-38.815 E2144.08402
G1 X58.971 Y-38.674 E2144.09031
G1 X59.009 Y-38.444 E2144.09956
G1 X59.009 Y38.445 E2147.14829
G1 X58.972 Y38.672 E2147.15741
G1 X58.9 Y38.811 E2147.16361
G1 X58.702 Y38.967 E2147.17361
G1 X58.611 Y38.994 E2147.17737
G1 X58.463 Y39.009 E2147.18327
G1 X-58.463 Y39.009 E2151.81951
G1 X-58.606 Y38.995 E2151.82521
G0 F12000 X-58.488 Y39.459
; TYPE:WALL-OUTER
G1 F1800 X-58.488 Y39.459 E2151.82521
G1 X-58.698 Y39.438 E2151.83358
G1 X-58.944 Y39.36 E2151.84381
G1 X-59.255 Y39.105 E2151.85976
G1 X-59.404 Y38.817 E2151.87261
G1 X-59.459 Y38.481 E2151.88611
G1 X-59.459 Y-38.48 E2154.9377
G1 X-59.404 Y-38.817 E2154.95124
G1 X-59.255 Y-39.103 E2154.96402
G1 X-58.914 Y-39.373 E2154.98127
G1 X-58.696 Y-39.438 E2154.99029
G1 X-58.488 Y-39.459 E2154.99858
G1 X58.488 Y-39.459 E2159.6368
G1 X58.698 Y-39.438 E2159.64517
G1 X58.944 Y-39.36 E2159.6554
G1 X59.255 Y-39.104 E2159.67137
G1 X59.404 Y-38.817 E2159.6842
G1 X59.459 Y-38.48 E2159.69774
G1 X59.459 Y38.481 E2162.74932
G1 X59.404 Y38.817 E2162.76282
G1 X59.256 Y39.103 E2162.77559
G1 X58.914 Y39.373 E2162.79287
G1 X58.696 Y39.438 E2162.80189
G1 X58.488 Y39.459 E2162.81018
G1 X-58.488 Y39.459 E2167.4484
G0 F12000 X-58.638 Y38.722
; TYPE:FILL
G1 F2400 X-58.629 Y38.689 E2167.45023
G1 X-58.668 Y38.713 E2167.45075
G0 F12000 X-58.359 Y38.25
G1 F2400 X58.359 Y38.25 E2172.07874
G0 F12000 X58.359 Y37.8
G1 F2400 X-58.359 Y37.8 E2176.70674
G0 F12000 X-58.359 Y37.35
G1 F2400 X58.359 Y37.35 E2181.33473
G0 F12000 X58.359 Y36.9
G1 F2400 X-58.359 Y36.9 E2185.96272
G0 F12000 X-58.359 Y36.45
G1 F2400 X58.359 Y36.45 E2190.59071
G0 F12000 X58.359 Y36
G1 F2400 X-58.359 Y36 E2195.21871
G0 F12000 X-58.359 Y35.55
G1 F2400 X58.359 Y35.55 E2199.8467
G0 F12000 X58.359 Y35.1
G1 F2400 X-58.359 Y35.1 E2204.47469
G0 F12000 X-58.359 Y34.65
G1 F2400 X58.359 Y34.65 E2209.10268
G0 F12000 X58.359 Y34.2
G1 F2400 X-58.359 Y34.2 E2213.73067
G0 F12000 X-58.359 Y33.75
G1 F2400 X58.359 Y33.75 E2218.35867
G0 F12000 X58.359 Y33.3
G1 F2400 X-58.359 Y33.3 E2222.98666
G0 F12000 X-58.359 Y32.85
G1 F2400 X58.359 Y32.85 E2227.61465
G0 F12000 X58.359 Y32.399
G1 F2400 X-58.359 Y32.4 E2232.24264
G0 F12000 X-58.359 Y31.95
G1 F2400 X58.359 Y31.949 E2236.87064
G0 F12000 X58.359 Y31.499
G1 F2400 X-58.359 Y31.5 E2241.49863
G0 F12000 X-58.359 Y31.05
G1 F2400 X58.359 Y31.049 E2246.12662
G0 F12000 X58.359 Y30.599
G1 F2400 X-58.359 Y30.6 E2250.75461
G0 F12000 X-58.359 Y30.15
G1 F2400 X58.359 Y30.149 E2255.3826
G0 F12000 X58.359 Y29.699
G1 F2400 X-58.359 Y29.7 E2260.0106
G0 F12000 X-58.359 Y29.25
G1 F2400 X58.359 Y29.249 E2264.63859
G0 F12000 X58.359 Y28.799
G1 F2400 X-58.359 Y28.8 E2269.26658
G0 F12000 X-58.359 Y28.35
G1 F2400 X58.359 Y28.349 E2273.89457
G0 F12000 X58.359 Y27.899
G1 F2400 X-58.359 Y27.9 E2278.52257
G0 F12000 X-58.359 Y27.45
G1 F2400 X58.359 Y27.449 E2283.15056
G0 F12000 X58.359 Y26.999
G1 F2400 X-58.359 Y27 E2287.77855
G0 F12000 X-58.359 Y26.55
G1 F2400 X58.359 Y26.549 E2292.40654
G0 F12000 X58.359 Y26.099
G1 F2400 X-58.359 Y26.1 E2297.03453
G0 F12000 X-58.359 Y25.65
G1 F2400 X58.359 Y25.649 E2301.66253
G0 F12000 X58.359 Y25.199
G1 F2400 X-58.359 Y25.2 E2306.29052
G0 F12000 X-58.359 Y24.75
G1 F2400 X58.359 Y24.749 E2310.91851
G0 F12000 X58.359 Y24.299
G1 F2400 X-58.359 Y24.3 E2315.5465
G0 F12000 X-58.359 Y23.85
G1 F2400 X58.359 Y23.849 E2320.1745
G0 F12000 X58.359 Y23.399
G1 F2400 X-58.359 Y23.4 E2324.80249
G0 F12000 X-58.359 Y22.95
G1 F2400 X58.359 Y22.949 E2329.43048
G0 F12000 X58.359 Y22.499
G1 F2400 X-58.359 Y22.5 E2334.05847
G0 F12000 X-58.359 Y22.05
G1 F2400 X58.359 Y22.049 E2338.68646
G0 F12000 X58.359 Y21.599
G1 F2400 X-58.359 Y21.6 E2343.31446
G0 F12000 X-58.359 Y21.15
G1 F2400 X58.359 Y21.149 E2347.94245
G0 F12000 X58.359 Y20.699
G1 F2400 X-58.359 Y20.7 E2352.57044
G0 F12000 X-58.359 Y20.25
G1 F2400 X58.359 Y20.249 E2357.19843
G0 F12000 X58.359 Y19.799
G1 F2400 X-58.359 Y19.8 E2361.82643
G0 F12000 X-58.359 Y19.35
G1 F2400 X58.359 Y19.349 E2366.45442
G0 F12000 X58.359 Y18.899
G1 F2400 X-58.359 Y18.9 E2371.08241
G0 F12000 X-58.359 Y18.45
G1 F2400 X58.359 Y18.449 E2375.7104
G0 F12000 X58.359 Y17.999
G1 F2400 X-58.359 Y18 E2380.33839
G0 F12000 X-58.359 Y17.55
G1 F2400 X58.359 Y17.549 E2384.96639
G0 F12000 X58.359 Y17.099
G1 F2400 X-58.359 Y17.1 E2389.59438
G0 F12000 X-58.359 Y16.65
G1 F2400 X58.359 Y16.649 E2394.22237
G0 F12000 X58.359 Y16.199
G1 F2400 X-58.359 Y16.2 E2398.85036
G0 F12000 X-58.359 Y15.75
G1 F2400 X58.359 Y15.749 E2403.47836
G0 F12000 X58.359 Y15.299
G1 F2400 X-58.359 Y15.3 E2408.10635
G0 F12000 X-58.359 Y14.85
G1 F2400 X58.359 Y14.849 E2412.73434
G0 F12000 X58.359 Y14.399
G1 F2400 X-58.359 Y14.4 E2417.36233
G0 F12000 X-58.359 Y13.95
G1 F2400 X58.359 Y13.949 E2421.99033
G0 F12000 X58.359 Y13.499
G1 F2400 X-58.359 Y13.5 E2426.61832
G0 F12000 X-58.359 Y13.05
G1 F2400 X58.359 Y13.049 E2431.24631
G0 F12000 X58.359 Y12.599
G1 F2400 X-58.359 Y12.6 E2435.8743
G0 F12000 X-58.359 Y12.15
G1 F2400 X58.359 Y12.149 E2440.50229
G0 F12000 X58.359 Y11.699
G1 F2400 X-58.359 Y11.7 E2445.13029
G0 F12000 X-58.359 Y11.25
G1 F2400 X58.359 Y11.249 E2449.75828
G0 F12000 X58.359 Y10.799
G1 F2400 X-58.359 Y10.8 E2454.38627
G0 F12000 X-58.359 Y10.35
G1 F2400 X58.359 Y10.349 E2459.01426
G0 F12000 X58.359 Y9.899
G1 F2400 X-58.359 Y9.9 E2463.64226
G0 F12000 X-58.359 Y9.45
G1 F2400 X58.359 Y9.449 E2468.27025
G0 F12000 X58.359 Y8.999
G1 F2400 X-58.359 Y9 E2472.89824
G0 F12000 X-58.359 Y8.55
G1 F2400 X58.359 Y8.549 E2477.52623
G0 F12000 X58.359 Y8.099
G1 F2400 X-58.359 Y8.1 E2482.15422
G0 F12000 X-58.359 Y7.65
G1 F2400 X58.359 Y7.649 E2486.78222
G0 F12000 X58.359 Y7.199
G1 F2400 X-58.359 Y7.2 E2491.41021
G0 F12000 X-58.359 Y6.75
G1 F2400 X58.359 Y6.749 E2496.0382
G0 F12000 X58.359 Y6.299
G1 F2400 X-58.359 Y6.3 E2500.66619
G0 F12000 X-58.359 Y5.85
G1 F2400 X58.359 Y5.849 E2505.29419
G0 F12000 X58.359 Y5.399
G1 F2400 X-58.359 Y5.4 E2509.92218
G0 F12000 X-58.359 Y4.95
G1 F2400 X58.359 Y4.949 E2514.55017
G0 F12000 X58.359 Y4.499
G1 F2400 X-58.359 Y4.5 E2519.17816
G0 F12000 X-58.359 Y4.05
G1 F2400 X58.359 Y4.049 E2523.80615
G0 F12000 X58.359 Y3.599
G1 F2400 X-58.359 Y3.6 E2528.43415
G0 F12000 X-58.359 Y3.15
G1 F2400 X58.359 Y3.149 E2533.06214
G0 F12000 X58.359 Y2.699
G1 F2400 X-58.359 Y2.7 E2537.69013
G0 F12000 X-58.359 Y2.25
G1 F2400 X58.359 Y2.249 E2542.31812
G0 F12000 X58.359 Y1.799
G1 F2400 X-58.359 Y1.8 E2546.94612
G0 F12000 X-58.359 Y1.35
G1 F2400 X58.359 Y1.349 E2551.57411
G0 F12000 X58.359 Y0.899
G1 F2400 X-58.359 Y0.9 E2556.2021
G0 F12000 X-58.359 Y0.45
G1 F2400 X58.359 Y0.449 E2560.83009
G0 F12000 X58.359 Y0
G1 F2400 X-58.359 Y0 E2565.45808
G0 F12000 X-58.359 Y-0.449
G1 F2400 X58.359 Y-0.45 E2570.08608
G0 F12000 X58.359 Y-0.9
G1 F2400 X-58.359 Y-0.899 E2574.71407
G0 F12000 X-58.359 Y-1.349
G1 F2400 X58.359 Y-1.35 E2579.34206
G0 F12000 X58.359 Y-1.8
G1 F2400 X-58.359 Y-1.799 E2583.97005
G0 F12000 X-58.359 Y-2.249
G1 F2400 X58.359 Y-2.25 E2588.59805
G0 F12000 X58.359 Y-2.7
G1 F2400 X-58.359 Y-2.699 E2593.22604
G0 F12000 X-58.359 Y-3.149
G1 F2400 X58.359 Y-3.15 E2597.85403
G0 F12000 X58.359 Y-3.6
G1 F2400 X-58.359 Y-3.599 E2602.48202
G0 F12000 X-58.359 Y-4.049
G1 F2400 X58.359 Y-4.05 E2607.11001
G0 F12000 X58.359 Y-4.5
G1 F2400 X-58.359 Y-4.499 E2611.73801
G0 F12000 X-58.359 Y-4.949
G1 F2400 X58.359 Y-4.95 E2616.366
G0 F12000 X58.359 Y-5.4
G1 F2400 X-58.359 Y-5.399 E2620.99399
G0 F12000 X-58.359 Y-5.849
G1 F2400 X58.359 Y-5.85 E2625.62198
G0 F12000 X58.359 Y-6.3
G1 F2400 X-58.359 Y-6.299 E2630.24998
G0 F12000 X-58.359 Y-6.749
G1 F2400 X58.359 Y-6.75 E2634.87797
G0 F12000 X58.359 Y-7.2
G1 F2400 X-58.359 Y-7.199 E2639.50596
G0 F12000 X-58.359 Y-7.649
G1 F2400 X58.359 Y-7.65 E2644.13395
G0 F12000 X58.359 Y-8.1
G1 F2400 X-58.359 Y-8.099 E2648.76195
G0 F12000 X-58.359 Y-8.549
G1 F2400 X58.359 Y-8.55 E2653.38994
G0 F12000 X58.359 Y-9
G1 F2400 X-58.359 Y-8.999 E2658.01793
G0 F12000 X-58.359 Y-9.449
G1 F2400 X58.359 Y-9.45 E2662.64592
G0 F12000 X58.359 Y-9.9
G1 F2400 X-58.359 Y-9.899 E2667.27391
G0 F12000 X-58.359 Y-10.349
G1 F2400 X58.359 Y-10.35 E2671.90191
G0 F12000 X58.359 Y-10.8
G1 F2400 X-58.359 Y-10.799 E2676.5299
G0 F12000 X-58.359 Y-11.249
G1 F2400 X58.359 Y-11.25 E2681.15789
G0 F12000 X58.359 Y-11.7
G1 F2400 X-58.359 Y-11.699 E2685.78588
G0 F12000 X-58.359 Y-12.149
G1 F2400 X58.359 Y-12.15 E2690.41388
G0 F12000 X58.359 Y-12.6
G1 F2400 X-58.359 Y-12.599 E2695.04187
G0 F12000 X-58.359 Y-13.049
G1 F2400 X58.359 Y-13.05 E2699.66986
G0 F12000 X58.359 Y-13.5
G1 F2400 X-58.359 Y-13.499 E2704.29785
G0 F12000 X-58.359 Y-13.949
G1 F2400 X58.359 Y-13.95 E2708.92584
G0 F12000 X58.359 Y-14.4
G1 F2400 X-58.359 Y-14.399 E2713.55384
G0 F12000 X-58.359 Y-14.849
G1 F2400 X58.359 Y-14.85 E2718.18183
G0 F12000 X58.359 Y-15.3
G1 F2400 X-58.359 Y-15.299 E2722.80982
G0 F12000 X-58.359 Y-15.749
G1 F2400 X58.359 Y-15.75 E2727.43781
G0 F12000 X58.359 Y-16.2
G1 F2400 X-58.359 Y-16.199 E2732.06581
G0 F12000 X-58.359 Y-16.649
G1 F2400 X58.359 Y-16.65 E2736.6938
G0 F12000 X58.359 Y-17.1
G1 F2400 X-58.359 Y-17.099 E2741.32179
G0 F12000 X-58.359 Y-17.549
G1 F2400 X58.359 Y-17.55 E2745.94978
G0 F12000 X58.359 Y-18
G1 F2400 X-58.359 Y-17.999 E2750.57777
G0 F12000 X-58.359 Y-18.449
G1 F2400 X58.359 Y-18.45 E2755.20577
G0 F12000 X58.359 Y-18.9
G1 F2400 X-58.359 Y-18.899 E2759.83376
G0 F12000 X-58.359 Y-19.349
G1 F2400 X58.359 Y-19.35 E2764.46175
G0 F12000 X58.359 Y-19.8
G1 F2400 X-58.359 Y-19.799 E2769.08974
G0 F12000 X-58.359 Y-20.249
G1 F2400 X58.359 Y-20.25 E2773.71774
G0 F12000 X58.359 Y-20.7
G1 F2400 X-58.359 Y-20.699 E2778.34573
G0 F12000 X-58.359 Y-21.149
G1 F2400 X58.359 Y-21.15 E2782.97372
G0 F12000 X58.359 Y-21.6
G1 F2400 X-58.359 Y-21.599 E2787.60171
G0 F12000 X-58.359 Y-22.049
G1 F2400 X58.359 Y-22.05 E2792.2297
G0 F12000 X58.359 Y-22.5
G1 F2400 X-58.359 Y-22.499 E2796.8577
G0 F12000 X-58.359 Y-22.949
G1 F2400 X58.359 Y-22.95 E2801.48569
G0 F12000 X58.359 Y-23.4
G1 F2400 X-58.359 Y-23.399 E2806.11368
G0 F12000 X-58.359 Y-23.849
G1 F2400 X58.359 Y-23.85 E2810.74167
G0 F12000 X58.359 Y-24.3
G1 F2400 X-58.359 Y-24.299 E2815.36967
G0 F12000 X-58.359 Y-24.749
G1 F2400 X58.359 Y-24.75 E2819.99766
G0 F12000 X58.359 Y-25.2
G1 F2400 X-58.359 Y-25.199 E2824.62565
G0 F12000 X-58.359 Y-25.649
G1 F2400 X58.359 Y-25.65 E2829.25364
G0 F12000 X58.359 Y-26.1
G1 F2400 X-58.359 Y-26.099 E2833.88163
G0 F12000 X-58.359 Y-26.549
G1 F2400 X58.359 Y-26.55 E2838.50963
G0 F12000 X58.359 Y-27
G1 F2400 X-58.359 Y-26.999 E2843.13762
G0 F12000 X-58.359 Y-27.449
G1 F2400 X58.359 Y-27.45 E2847.76561
G0 F12000 X58.359 Y-27.9
G1 F2400 X-58.359 Y-27.899 E2852.3936
G0 F12000 X-58.359 Y-28.349
G1 F2400 X58.359 Y-28.35 E2857.0216
G0 F12000 X58.359 Y-28.8
G1 F2400 X-58.359 Y-28.799 E2861.64959
G0 F12000 X-58.359 Y-29.249
G1 F2400 X58.359 Y-29.25 E2866.27758
G0 F12000 X58.359 Y-29.7
G1 F2400 X-58.359 Y-29.699 E2870.90557
G0 F12000 X-58.359 Y-30.149
G1 F2400 X58.359 Y-30.15 E2875.53357
G0 F12000 X58.359 Y-30.6
G1 F2400 X-58.359 Y-30.599 E2880.16156
G0 F12000 X-58.359 Y-31.049
G1 F2400 X58.359 Y-31.05 E2884.78955
G0 F12000 X58.359 Y-31.5
G1 F2400 X-58.359 Y-31.499 E2889.41754
G0 F12000 X-58.359 Y-31.949
G1 F2400 X58.359 Y-31.95 E2894.04553
G0 F12000 X58.359 Y-32.4
G1 F2400 X-58.359 Y-32.399 E2898.67353
G0 F12000 X-58.359 Y-32.85
G1 F2400 X58.359 Y-32.85 E2903.30152
G0 F12000 X58.359 Y-33.3
G1 F2400 X-58.359 Y-33.3 E2907.92951
G0 F12000 X-58.359 Y-33.75
G1 F2400 X58.359 Y-33.75 E2912.5575
G0 F12000 X58.359 Y-34.2
G1 F2400 X-58.359 Y-34.2 E2917.1855
G0 F12000 X-58.359 Y-34.65
G1 F2400 X58.359 Y-34.65 E2921.81349
G0 F12000 X58.359 Y-35.1
G1 F2400 X-58.359 Y-35.1 E2926.44148
G0 F12000 X-58.359 Y-35.55
G1 F2400 X58.359 Y-35.55 E2931.06947
G0 F12000 X58.359 Y-36
G1 F2400 X-58.359 Y-36 E2935.69746
G0 F12000 X-58.359 Y-36.45
G1 F2400 X58.359 Y-36.45 E2940.32546
G0 F12000 X58.359 Y-36.9
G1 F2400 X-58.359 Y-36.9 E2944.95345
G0 F12000 X-58.359 Y-37.35
G1 F2400 X58.359 Y-37.35 E2949.58144
G0 F12000 X58.359 Y-37.8
G1 F2400 X-58.359 Y-37.8 E2954.20943
G0 F12000 X-58.359 Y-38.25
G1 F2400 X58.359 Y-38.25 E2958.83743
G0 F12000 X58.603 Y-38.692
G1 F2400 X58.653 Y-38.717 E2958.83928
G1 X58.656 Y-38.687 E2958.83963
G0 F12000 X58.677 Y38.599
G0 X58.677 Y38.599
G1 F2400 X58.669 Y38.684 E2958.84293
G1 X58.659 Y38.715 E2958.84339
G0 F12000 X-58.677 Y-38.599
G0 X-58.677 Y-38.599
G1 F2400 X-58.669 Y-38.684 E2958.84673
G1 X-58.659 Y-38.714 E2958.84718
; Layer Change GCode
; LAYER:3
G4 P0
M106 S153
G0 F12000 X-58.488 Y39.169 Z0.9
G0 X-58.487 Y39.569
G0 X-58.489 Y39.27
G0 X-58.489 Y39.27
G0 X-58.493 Y39.595
G0 X-58.493 Y39.595
G0 X-58.517 Y38.69
; TYPE:WALL-INNER
G1 F2400 X-58.517 Y38.69 E2958.84718
G1 X-58.61 Y38.643 E2958.85131
G1 X-58.676 Y38.551 E2958.8558
G1 X-58.695 Y38.422 E2958.86097
G1 X-58.695 Y-38.415 E2961.90764
G1 X-58.675 Y-38.554 E2961.91321
G1 X-58.608 Y-38.644 E2961.91766
G1 X-58.527 Y-38.685 E2961.92126
G1 X-42.015 Y-38.695 E2962.57598
G1 X58.526 Y-38.685 E2966.56253
G1 X58.611 Y-38.642 E2966.56631
G1 X58.675 Y-38.554 E2966.57063
G1 X58.695 Y-38.415 E2966.57619
G1 X58.695 Y38.422 E2969.62286
G1 X58.676 Y38.551 E2969.62803
G1 X58.61 Y38.643 E2969.63252
G1 X58.526 Y38.685 E2969.63625
G1 X-58.517 Y38.69 E2974.27712
G0 F12000 X-58.657 Y39.124
G1 F2400 X-58.657 Y39.124 E2974.27712
G1 X-58.88 Y39.011 E2974.28704
G1 X-59.029 Y38.856 E2974.29556
G1 X-59.111 Y38.688 E2974.30297
G1 X-59.145 Y38.453 E2974.31239
G1 X-59.145 Y-38.452 E2977.36175
G1 X-59.111 Y-38.686 E2977.37113
G1 X-59.028 Y-38.856 E2977.37863
G1 X-58.88 Y-39.01 E2977.3871
G1 X-58.663 Y-39.12 E2977.39675
G1 X-58.604 Y-39.135 E2977.39916
G1 X-42.016 Y-39.145 E2978.05689
G1 X58.596 Y-39.135 E2982.04626
G1 X58.67 Y-39.117 E2982.04928
G1 X58.882 Y-39.01 E2982.0587
G1 X59.027 Y-38.858 E2982.06703
G1 X59.111 Y-38.686 E2982.07462
G1 X59.145 Y-38.452 E2982.084
G1 X59.145 Y38.453 E2985.13336
G1 X59.111 Y38.688 E2985.14278
G1 X59.029 Y38.856 E2985.15019
G1 X58.88 Y39.011 E2985.15871
G1 X58.665 Y39.119 E2985.16825
G1 X58.604 Y39.135 E2985.17075
G1 X-58.468 Y39.145 E2989.81278
G1 X-58.657 Y39.124 E2989.82032
G0 F12000 X-58.493 Y39.595
; TYPE:WALL-OUTER
G1 F1800 X-58.493 Y39.595 E2989.82032
G1 X-58.712 Y39.577 E2989.82904
G1 X-58.819 Y39.546 E2989.83345
G1 X-59.154 Y39.376 E2989.84835
G1 X-59.4 Y39.12 E2989.86243
G1 X-59.546 Y38.822 E2989.87558
G1 X-59.595 Y38.482 E2989.8892
G1 X-59.595 Y-38.481 E2992.94087
G1 X-59.546 Y-38.822 E2992.95453
G1 X-59.4 Y-39.119 E2992.96765
G1 X-59.153 Y-39.376 E2992.98178
G1 X-58.822 Y-39.544 E2992.9965
G1 X-58.66 Y-39.585 E2993.00313
G1 X-42.016 Y-39.595 E2993.66308
G1 X58.65 Y-39.585 E2997.65459
G1 X58.826 Y-39.542 E2997.66178
G1 X59.154 Y-39.376 E2997.67635
G1 X59.4 Y-39.119 E2997.69046
G1 X59.546 Y-38.822 E2997.70358
G1 X59.595 Y-38.481 E2997.71724
G1 X59.595 Y38.482 E3000.76891
G1 X59.546 Y38.822 E3000.78253
G1 X59.4 Y39.12 E3000.79569
G1 X59.154 Y39.376 E3000.80976
G1 X58.822 Y39.544 E3000.82452
G1 X58.66 Y39.585 E3000.83114
G1 X-58.493 Y39.595 E3005.47638
G0 F12000 X-58.662 Y38.868
; TYPE:FILL
G1 F2400 X-58.651 Y38.824 E3005.47713
G0 F12000 X-58.736 Y38.765
G1 F2400 X-58.793 Y38.777 E3005.47782
G0 F12000 X-58.866 Y38.674
G1 F2400 X-58.833 Y38.629 E3005.47841
G0 F12000 X-58.049 Y38.489
G1 F2400 X-58.05 Y-38.484 E3008.53047
G0 F12000 X-57.6 Y-38.485
G1 F2400 X-57.599 Y38.489 E3011.58257
G0 F12000 X-57.149 Y38.489
G1 F2400 X-57.15 Y-38.485 E3014.63467
G0 F12000 X-56.7 Y-38.485
G1 F2400 X-56.699 Y38.489 E3017.68677
G0 F12000 X-56.249 Y38.489
G1 F2400 X-56.25 Y-38.485 E3020.73887
G0 F12000 X-55.8 Y-38.486
G1 F2400 X-55.799 Y38.489 E3023.79101
G0 F12000 X-55.349 Y38.489
G1 F2400 X-55.35 Y-38.486 E3026.84315
G0 F12000 X-54.9 Y-38.486
G1 F2400 X-54.899 Y38.489 E3029.89529
G0 F12000 X-54.449 Y38.489
G1 F2400 X-54.45 Y-38.486 E3032.94743
G0 F12000 X-54 Y-38.487
G1 F2400 X-53.999 Y38.489 E3035.99961
G0 F12000 X-53.549 Y38.489
G1 F2400 X-53.55 Y-38.487 E3039.05179
G0 F12000 X-53.1 Y-38.487
G1 F2400 X-53.099 Y38.489 E3042.10397
G0 F12000 X-52.649 Y38.489
G1 F2400 X-52.65 Y-38.488 E3045.15619
G0 F12000 X-52.2 Y-38.488
G1 F2400 X-52.199 Y38.489 E3048.20841
G0 F12000 X-51.749 Y38.489
G1 F2400 X-51.75 Y-38.488 E3051.26063
G0 F12000 X-51.3 Y-38.488
G1 F2400 X-51.299 Y38.489 E3054.31285
G0 F12000 X-50.849 Y38.489
G1 F2400 X-50.85 Y-38.489 E3057.36511
G0 F12000 X-50.4 Y-38.489
G1 F2400 X-50.399 Y38.489 E3060.41737
G0 F12000 X-49.949 Y38.489
G1 F2400 X-49.95 Y-38.489 E3063.46963
G0 F12000 X-49.5 Y-38.489
G1 F2400 X-49.499 Y38.489 E3066.52189
G0 F12000 X-49.049 Y38.489
G1 F2400 X-49.05 Y-38.49 E3069.57419
G0 F12000 X-48.6 Y-38.49
G1 F2400 X-48.599 Y38.489 E3072.62649
G0 F12000 X-48.149 Y38.489
G1 F2400 X-48.15 Y-38.49 E3075.67879
G0 F12000 X-47.7 Y-38.491
G1 F2400 X-47.699 Y38.489 E3078.73112
G0 F12000 X-47.249 Y38.489
G1 F2400 X-47.25 Y-38.491 E3081.78346
G0 F12000 X-46.8 Y-38.491
G1 F2400 X-46.799 Y38.489 E3084.8358
G0 F12000 X-46.349 Y38.489
G1 F2400 X-46.35 Y-38.491 E3087.88814
G0 F12000 X-45.9 Y-38.492
G1 F2400 X-45.899 Y38.489 E3090.94052
G0 F12000 X-45.449 Y38.489
G1 F2400 X-45.45 Y-38.492 E3093.9929
G0 F12000 X-45 Y-38.492
G1 F2400 X-44.999 Y38.489 E3097.04527
G0 F12000 X-44.549 Y38.489
G1 F2400 X-44.55 Y-38.492 E3100.09765
G0 F12000 X-44.1 Y-38.493
G1 F2400 X-44.099 Y38.489 E3103.15007
G0 F12000 X-43.649 Y38.488
G1 F2400 X-43.65 Y-38.493 E3106.20245
G0 F12000 X-43.2 Y-38.493
G1 F2400 X-43.199 Y38.488 E3109.25483
G0 F12000 X-42.749 Y38.488
G1 F2400 X-42.75 Y-38.494 E3112.30724
G0 F12000 X-42.3 Y-38.494
G1 F2400 X-42.299 Y38.488 E3115.35966
G0 F12000 X-41.849 Y38.488
G1 F2400 X-41.85 Y-38.494 E3118.41208
G0 F12000 X-41.4 Y-38.494
G1 F2400 X-41.399 Y38.488 E3121.4645
G0 F12000 X-40.949 Y38.488
G1 F2400 X-40.95 Y-38.494 E3124.51691
G0 F12000 X-40.5 Y-38.494
G1 F2400 X-40.499 Y38.488 E3127.56933
G0 F12000 X-40.049 Y38.488
G1 F2400 X-40.05 Y-38.494 E3130.62175
G0 F12000 X-39.6 Y-38.494
G1 F2400 X-39.599 Y38.488 E3133.67417
G0 F12000 X-39.149 Y38.488
G1 F2400 X-39.15 Y-38.494 E3136.72659
G0 F12000 X-38.7 Y-38.494
G1 F2400 X-38.699 Y38.488 E3139.779
G0 F12000 X-38.249 Y38.488
G1 F2400 X-38.25 Y-38.494 E3142.83142
G0 F12000 X-37.8 Y-38.494
G1 F2400 X-37.799 Y38.488 E3145.88384
G0 F12000 X-37.349 Y38.488
G1 F2400 X-37.35 Y-38.493 E3148.93622
G0 F12000 X-36.9 Y-38.493
G1 F2400 X-36.899 Y38.488 E3151.9886
G0 F12000 X-36.449 Y38.488
G1 F2400 X-36.45 Y-38.493 E3155.04097
G0 F12000 X-36 Y-38.493
G1 F2400 X-35.999 Y38.488 E3158.09335
G0 F12000 X-35.549 Y38.488
G1 F2400 X-35.55 Y-38.493 E3161.14573
G0 F12000 X-35.1 Y-38.493
G1 F2400 X-35.099 Y38.488 E3164.19811
G0 F12000 X-34.649 Y38.488
G1 F2400 X-34.65 Y-38.493 E3167.25049
G0 F12000 X-34.2 Y-38.493
G1 F2400 X-34.199 Y38.488 E3170.30286
G0 F12000 X-33.749 Y38.488
G1 F2400 X-33.75 Y-38.493 E3173.35524
G0 F12000 X-33.3 Y-38.493
G1 F2400 X-33.299 Y38.488 E3176.40762
G0 F12000 X-32.849 Y38.488
G1 F2400 X-32.85 Y-38.493 E3179.46
G0 F12000 X-32.4 Y-38.493
G1 F2400 X-32.399 Y38.488 E3182.51238
G0 F12000 X-31.949 Y38.488
G1 F2400 X-31.95 Y-38.493 E3185.56475
G0 F12000 X-31.5 Y-38.493
G1 F2400 X-31.499 Y38.488 E3188.61713
G0 F12000 X-31.049 Y38.488
G1 F2400 X-31.05 Y-38.493 E3191.66951
G0 F12000 X-30.6 Y-38.493
G1 F2400 X-30.599 Y38.488 E3194.72189
G0 F12000 X-30.149 Y38.488
G1 F2400 X-30.15 Y-38.493 E3197.77427
G0 F12000 X-29.7 Y-38.494
G1 F2400 X-29.699 Y38.488 E3200.82669
G0 F12000 X-29.249 Y38.488
G1 F2400 X-29.25 Y-38.494 E3203.8791
G0 F12000 X-28.8 Y-38.494
G1 F2400 X-28.799 Y38.488 E3206.93152
G0 F12000 X-28.349 Y38.488
G1 F2400 X-28.35 Y-38.494 E3209.98394
G0 F12000 X-27.9 Y-38.493
G1 F2400 X-27.899 Y38.488 E3213.03632
G0 F12000 X-27.449 Y38.488
G1 F2400 X-27.45 Y-38.493 E3216.08869
G0 F12000 X-27 Y-38.493
G1 F2400 X-26.999 Y38.488 E3219.14107
G0 F12000 X-26.549 Y38.488
G1 F2400 X-26.55 Y-38.493 E3222.19345
G0 F12000 X-26.1 Y-38.493
G1 F2400 X-26.099 Y38.488 E3225.24583
G0 F12000 X-25.649 Y38.488
G1 F2400 X-25.65 Y-38.493 E3228.29821
G0 F12000 X-25.2 Y-38.493
G1 F2400 X-25.199 Y38.488 E3231.35059
G0 F12000 X-24.749 Y38.488
G1 F2400 X-24.75 Y-38.493 E3234.40296
G0 F12000 X-24.3 Y-38.493
G1 F2400 X-24.299 Y38.488 E3237.45534
G0 F12000 X-23.849 Y38.488
G1 F2400 X-23.85 Y-38.493 E3240.50772
G0 F12000 X-23.4 Y-38.493
G1 F2400 X-23.399 Y38.488 E3243.5601
G0 F12000 X-22.949 Y38.488
G1 F2400 X-22.95 Y-38.493 E3246.61248
G0 F12000 X-22.5 Y-38.493
G1 F2400 X-22.499 Y38.488 E3249.66485
G0 F12000 X-22.049 Y38.488
G1 F2400 X-22.05 Y-38.493 E3252.71723
G0 F12000 X-21.6 Y-38.493
G1 F2400 X-21.599 Y38.488 E3255.76961
G0 F12000 X-21.149 Y38.488
G1 F2400 X-21.15 Y-38.493 E3258.82199
G0 F12000 X-20.7 Y-38.493
G1 F2400 X-20.699 Y38.488 E3261.87437
G0 F12000 X-20.249 Y38.488
G1 F2400 X-20.25 Y-38.493 E3264.92674
G0 F12000 X-19.8 Y-38.493
G1 F2400 X-19.799 Y38.488 E3267.97912
G0 F12000 X-19.349 Y38.488
G1 F2400 X-19.35 Y-38.493 E3271.0315
G0 F12000 X-18.9 Y-38.492
G1 F2400 X-18.899 Y38.488 E3274.08384
G0 F12000 X-18.449 Y38.488
G1 F2400 X-18.45 Y-38.492 E3277.13618
G0 F12000 X-18 Y-38.492
G1 F2400 X-17.999 Y38.488 E3280.18852
G0 F12000 X-17.549 Y38.488
G1 F2400 X-17.55 Y-38.492 E3283.24086
G0 F12000 X-17.1 Y-38.492
G1 F2400 X-17.099 Y38.488 E3286.29319
G0 F12000 X-16.649 Y38.488
G1 F2400 X-16.65 Y-38.492 E3289.34553
G0 F12000 X-16.2 Y-38.492
G1 F2400 X-16.199 Y38.488 E3292.39787
G0 F12000 X-15.749 Y38.488
G1 F2400 X-15.75 Y-38.492 E3295.45021
G0 F12000 X-15.3 Y-38.492
G1 F2400 X-15.299 Y38.488 E3298.50255
G0 F12000 X-14.849 Y38.488
G1 F2400 X-14.85 Y-38.492 E3301.55489
G0 F12000 X-14.4 Y-38.492
G1 F2400 X-14.399 Y38.487 E3304.60718
G0 F12000 X-13.949 Y38.487
G1 F2400 X-13.95 Y-38.492 E3307.65948
G0 F12000 X-13.5 Y-38.492
G1 F2400 X-13.499 Y38.487 E3310.71178
G0 F12000 X-13.049 Y38.487
G1 F2400 X-13.05 Y-38.492 E3313.76408
G0 F12000 X-12.6 Y-38.492
G1 F2400 X-12.599 Y38.487 E3316.81638
G0 F12000 X-12.149 Y38.487
G1 F2400 X-12.15 Y-38.492 E3319.86868
G0 F12000 X-11.7 Y-38.492
G1 F2400 X-11.699 Y38.487 E3322.92098
G0 F12000 X-11.249 Y38.487
G1 F2400 X-11.25 Y-38.492 E3325.97328
G0 F12000 X-10.8 Y-38.492
G1 F2400 X-10.799 Y38.487 E3329.02558
G0 F12000 X-10.349 Y38.487
G1 F2400 X-10.35 Y-38.492 E3332.07787
G0 F12000 X-9.9 Y-38.491
G1 F2400 X-9.899 Y38.487 E3335.13013
G0 F12000 X-9.449 Y38.487
G1 F2400 X-9.45 Y-38.491 E3338.18239
G0 F12000 X-9 Y-38.491
G1 F2400 X-8.999 Y38.487 E3341.23465
G0 F12000 X-8.549 Y38.487
G1 F2400 X-8.55 Y-38.491 E3344.28691
G0 F12000 X-8.1 Y-38.491
G1 F2400 X-8.099 Y38.487 E3347.33917
G0 F12000 X-7.649 Y38.487
G1 F2400 X-7.65 Y-38.491 E3350.39143
G0 F12000 X-7.2 Y-38.491
G1 F2400 X-7.199 Y38.487 E3353.44369
G0 F12000 X-6.749 Y38.487
G1 F2400 X-6.75 Y-38.491 E3356.49595
G0 F12000 X-6.3 Y-38.491
G1 F2400 X-6.299 Y38.487 E3359.54821
G0 F12000 X-5.849 Y38.487
G1 F2400 X-5.85 Y-38.491 E3362.60047
G0 F12000 X-5.4 Y-38.491
G1 F2400 X-5.399 Y38.487 E3365.65273
G0 F12000 X-4.949 Y38.487
G1 F2400 X-4.95 Y-38.491 E3368.70498
G0 F12000 X-4.5 Y-38.491
G1 F2400 X-4.499 Y38.487 E3371.75724
G0 F12000 X-4.049 Y38.487
G1 F2400 X-4.05 Y-38.491 E3374.8095
G0 F12000 X-3.6 Y-38.491
G1 F2400 X-3.599 Y38.487 E3377.86176
G0 F12000 X-3.149 Y38.487
G1 F2400 X-3.15 Y-38.491 E3380.91402
G0 F12000 X-2.7 Y-38.491
G1 F2400 X-2.699 Y38.487 E3383.96628
G0 F12000 X-2.249 Y38.487
G1 F2400 X-2.25 Y-38.491 E3387.01854
G0 F12000 X-1.8 Y-38.491
G1 F2400 X-1.799 Y38.487 E3390.0708
G0 F12000 X-1.349 Y38.487
G1 F2400 X-1.35 Y-38.491 E3393.12306
G0 F12000 X-0.9 Y-38.491
G1 F2400 X-0.899 Y38.487 E3396.17532
G0 F12000 X-0.449 Y38.487
G1 F2400 X-0.45 Y-38.49 E3399.22754
G0 F12000 X0 Y-38.49
G1 F2400 X0 Y38.487 E3402.27976
G0 F12000 X0.45 Y38.487
G1 F2400 X0.449 Y-38.49 E3405.33198
G0 F12000 X0.899 Y-38.49
G1 F2400 X0.9 Y38.487 E3408.3842
G0 F12000 X1.35 Y38.487
G1 F2400 X1.349 Y-38.49 E3411.43641
G0 F12000 X1.799 Y-38.49
G1 F2400 X1.8 Y38.487 E3414.48863
G0 F12000 X2.25 Y38.487
G1 F2400 X2.249 Y-38.49 E3417.54085
G0 F12000 X2.699 Y-38.49
G1 F2400 X2.7 Y38.487 E3420.59307
G0 F12000 X3.15 Y38.487
G1 F2400 X3.149 Y-38.49 E3423.64529
G0 F12000 X3.599 Y-38.49
G1 F2400 X3.6 Y38.487 E3426.69751
G0 F12000 X4.05 Y38.487
G1 F2400 X4.049 Y-38.49 E3429.74973
G0 F12000 X4.499 Y-38.49
G1 F2400 X4.5 Y38.487 E3432.80195
G0 F12000 X4.95 Y38.487
G1 F2400 X4.949 Y-38.49 E3435.85417
G0 F12000 X5.399 Y-38.49
G1 F2400 X5.4 Y38.487 E3438.90639
G0 F12000 X5.85 Y38.487
G1 F2400 X5.849 Y-38.49 E3441.95861
G0 F12000 X6.299 Y-38.49
G1 F2400 X6.3 Y38.487 E3445.01083
G0 F12000 X6.75 Y38.487
G1 F2400 X6.749 Y-38.49 E3448.06305
G0 F12000 X7.199 Y-38.49
G1 F2400 X7.2 Y38.487 E3451.11527
G0 F12000 X7.65 Y38.487
G1 F2400 X7.649 Y-38.49 E3454.16749
G0 F12000 X8.099 Y-38.49
G1 F2400 X8.1 Y38.487 E3457.21971
G0 F12000 X8.55 Y38.487
G1 F2400 X8.549 Y-38.489 E3460.27189
G0 F12000 X8.999 Y-38.489
G1 F2400 X9 Y38.487 E3463.32407
G0 F12000 X9.45 Y38.487
G1 F2400 X9.449 Y-38.489 E3466.37625
G0 F12000 X9.899 Y-38.489
G1 F2400 X9.9 Y38.487 E3469.42843
G0 F12000 X10.35 Y38.487
G1 F2400 X10.349 Y-38.489 E3472.48061
G0 F12000 X10.799 Y-38.489
G1 F2400 X10.8 Y38.487 E3475.53279
G0 F12000 X11.25 Y38.487
G1 F2400 X11.249 Y-38.489 E3478.58497
G0 F12000 X11.699 Y-38.489
G1 F2400 X11.7 Y38.487 E3481.63715
G0 F12000 X12.15 Y38.487
G1 F2400 X12.149 Y-38.489 E3484.68933
G0 F12000 X12.599 Y-38.489
G1 F2400 X12.6 Y38.487 E3487.74151
G0 F12000 X13.05 Y38.487
G1 F2400 X13.049 Y-38.489 E3490.79369
G0 F12000 X13.499 Y-38.489
G1 F2400 X13.5 Y38.487 E3493.84587
G0 F12000 X13.95 Y38.487
G1 F2400 X13.949 Y-38.489 E3496.89805
G0 F12000 X14.399 Y-38.489
G1 F2400 X14.4 Y38.487 E3499.95023
G0 F12000 X14.85 Y38.486
G1 F2400 X14.849 Y-38.489 E3503.00237
G0 F12000 X15.299 Y-38.489
G1 F2400 X15.3 Y38.486 E3506.05451
G0 F12000 X15.75 Y38.486
G1 F2400 X15.749 Y-38.489 E3509.10665
G0 F12000 X16.199 Y-38.489
G1 F2400 X16.2 Y38.486 E3512.15879
G0 F12000 X16.65 Y38.486
G1 F2400 X16.649 Y-38.489 E3515.21093
G0 F12000 X17.099 Y-38.489
G1 F2400 X17.1 Y38.486 E3518.26307
G0 F12000 X17.55 Y38.486
G1 F2400 X17.549 Y-38.488 E3521.31517
G0 F12000 X17.999 Y-38.488
G1 F2400 X18 Y38.486 E3524.36727
G0 F12000 X18.45 Y38.486
G1 F2400 X18.449 Y-38.488 E3527.41937
G0 F12000 X18.899 Y-38.488
G1 F2400 X18.9 Y38.486 E3530.47147
G0 F12000 X19.35 Y38.486
G1 F2400 X19.349 Y-38.488 E3533.52357
G0 F12000 X19.799 Y-38.488
G1 F2400 X19.8 Y38.486 E3536.57567
G0 F12000 X20.25 Y38.486
G1 F2400 X20.249 Y-38.488 E3539.62777
G0 F12000 X20.699 Y-38.488
G1 F2400 X20.7 Y38.486 E3542.67987
G0 F12000 X21.15 Y38.486
G1 F2400 X21.149 Y-38.488 E3545.73197
G0 F12000 X21.599 Y-38.488
G1 F2400 X21.6 Y38.486 E3548.78407
G0 F12000 X22.05 Y38.486
G1 F2400 X22.049 Y-38.488 E3551.83617
G0 F12000 X22.499 Y-38.488
G1 F2400 X22.5 Y38.486 E3554.88827
G0 F12000 X22.95 Y38.486
G1 F2400 X22.949 Y-38.488 E3557.94037
G0 F12000 X23.399 Y-38.488
G1 F2400 X23.4 Y38.486 E3560.99248
G0 F12000 X23.85 Y38.486
G1 F2400 X23.849 Y-38.488 E3564.04458
G0 F12000 X24.299 Y-38.488
G1 F2400 X24.3 Y38.486 E3567.09668
G0 F12000 X24.75 Y38.486
G1 F2400 X24.749 Y-38.488 E3570.14878
G0 F12000 X25.199 Y-38.488
G1 F2400 X25.2 Y38.486 E3573.20088
G0 F12000 X25.65 Y38.486
G1 F2400 X25.649 Y-38.488 E3576.25298
G0 F12000 X26.099 Y-38.488
G1 F2400 X26.1 Y38.486 E3579.30508
G0 F12000 X26.55 Y38.486
G1 F2400 X26.549 Y-38.487 E3582.35714
G0 F12000 X26.999 Y-38.487
G1 F2400 X27 Y38.486 E3585.4092
G0 F12000 X27.45 Y38.486
G1 F2400 X27.449 Y-38.487 E3588.46126
G0 F12000 X27.899 Y-38.487
G1 F2400 X27.9 Y38.486 E3591.51332
G0 F12000 X28.35 Y38.486
G1 F2400 X28.349 Y-38.487 E3594.56538
G0 F12000 X28.799 Y-38.487
G1 F2400 X28.8 Y38.486 E3597.61744
G0 F12000 X29.25 Y38.486
G1 F2400 X29.249 Y-38.487 E3600.66951
G0 F12000 X29.699 Y-38.487
G1 F2400 X29.7 Y38.486 E3603.72157
G0 F12000 X30.15 Y38.485
G1 F2400 X30.149 Y-38.487 E3606.77359
G0 F12000 X30.599 Y-38.487
G1 F2400 X30.6 Y38.485 E3609.82561
G0 F12000 X31.05 Y38.485
G1 F2400 X31.049 Y-38.487 E3612.87763
G0 F12000 X31.499 Y-38.487
G1 F2400 X31.5 Y38.485 E3615.92965
G0 F12000 X31.95 Y38.485
G1 F2400 X31.949 Y-38.487 E3618.98167
G0 F12000 X32.399 Y-38.487
G1 F2400 X32.4 Y38.485 E3622.03369
G0 F12000 X32.85 Y38.485
G1 F2400 X32.849 Y-38.487 E3625.08572
G0 F12000 X33.299 Y-38.487
G1 F2400 X33.3 Y38.485 E3628.13774
G0 F12000 X33.75 Y38.485
G1 F2400 X33.749 Y-38.487 E3631.18976
G0 F12000 X34.199 Y-38.487
G1 F2400 X34.2 Y38.485 E3634.24178
G0 F12000 X34.65 Y38.485
G1 F2400 X34.649 Y-38.487 E3637.2938
G0 F12000 X35.099 Y-38.487
G1 F2400 X35.1 Y38.485 E3640.34582
G0 F12000 X35.55 Y38.485
G1 F2400 X35.549 Y-38.487 E3643.39784
G0 F12000 X35.999 Y-38.486
G1 F2400 X36 Y38.485 E3646.44982
G0 F12000 X36.45 Y38.485
G1 F2400 X36.449 Y-38.486 E3649.50181
G0 F12000 X36.899 Y-38.486
G1 F2400 X36.9 Y38.485 E3652.55379
G0 F12000 X37.35 Y38.485
G1 F2400 X37.349 Y-38.486 E3655.60577
G0 F12000 X37.799 Y-38.486
G1 F2400 X37.8 Y38.485 E3658.65775
G0 F12000 X38.25 Y38.485
G1 F2400 X38.249 Y-38.486 E3661.70973
G0 F12000 X38.699 Y-38.486
G1 F2400 X38.7 Y38.485 E3664.76171
G0 F12000 X39.15 Y38.485
G1 F2400 X39.149 Y-38.486 E3667.8137
G0 F12000 X39.599 Y-38.486
G1 F2400 X39.6 Y38.485 E3670.86568
G0 F12000 X40.05 Y38.485
G1 F2400 X40.049 Y-38.486 E3673.91766
G0 F12000 X40.499 Y-38.486
G1 F2400 X40.5 Y38.485 E3676.96964
G0 F12000 X40.95 Y38.485
G1 F2400 X40.949 Y-38.486 E3680.02162
G0 F12000 X41.399 Y-38.486
G1 F2400 X41.4 Y38.485 E3683.0736
G0 F12000 X41.85 Y38.485
G1 F2400 X41.849 Y-38.486 E3686.12559
G0 F12000 X42.299 Y-38.486
G1 F2400 X42.3 Y38.485 E3689.17757
G0 F12000 X42.75 Y38.485
G1 F2400 X42.749 Y-38.486 E3692.22955
G0 F12000 X43.199 Y-38.486
G1 F2400 X43.2 Y38.485 E3695.28153
G0 F12000 X43.65 Y38.485
G1 F2400 X43.649 Y-38.486 E3698.33351
G0 F12000 X44.099 Y-38.486
G1 F2400 X44.1 Y38.484 E3701.38545
G0 F12000 X44.55 Y38.484
G1 F2400 X44.549 Y-38.486 E3704.4374
G0 F12000 X44.999 Y-38.485
G1 F2400 X45 Y38.484 E3707.4893
G0 F12000 X45.45 Y38.484
G1 F2400 X45.449 Y-38.485 E3710.5412
G0 F12000 X45.899 Y-38.485
G1 F2400 X45.9 Y38.484 E3713.5931
G0 F12000 X46.35 Y38.484
G1 F2400 X46.349 Y-38.485 E3716.64501
G0 F12000 X46.799 Y-38.485
G1 F2400 X46.8 Y38.484 E3719.69691
G0 F12000 X47.25 Y38.484
G1 F2400 X47.249 Y-38.485 E3722.74881
G0 F12000 X47.699 Y-38.485
G1 F2400 X47.7 Y38.484 E3725.80071
G0 F12000 X48.15 Y38.484
G1 F2400 X48.149 Y-38.485 E3728.85261
G0 F12000 X48.599 Y-38.485
G1 F2400 X48.6 Y38.484 E3731.90452
G0 F12000 X49.05 Y38.484
G1 F2400 X49.049 Y-38.485 E3734.95642
G0 F12000 X49.499 Y-38.485
G1 F2400 X49.5 Y38.484 E3738.00832
G0 F12000 X49.95 Y38.484
G1 F2400 X49.949 Y-38.485 E3741.06022
G0 F12000 X50.399 Y-38.485
G1 F2400 X50.4 Y38.484 E3744.11213
G0 F12000 X50.85 Y38.484
G1 F2400 X50.849 Y-38.485 E3747.16403
G0 F12000 X51.299 Y-38.485
G1 F2400 X51.3 Y38.484 E3750.21593
G0 F12000 X51.75 Y38.484
G1 F2400 X51.749 Y-38.485 E3753.26783
G0 F12000 X52.199 Y-38.485
G1 F2400 X52.2 Y38.484 E3756.31974
G0 F12000 X52.65 Y38.484
G1 F2400 X52.649 Y-38.485 E3759.37164
G0 F12000 X53.099 Y-38.485
G1 F2400 X53.1 Y38.484 E3762.42354
G0 F12000 X53.55 Y38.484
G1 F2400 X53.549 Y-38.485 E3765.47544
G0 F12000 X53.999 Y-38.484
G1 F2400 X54 Y38.484 E3768.52731
G0 F12000 X54.45 Y38.484
G1 F2400 X54.449 Y-38.484 E3771.57917
G0 F12000 X54.899 Y-38.484
G1 F2400 X54.9 Y38.484 E3774.63103
G0 F12000 X55.35 Y38.484
G1 F2400 X55.349 Y-38.484 E3777.68289
G0 F12000 X55.799 Y-38.484
G1 F2400 X55.8 Y38.484 E3780.73476
G0 F12000 X56.25 Y38.484
G1 F2400 X56.249 Y-38.484 E3783.78662
G0 F12000 X56.699 Y-38.484
G1 F2400 X56.7 Y38.484 E3786.83848
G0 F12000 X57.15 Y38.484
G1 F2400 X57.149 Y-38.484 E3789.89034
G0 F12000 X57.599 Y-38.484
G1 F2400 X57.6 Y38.484 E3792.94221
G0 F12000 X58.05 Y38.484
G1 F2400 X58.049 Y-38.484 E3795.99407
G0 F12000 X58.666 Y-38.866
G1 F2400 X58.706 Y-38.818 E3795.99504
G0 F12000 X58.74 Y-38.763
G1 F2400 X58.793 Y-38.776 E3795.9957
G0 F12000 X58.867 Y-38.673
G1 F2400 X58.832 Y-38.63 E3795.99628
G0 F12000 X58.833 Y38.629
G0 X58.833 Y38.629
G1 F2400 X58.866 Y38.674 E3795.99687
G0 F12000 X58.793 Y38.777
G1 F2400 X58.738 Y38.764 E3795.99754
G0 F12000 X58.708 Y38.819
G1 F2400 X58.664 Y38.867 E3795.99858
G0 F12000 X-58.665 Y-38.867
G0 X-58.665 Y-38.867
G1 F2400 X-58.709 Y-38.817 E3795.99961
G0 F12000 X-58.74 Y-38.763
G1 F2400 X-58.792 Y-38.776 E3796.00028
G0 F12000 X-58.867 Y-38.672
G1 F2400 X-58.831 Y-38.631 E3796.00083
; Layer Change GCode
; LAYER:4
G0 F12000 X58.469 Y39.352 Z1.1
G0 X58.469 Y39.352
G0 X58.49 Y39.677
G0 X58.49 Y39.677
G0 X58.448 Y38.777
; TYPE:WALL-INNER
G1 F2400 X58.448 Y38.777 E3796.00083
G1 X-58.516 Y38.77 E3800.63858
G1 X-58.607 Y38.751 E3800.64227
G1 X-58.678 Y38.705 E3800.64562
G1 X-58.72 Y38.656 E3800.64818
G1 X-58.755 Y38.576 E3800.65164
G1 X-58.777 Y38.42 E3800.65789
G1 X-58.777 Y-38.42 E3803.70468
G1 X-58.755 Y-38.574 E3803.71084
G1 X-58.72 Y-38.653 E3803.71427
G1 X-58.675 Y-38.708 E3803.71709
G1 X-58.607 Y-38.751 E3803.72028
G1 X-58.448 Y-38.777 E3803.72667
G1 X58.516 Y-38.77 E3808.36441
G1 X58.607 Y-38.751 E3808.3681
G1 X58.675 Y-38.708 E3808.37129
G1 X58.72 Y-38.653 E3808.37411
G1 X58.755 Y-38.574 E3808.37753
G1 X58.777 Y-38.42 E3808.3837
G1 X58.777 Y38.42 E3811.43049
G1 X58.755 Y38.576 E3811.43674
G1 X58.72 Y38.656 E3811.4402
G1 X58.678 Y38.705 E3811.44276
G1 X58.607 Y38.751 E3811.44611
G1 X58.448 Y38.777 E3811.4525
G0 F12000 X58.469 Y39.227
G1 F2400 X58.469 Y39.227 E3811.4525
G1 X-58.562 Y39.22 E3816.0929
G1 X-58.781 Y39.174 E3816.10178
G1 X-58.979 Y39.048 E3816.11108
G1 X-59.108 Y38.892 E3816.11911
G1 X-59.192 Y38.701 E3816.12738
G1 X-59.227 Y38.454 E3816.13727
G1 X-59.227 Y-38.455 E3819.1868
G1 X-59.192 Y-38.699 E3819.19657
G1 X-59.107 Y-38.892 E3819.20493
G1 X-58.978 Y-39.048 E3819.21296
G1 X-58.786 Y-39.17 E3819.22198
G1 X-58.61 Y-39.214 E3819.22917
G1 X-58.469 Y-39.227 E3819.23479
G1 X58.562 Y-39.22 E3823.87519
G1 X58.781 Y-39.174 E3823.88406
G1 X58.978 Y-39.048 E3823.89333
G1 X59.107 Y-38.892 E3823.90136
G1 X59.192 Y-38.699 E3823.90972
G1 X59.227 Y-38.455 E3823.9195
G1 X59.227 Y38.454 E3826.96902
G1 X59.192 Y38.701 E3826.97891
G1 X59.108 Y38.892 E3826.98719
G1 X58.979 Y39.048 E3826.99521
G1 X58.786 Y39.17 E3827.00427
G1 X58.61 Y39.214 E3827.01146
G1 X58.469 Y39.227 E3827.01707
G0 F12000 X58.49 Y39.677
; TYPE:WALL-OUTER
G1 F1800 X58.49 Y39.677 E3827.01707
G1 X-58.609 Y39.67 E3831.66017
G1 X-58.959 Y39.593 E3831.67438
G1 X-59.281 Y39.389 E3831.6895
G1 X-59.492 Y39.133 E3831.70265
G1 X-59.628 Y38.826 E3831.71596
G1 X-59.677 Y38.482 E3831.72974
G1 X-59.677 Y-38.482 E3834.78145
G1 X-59.628 Y-38.825 E3834.79518
G1 X-59.494 Y-39.13 E3834.80839
G1 X-59.279 Y-39.39 E3834.82177
G1 X-58.964 Y-39.59 E3834.83657
G1 X-58.689 Y-39.658 E3834.8478
G1 X-58.49 Y-39.677 E3834.85573
G1 X58.609 Y-39.67 E3839.49882
G1 X58.959 Y-39.593 E3839.51303
G1 X59.279 Y-39.39 E3839.52806
G1 X59.494 Y-39.13 E3839.54144
G1 X59.628 Y-38.825 E3839.55465
G1 X59.677 Y-38.482 E3839.56839
G1 X59.677 Y38.482 E3842.62009
G1 X59.628 Y38.826 E3842.63387
G1 X59.492 Y39.133 E3842.64718
G1 X59.281 Y39.389 E3842.66034
G1 X58.964 Y39.59 E3842.67522
G1 X58.689 Y39.658 E3842.68645
G1 X58.49 Y39.677 E3842.69438
G0 F12000 X58.634 Y38.976
; TYPE:FILL
G1 F2400 X58.643 Y38.939 E3842.69479
G0 F12000 X58.744 Y38.881
G1 F2400 X58.761 Y38.919 E3842.69537
G0 F12000 X58.834 Y38.799
G1 F2400 X58.871 Y38.824 E3842.6959
G0 F12000 X58.577 Y38.25
G1 F2400 X-58.577 Y38.25 E3847.34118
G0 F12000 X-58.577 Y37.8
G1 F2400 X58.577 Y37.8 E3851.98646
G0 F12000 X58.577 Y37.35
G1 F2400 X-58.577 Y37.35 E3856.63174
G0 F12000 X-58.577 Y36.9
G1 F2400 X58.577 Y36.9 E3861.27702
G0 F12000 X58.577 Y36.45
G1 F2400 X-58.577 Y36.45 E3865.9223
G0 F12000 X-58.577 Y36
G1 F2400 X58.577 Y36 E3870.56758
G0 F12000 X58.577 Y35.55
G1 F2400 X-58.577 Y35.55 E3875.21286
G0 F12000 X-58.577 Y35.1
G1 F2400 X58.577 Y35.1 E3879.85814
G0 F12000 X58.577 Y34.65
G1 F2400 X-58.577 Y34.65 E3884.50342
G0 F12000 X-58.577 Y34.2
G1 F2400 X58.577 Y34.2 E3889.1487
G0 F12000 X58.577 Y33.75
G1 F2400 X-58.577 Y33.75 E3893.79398
G0 F12000 X-58.577 Y33.3
G1 F2400 X58.577 Y33.3 E3898.43926
G0 F12000 X58.577 Y32.85
G1 F2400 X-58.577 Y32.85 E3903.08454
G0 F12000 X-58.577 Y32.4
G1 F2400 X58.577 Y32.399 E3907.72982
G0 F12000 X58.577 Y31.949
G1 F2400 X-58.577 Y31.95 E3912.3751
G0 F12000 X-58.577 Y31.5
G1 F2400 X58.577 Y31.499 E3917.02038
G0 F12000 X58.577 Y31.049
G1 F2400 X-58.577 Y31.05 E3921.66566
G0 F12000 X-58.577 Y30.6
G1 F2400 X58.577 Y30.599 E3926.31094
G0 F12000 X58.577 Y30.149
G1 F2400 X-58.577 Y30.15 E3930.95622
G0 F12000 X-58.577 Y29.7
G1 F2400 X58.577 Y29.699 E3935.6015
G0 F12000 X58.577 Y29.249
G1 F2400 X-58.577 Y29.25 E3940.24678
G0 F12000 X-58.577 Y28.8
G1 F2400 X58.577 Y28.799 E3944.89206
G0 F12000 X58.577 Y28.349
G1 F2400 X-58.577 Y28.35 E3949.53734
G0 F12000 X-58.577 Y27.9
G1 F2400 X58.577 Y27.899 E3954.18262
G0 F12000 X58.577 Y27.449
G1 F2400 X-58.577 Y27.45 E3958.8279
G0 F12000 X-58.577 Y27
G1 F2400 X58.577 Y26.999 E3963.47318
G0 F12000 X58.577 Y26.549
G1 F2400 X-58.577 Y26.55 E3968.11846
G0 F12000 X-58.577 Y26.1
G1 F2400 X58.577 Y26.099 E3972.76374
G0 F12000 X58.577 Y25.649
G1 F2400 X-58.577 Y25.65 E3977.40902
G0 F12000 X-58.577 Y25.2
G1 F2400 X58.577 Y25.199 E3982.0543
G0 F12000 X58.577 Y24.749
G1 F2400 X-58.577 Y24.75 E3986.69958
G0 F12000 X-58.577 Y24.3
G1 F2400 X58.577 Y24.299 E3991.34486
G0 F12000 X58.577 Y23.849
G1 F2400 X-58.577 Y23.85 E3995.99014
G0 F12000 X-58.577 Y23.4
G1 F2400 X58.577 Y23.399 E4000.63542
G0 F12000 X58.577 Y22.949
G1 F2400 X-58.577 Y22.95 E4005.2807
G0 F12000 X-58.577 Y22.5
G1 F2400 X58.577 Y22.499 E4009.92598
G0 F12000 X58.577 Y22.049
G1 F2400 X-58.577 Y22.05 E4014.57126
G0 F12000 X-58.577 Y21.6
G1 F2400 X58.577 Y21.599 E4019.21654
G0 F12000 X58.577 Y21.149
G1 F2400 X-58.577 Y21.15 E4023.86182
G0 F12000 X-58.577 Y20.7
G1 F2400 X58.577 Y20.699 E4028.5071
G0 F12000 X58.577 Y20.249
G1 F2400 X-58.577 Y20.25 E4033.15238
G0 F12000 X-58.577 Y19.8
G1 F2400 X58.577 Y19.799 E4037.79766
G0 F12000 X58.577 Y19.349
G1 F2400 X-58.577 Y19.35 E4042.44294
G0 F12000 X-58.577 Y18.9
G1 F2400 X58.577 Y18.899 E4047.08822
G0 F12000 X58.577 Y18.449
G1 F2400 X-58.577 Y18.45 E4051.7335
G0 F12000 X-58.577 Y18
G1 F2400 X58.577 Y17.999 E4056.37878
G0 F12000 X58.577 Y17.549
G1 F2400 X-58.577 Y17.55 E4061.02406
G0 F12000 X-58.577 Y17.1
G1 F2400 X58.577 Y17.099 E4065.66934
G0 F12000 X58.577 Y16.649
G1 F2400 X-58.577 Y16.65 E4070.31462
G0 F12000 X-58.577 Y16.2
G1 F2400 X58.577 Y16.199 E4074.9599
G0 F12000 X58.577 Y15.749
G1 F2400 X-58.577 Y15.75 E4079.60518
G0 F12000 X-58.577 Y15.3
G1 F2400 X58.577 Y15.299 E4084.25046
G0 F12000 X58.577 Y14.849
G1 F2400 X-58.577 Y14.85 E4088.89574
G0 F12000 X-58.577 Y14.4
G1 F2400 X58.577 Y14.399 E4093.54102
G0 F12000 X58.577 Y13.949
G1 F2400 X-58.577 Y13.95 E4098.1863
G0 F12000 X-58.577 Y13.5
G1 F2400 X58.577 Y13.499 E4102.83158
G0 F12000 X58.577 Y13.049
G1 F2400 X-58.577 Y13.05 E4107.47686
G0 F12000 X-58.577 Y12.6
G1 F2400 X58.577 Y12.599 E4112.12214
G0 F12000 X58.577 Y12.149
G1 F2400 X-58.577 Y12.15 E4116.76742
G0 F12000 X-58.577 Y11.7
G1 F2400 X58.577 Y11.699 E4121.4127
G0 F12000 X58.577 Y11.249
G1 F2400 X-58.577 Y11.25 E4126.05798
G0 F12000 X-58.577 Y10.8
G1 F2400 X58.577 Y10.799 E4130.70326
G0 F12000 X58.577 Y10.349
G1 F2400 X-58.577 Y10.35 E4135.34854
G0 F12000 X-58.577 Y9.9
G1 F2400 X58.577 Y9.899 E4139.99382
G0 F12000 X58.577 Y9.449
G1 F2400 X-58.577 Y9.45 E4144.6391
G0 F12000 X-58.577 Y9
G1 F2400 X58.577 Y8.999 E4149.28438
G0 F12000 X58.577 Y8.549
G1 F2400 X-58.577 Y8.55 E4153.92966
G0 F12000 X-58.577 Y8.1
G1 F2400 X58.577 Y8.099 E4158.57494
G0 F12000 X58.577 Y7.649
G1 F2400 X-58.577 Y7.65 E4163.22022
G0 F12000 X-58.577 Y7.2
G1 F2400 X58.577 Y7.199 E4167.8655
G0 F12000 X58.577 Y6.749
G1 F2400 X-58.577 Y6.75 E4172.51078
G0 F12000 X-58.577 Y6.3
G1 F2400 X58.577 Y6.299 E4177.15607
G0 F12000 X58.577 Y5.849
G1 F2400 X-58.577 Y5.85 E4181.80135
G0 F12000 X-58.577 Y5.4
G1 F2400 X58.577 Y5.399 E4186.44663
G0 F12000 X58.577 Y4.949
G1 F2400 X-58.577 Y4.95 E4191.09191
G0 F12000 X-58.577 Y4.5
G1 F2400 X58.577 Y4.499 E4195.73719
G0 F12000 X58.577 Y4.049
G1 F2400 X-58.577 Y4.05 E4200.38247
G0 F12000 X-58.577 Y3.6
G1 F2400 X58.577 Y3.599 E4205.02775
G0 F12000 X58.577 Y3.149
G1 F2400 X-58.577 Y3.15 E4209.67303
G0 F12000 X-58.577 Y2.7
G1 F2400 X58.577 Y2.699 E4214.31831
G0 F12000 X58.577 Y2.249
G1 F2400 X-58.577 Y2.25 E4218.96359
G0 F12000 X-58.577 Y1.8
G1 F2400 X58.577 Y1.799 E4223.60887
G0 F12000 X58.577 Y1.349
G1 F2400 X-58.577 Y1.35 E4228.25415
G0 F12000 X-58.577 Y0.9
G1 F2400 X58.577 Y0.899 E4232.89943
G0 F12000 X58.577 Y0.449
G1 F2400 X-58.577 Y0.45 E4237.54471
G0 F12000 X-58.577 Y0
G1 F2400 X58.577 Y0 E4242.18999
G0 F12000 X58.577 Y-0.45
G1 F2400 X-58.577 Y-0.449 E4246.83527
G0 F12000 X-58.577 Y-0.899
G1 F2400 X58.577 Y-0.9 E4251.48055
G0 F12000 X58.577 Y-1.35
G1 F2400 X-58.577 Y-1.349 E4256.12583
G0 F12000 X-58.577 Y-1.799
G1 F2400 X58.577 Y-1.8 E4260.77111
G0 F12000 X58.577 Y-2.25
G1 F2400 X-58.577 Y-2.249 E4265.41639
G0 F12000 X-58.577 Y-2.699
G1 F2400 X58.577 Y-2.7 E4270.06167
G0 F12000 X58.577 Y-3.15
G1 F2400 X-58.577 Y-3.149 E4274.70695
G0 F12000 X-58.577 Y-3.599
G1 F2400 X58.577 Y-3.6 E4279.35223
G0 F12000 X58.577 Y-4.05
G1 F2400 X-58.577 Y-4.049 E4283.99751
G0 F12000 X-58.577 Y-4.499
G1 F2400 X58.577 Y-4.5 E4288.64279
G0 F12000 X58.577 Y-4.95
G1 F2400 X-58.577 Y-4.949 E4293.28807
G0 F12000 X-58.577 Y-5.399
G1 F2400 X58.577 Y-5.4 E4297.93335
G0 F12000 X58.577 Y-5.85
G1 F2400 X-58.577 Y-5.849 E4302.57863
G0 F12000 X-58.577 Y-6.299
G1 F2400 X58.577 Y-6.3 E4307.22391
G0 F12000 X58.577 Y-6.75
G1 F2400 X-58.577 Y-6.749 E4311.86919
G0 F12000 X-58.577 Y-7.199
G1 F2400 X58.577 Y-7.2 E4316.51447
G0 F12000 X58.577 Y-7.65
G1 F2400 X-58.577 Y-7.649 E4321.15975
G0 F12000 X-58.577 Y-8.099
G1 F2400 X58.577 Y-8.1 E4325.80503
G0 F12000 X58.577 Y-8.55
G1 F2400 X-58.577 Y-8.549 E4330.45031
G0 F12000 X-58.577 Y-8.999
G1 F2400 X58.577 Y-9 E4335.09559
G0 F12000 X58.577 Y-9.45
G1 F2400 X-58.577 Y-9.449 E4339.74087
G0 F12000 X-58.577 Y-9.899
G1 F2400 X58.577 Y-9.9 E4344.38615
G0 F12000 X58.577 Y-10.35
G1 F2400 X-58.577 Y-10.349 E4349.03143
G0 F12000 X-58.577 Y-10.799
G1 F2400 X58.577 Y-10.8 E4353.67671
G0 F12000 X58.577 Y-11.25
G1 F2400 X-58.577 Y-11.249 E4358.32199
G0 F12000 X-58.577 Y-11.699
G1 F2400 X58.577 Y-11.7 E4362.96727
G0 F12000 X58.577 Y-12.15
G1 F2400 X-58.577 Y-12.149 E4367.61255
G0 F12000 X-58.577 Y-12.599
G1 F2400 X58.577 Y-12.6 E4372.25783
G0 F12000 X58.577 Y-13.05
G1 F2400 X-58.577 Y-13.049 E4376.90311
G0 F12000 X-58.577 Y-13.499
G1 F2400 X58.577 Y-13.5 E4381.54839
G0 F12000 X58.577 Y-13.95
G1 F2400 X-58.577 Y-13.949 E4386.19367
G0 F12000 X-58.577 Y-14.399
G1 F2400 X58.577 Y-14.4 E4390.83895
G0 F12000 X58.577 Y-14.85
G1 F2400 X-58.577 Y-14.849 E4395.48423
G0 F12000 X-58.577 Y-15.299
G1 F2400 X58.577 Y-15.3 E4400.12951
G0 F12000 X58.577 Y-15.75
G1 F2400 X-58.577 Y-15.749 E4404.77479
G0 F12000 X-58.577 Y-16.199
G1 F2400 X58.577 Y-16.2 E4409.42007
G0 F12000 X58.577 Y-16.65
G1 F2400 X-58.577 Y-16.649 E4414.06535
G0 F12000 X-58.577 Y-17.099
G1 F2400 X58.577 Y-17.1 E4418.71063
G0 F12000 X58.577 Y-17.55
G1 F2400 X-58.577 Y-17.549 E4423.35591
G0 F12000 X-58.577 Y-17.999
G1 F2400 X58.577 Y-18 E4428.00119
G0 F12000 X58.577 Y-18.45
G1 F2400 X-58.577 Y-18.449 E4432.64647
G0 F12000 X-58.577 Y-18.899
G1 F2400 X58.577 Y-18.9 E4437.29175
G0 F12000 X58.577 Y-19.35
G1 F2400 X-58.577 Y-19.349 E4441.93703
G0 F12000 X-58.577 Y-19.799
G1 F2400 X58.577 Y-19.8 E4446.58231
G0 F12000 X58.577 Y-20.25
G1 F2400 X-58.577 Y-20.249 E4451.22759
G0 F12000 X-58.577 Y-20.699
G1 F2400 X58.577 Y-20.7 E4455.87287
G0 F12000 X58.577 Y-21.15
G1 F2400 X-58.577 Y-21.149 E4460.51815
G0 F12000 X-58.577 Y-21.599
G1 F2400 X58.577 Y-21.6 E4465.16343
G0 F12000 X58.577 Y-22.05
G1 F2400 X-58.577 Y-22.049 E4469.80871
G0 F12000 X-58.577 Y-22.499
G1 F2400 X58.577 Y-22.5 E4474.45399
G0 F12000 X58.577 Y-22.95
G1 F2400 X-58.577 Y-22.949 E4479.09927
G0 F12000 X-58.577 Y-23.399
G1 F2400 X58.577 Y-23.4 E4483.74455
G0 F12000 X58.577 Y-23.85
G1 F2400 X-58.577 Y-23.849 E4488.38983
G0 F12000 X-58.577 Y-24.299
G1 F2400 X58.577 Y-24.3 E4493.03511
G0 F12000 X58.577 Y-24.75
G1 F2400 X-58.577 Y-24.749 E4497.68039
G0 F12000 X-58.577 Y-25.199
G1 F2400 X58.577 Y-25.2 E4502.32567
G0 F12000 X58.577 Y-25.65
G1 F2400 X-58.577 Y-25.649 E4506.97095
G0 F12000 X-58.577 Y-26.099
G1 F2400 X58.577 Y-26.1 E4511.61623
G0 F12000 X58.577 Y-26.55
G1 F2400 X-58.577 Y-26.549 E4516.26151
G0 F12000 X-58.577 Y-26.999
G1 F2400 X58.577 Y-27 E4520.90679
G0 F12000 X58.577 Y-27.45
G1 F2400 X-58.577 Y-27.449 E4525.55207
G0 F12000 X-58.577 Y-27.899
G1 F2400 X58.577 Y-27.9 E4530.19735
G0 F12000 X58.577 Y-28.35
G1 F2400 X-58.577 Y-28.349 E4534.84263
G0 F12000 X-58.577 Y-28.799
G1 F2400 X58.577 Y-28.8 E4539.48791
G0 F12000 X58.577 Y-29.25
G1 F2400 X-58.577 Y-29.249 E4544.13319
G0 F12000 X-58.577 Y-29.699
G1 F2400 X58.577 Y-29.7 E4548.77847
G0 F12000 X58.577 Y-30.15
G1 F2400 X-58.577 Y-30.149 E4553.42375
G0 F12000 X-58.577 Y-30.599
G1 F2400 X58.577 Y-30.6 E4558.06903
G0 F12000 X58.577 Y-31.05
G1 F2400 X-58.577 Y-31.049 E4562.71431
G0 F12000 X-58.577 Y-31.499
G1 F2400 X58.577 Y-31.5 E4567.35959
G0 F12000 X58.577 Y-31.95
G1 F2400 X-58.577 Y-31.949 E4572.00487
G0 F12000 X-58.577 Y-32.399
G1 F2400 X58.577 Y-32.4 E4576.65015
G0 F12000 X58.577 Y-32.85
G1 F2400 X-58.577 Y-32.85 E4581.29543
G0 F12000 X-58.577 Y-33.3
G1 F2400 X58.577 Y-33.3 E4585.94071
G0 F12000 X58.577 Y-33.75
G1 F2400 X-58.577 Y-33.75 E4590.58599
G0 F12000 X-58.577 Y-34.2
G1 F2400 X58.577 Y-34.2 E4595.23127
G0 F12000 X58.577 Y-34.65
G1 F2400 X-58.577 Y-34.65 E4599.87655
G0 F12000 X-58.577 Y-35.1
G1 F2400 X58.577 Y-35.1 E4604.52183
G0 F12000 X58.577 Y-35.55
G1 F2400 X-58.577 Y-35.55 E4609.16711
G0 F12000 X-58.577 Y-36
G1 F2400 X58.577 Y-36 E4613.81239
G0 F12000 X58.577 Y-36.45
G1 F2400 X-58.577 Y-36.45 E4618.45768
G0 F12000 X-58.577 Y-36.9
G1 F2400 X58.577 Y-36.9 E4623.10296
G0 F12000 X58.577 Y-37.35
G1 F2400 X-58.577 Y-37.35 E4627.74824
G0 F12000 X-58.577 Y-37.8
G1 F2400 X58.577 Y-37.8 E4632.39352
G0 F12000 X58.577 Y-38.25
G1 F2400 X-58.577 Y-38.25 E4637.0388
G0 F12000 X-58.834 Y-38.798
G1 F2400 X-58.87 Y-38.824 E4637.03932
G0 F12000 X-58.744 Y-38.881
G1 F2400 X-58.76 Y-38.919 E4637.03989
G0 F12000 X-58.643 Y-38.939
G1 F2400 X-58.634 Y-38.976 E4637.0403
G0 F12000 X-58.833 Y38.8
G0 X-58.833 Y38.8
G1 F2400 X-58.871 Y38.824 E4637.04084
G0 F12000 X-58.76 Y38.919
G1 F2400 X-58.726 Y38.883 E4637.04153
G0 F12000 X58.726 Y-38.883
G1 F2400 X58.76 Y-38.919 E4637.04222
G0 F12000 X58.833 Y-38.799
G1 F2400 X58.87 Y-38.824 E4637.04275
; Layer Change GCode
; LAYER:5
G0 F12000 X58.487 Y39.309 Z1.3
G0 X58.485 Y39.709
G0 X58.488 Y39.41
G0 X58.488 Y39.41
G0 X58.489 Y39.735
G0 X58.489 Y39.735
G0 X58.531 Y38.832
; TYPE:WALL-INNER
G1 F2400 X58.531 Y38.832 E4637.04275
G1 X-58.552 Y38.829 E4641.68522
G1 X-58.643 Y38.797 E4641.68904
G1 X-58.741 Y38.724 E4641.69389
G1 X-58.78 Y38.675 E4641.69637
G1 X-58.813 Y38.594 E4641.69984
G1 X-58.835 Y38.429 E4641.70644
G1 X-58.835 Y-38.429 E4644.75394
G1 X-58.814 Y-38.591 E4644.76042
G1 X-58.779 Y-38.675 E4644.76403
G1 X-58.73 Y-38.738 E4644.76719
G1 X-58.659 Y-38.788 E4644.77063
G1 X-58.531 Y-38.832 E4644.776
G1 X-58.464 Y-38.835 E4644.77866
G1 X58.552 Y-38.829 E4649.41847
G1 X58.643 Y-38.797 E4649.42229
G1 X58.742 Y-38.723 E4649.42719
G1 X58.814 Y-38.591 E4649.43316
G1 X58.835 Y-38.429 E4649.43963
G1 X58.835 Y38.429 E4652.48713
G1 X58.813 Y38.594 E4652.49373
G1 X58.781 Y38.673 E4652.49711
G1 X58.729 Y38.738 E4652.50041
G1 X58.659 Y38.788 E4652.50383
G1 X58.531 Y38.832 E4652.50919
G0 F12000 X58.614 Y39.279
G1 F2400 X58.614 Y39.279 E4652.50919
G1 X-58.599 Y39.279 E4657.15681
G1 X-58.86 Y39.196 E4657.16767
G1 X-59.056 Y39.051 E4657.17734
G1 X-59.171 Y38.906 E4657.18468
G1 X-59.252 Y38.71 E4657.19309
G1 X-59.285 Y38.458 E4657.20316
G1 X-59.285 Y-38.457 E4660.25292
G1 X-59.252 Y-38.712 E4660.26312
G1 X-59.172 Y-38.903 E4660.27133
G1 X-59.044 Y-39.066 E4660.27955
G1 X-58.867 Y-39.193 E4660.28819
G1 X-58.614 Y-39.279 E4660.29878
G1 X-58.487 Y-39.285 E4660.30382
G1 X58.599 Y-39.279 E4664.94641
G1 X58.86 Y-39.196 E4664.95727
G1 X59.055 Y-39.051 E4664.9669
G1 X59.172 Y-38.903 E4664.97438
G1 X59.252 Y-38.712 E4664.98259
G1 X59.285 Y-38.457 E4664.99279
G1 X59.285 Y38.458 E4668.04255
G1 X59.252 Y38.71 E4668.05263
G1 X59.172 Y38.904 E4668.06095
G1 X59.042 Y39.067 E4668.06921
G1 X58.867 Y39.193 E4668.07776
G1 X58.614 Y39.279 E4668.08836
G0 F12000 X58.489 Y39.735
; TYPE:WALL-OUTER
G1 F1800 X58.489 Y39.735 E4668.08836
G1 X-58.647 Y39.729 E4672.73293
G1 X-58.806 Y39.694 E4672.73938
G1 X-59.073 Y39.598 E4672.75063
G1 X-59.373 Y39.376 E4672.76543
G1 X-59.563 Y39.135 E4672.7776
G1 X-59.69 Y38.829 E4672.79074
G1 X-59.735 Y38.486 E4672.80445
G1 X-59.735 Y-38.485 E4675.85643
G1 X-59.69 Y-38.828 E4675.87015
G1 X-59.563 Y-39.134 E4675.88329
G1 X-59.357 Y-39.396 E4675.8965
G1 X-59.075 Y-39.597 E4675.91023
G1 X-58.701 Y-39.724 E4675.9259
G1 X-58.489 Y-39.735 E4675.93431
G1 X58.647 Y-39.729 E4680.57888
G1 X58.806 Y-39.694 E4680.58533
G1 X59.073 Y-39.598 E4680.59658
G1 X59.373 Y-39.376 E4680.61138
G1 X59.563 Y-39.134 E4680.62358
G1 X59.69 Y-38.828 E4680.63672
G1 X59.735 Y-38.485 E4680.65044
G1 X59.735 Y38.486 E4683.70242
G1 X59.69 Y38.829 E4683.71613
G1 X59.564 Y39.133 E4683.72918
G1 X59.355 Y39.397 E4683.74253
G1 X59.075 Y39.597 E4683.75618
G1 X58.701 Y39.724 E4683.77184
G1 X58.489 Y39.735 E4683.78026
G0 F12000 X58.668 Y39.022
; TYPE:FILL
G1 F2400 X58.681 Y38.98 E4683.78104
G0 F12000 X58.898 Y38.821
G1 F2400 X58.932 Y38.845 E4683.78156
G0 F12000 X58.534 Y38.584
G1 F2400 X58.533 Y38.572 E4683.78167
G0 F12000 X58.539 Y38.571
G1 F2400 X58.541 Y38.511 E4683.78237
G0 F12000 X58.528 Y38.585
G1 F2400 X58.529 Y38.59 E4683.78241
G0 F12000 X58.5 Y38.631
G1 F2400 X58.499 Y-38.628 E4686.84581
G0 F12000 X58.799 Y-38.915
G1 F2400 X58.824 Y-38.942 E4686.84641
G0 F12000 X58.735 Y-38.971
G1 F2400 X58.686 Y-39.02 E4686.84723
G0 F12000 X58.891 Y-38.824
G1 F2400 X58.937 Y-38.838 E4686.84777
G0 F12000 X58.049 Y-38.628
G1 F2400 X58.05 Y38.631 E4689.91117
G0 F12000 X57.6 Y38.631
G1 F2400 X57.599 Y-38.628 E4692.97457
G0 F12000 X57.149 Y-38.628
G1 F2400 X57.15 Y38.631 E4696.03797
G0 F12000 X56.7 Y38.631
G1 F2400 X56.699 Y-38.628 E4699.10137
G0 F12000 X56.249 Y-38.628
G1 F2400 X56.25 Y38.631 E4702.16477
G0 F12000 X55.8 Y38.631
G1 F2400 X55.799 Y-38.628 E4705.22817
G0 F12000 X55.349 Y-38.628
G1 F2400 X55.35 Y38.631 E4708.29157
G0 F12000 X54.9 Y38.631
G1 F2400 X54.899 Y-38.628 E4711.35498
G0 F12000 X54.449 Y-38.628
G1 F2400 X54.45 Y38.631 E4714.41838
G0 F12000 X54 Y38.631
G1 F2400 X53.999 Y-38.628 E4717.48178
G0 F12000 X53.549 Y-38.628
G1 F2400 X53.55 Y38.631 E4720.54518
G0 F12000 X53.1 Y38.631
G1 F2400 X53.099 Y-38.628 E4723.60858
G0 F12000 X52.649 Y-38.628
G1 F2400 X52.65 Y38.631 E4726.67198
G0 F12000 X52.2 Y38.631
G1 F2400 X52.199 Y-38.628 E4729.73538
G0 F12000 X51.749 Y-38.628
G1 F2400 X51.75 Y38.631 E4732.79878
G0 F12000 X51.3 Y38.631
G1 F2400 X51.299 Y-38.628 E4735.86218
G0 F12000 X50.849 Y-38.628
G1 F2400 X50.85 Y38.631 E4738.92559
G0 F12000 X50.4 Y38.631
G1 F2400 X50.399 Y-38.628 E4741.98899
G0 F12000 X49.949 Y-38.629
G1 F2400 X49.95 Y38.631 E4745.05243
G0 F12000 X49.5 Y38.631
G1 F2400 X49.499 Y-38.629 E4748.11587
G0 F12000 X49.049 Y-38.629
G1 F2400 X49.05 Y38.631 E4751.17931
G0 F12000 X48.6 Y38.631
G1 F2400 X48.599 Y-38.629 E4754.24275
G0 F12000 X48.149 Y-38.629
G1 F2400 X48.15 Y38.631 E4757.30619
G0 F12000 X47.7 Y38.631
G1 F2400 X47.699 Y-38.629 E4760.36963
G0 F12000 X47.249 Y-38.629
G1 F2400 X47.25 Y38.631 E4763.43307
G0 F12000 X46.8 Y38.631
G1 F2400 X46.799 Y-38.629 E4766.49651
G0 F12000 X46.349 Y-38.629
G1 F2400 X46.35 Y38.631 E4769.55995
G0 F12000 X45.9 Y38.631
G1 F2400 X45.899 Y-38.629 E4772.62339
G0 F12000 X45.449 Y-38.629
G1 F2400 X45.45 Y38.631 E4775.68684
G0 F12000 X45 Y38.631
G1 F2400 X44.999 Y-38.629 E4778.75028
G0 F12000 X44.549 Y-38.629
G1 F2400 X44.55 Y38.631 E4781.81372
G0 F12000 X44.1 Y38.631
G1 F2400 X44.099 Y-38.629 E4784.87716
G0 F12000 X43.649 Y-38.629
G1 F2400 X43.65 Y38.63 E4787.94056
G0 F12000 X43.2 Y38.63
G1 F2400 X43.199 Y-38.629 E4791.00396
G0 F12000 X42.749 Y-38.629
G1 F2400 X42.75 Y38.63 E4794.06736
G0 F12000 X42.3 Y38.63
G1 F2400 X42.299 Y-38.629 E4797.13076
G0 F12000 X41.849 Y-38.629
G1 F2400 X41.85 Y38.63 E4800.19416
G0 F12000 X41.4 Y38.63
G1 F2400 X41.399 Y-38.629 E4803.25756
G0 F12000 X40.949 Y-38.629
G1 F2400 X40.95 Y38.63 E4806.32097
G0 F12000 X40.5 Y38.63
G1 F2400 X40.499 Y-38.629 E4809.38437
G0 F12000 X40.049 Y-38.629
G1 F2400 X40.05 Y38.63 E4812.44777
G0 F12000 X39.6 Y38.63
G1 F2400 X39.599 Y-38.629 E4815.51117
G0 F12000 X39.149 Y-38.629
G1 F2400 X39.15 Y38.63 E4818.57457
G0 F12000 X38.7 Y38.63
G1 F2400 X38.699 Y-38.629 E4821.63797
G0 F12000 X38.249 Y-38.629
G1 F2400 X38.25 Y38.63 E4824.70137
G0 F12000 X37.8 Y38.63
G1 F2400 X37.799 Y-38.629 E4827.76477
G0 F12000 X37.349 Y-38.629
G1 F2400 X37.35 Y38.63 E4830.82817
G0 F12000 X36.9 Y38.63
G1 F2400 X36.899 Y-38.629 E4833.89158
G0 F12000 X36.449 Y-38.629
G1 F2400 X36.45 Y38.63 E4836.95498
G0 F12000 X36 Y38.63
G1 F2400 X35.999 Y-38.629 E4840.01838
G0 F12000 X35.549 Y-38.629
G1 F2400 X35.55 Y38.63 E4843.08178
G0 F12000 X35.1 Y38.63
G1 F2400 X35.099 Y-38.629 E4846.14518
G0 F12000 X34.649 Y-38.629
G1 F2400 X34.65 Y38.63 E4849.20858
G0 F12000 X34.2 Y38.63
G1 F2400 X34.199 Y-38.629 E4852.27198
G0 F12000 X33.749 Y-38.629
G1 F2400 X33.75 Y38.63 E4855.33538
G0 F12000 X33.3 Y38.63
G1 F2400 X33.299 Y-38.63 E4858.39882
G0 F12000 X32.849 Y-38.63
G1 F2400 X32.85 Y38.63 E4861.46227
G0 F12000 X32.4 Y38.63
G1 F2400 X32.399 Y-38.63 E4864.52571
G0 F12000 X31.949 Y-38.63
G1 F2400 X31.95 Y38.63 E4867.58915
G0 F12000 X31.5 Y38.63
G1 F2400 X31.499 Y-38.63 E4870.65259
G0 F12000 X31.049 Y-38.63
G1 F2400 X31.05 Y38.63 E4873.71603
G0 F12000 X30.6 Y38.63
G1 F2400 X30.599 Y-38.63 E4876.77947
G0 F12000 X30.149 Y-38.63
G1 F2400 X30.15 Y38.63 E4879.84291
G0 F12000 X29.7 Y38.631
G1 F2400 X29.699 Y-38.63 E4882.90639
G0 F12000 X29.249 Y-38.63
G1 F2400 X29.25 Y38.631 E4885.96987
G0 F12000 X28.8 Y38.631
G1 F2400 X28.799 Y-38.63 E4889.03335
G0 F12000 X28.349 Y-38.63
G1 F2400 X28.35 Y38.631 E4892.09683
G0 F12000 X27.9 Y38.631
G1 F2400 X27.899 Y-38.63 E4895.16031
G0 F12000 X27.449 Y-38.63
G1 F2400 X27.45 Y38.631 E4898.22379
G0 F12000 X27 Y38.631
G1 F2400 X26.999 Y-38.63 E4901.28727
G0 F12000 X26.549 Y-38.63
G1 F2400 X26.55 Y38.631 E4904.35075
G0 F12000 X26.1 Y38.631
G1 F2400 X26.099 Y-38.63 E4907.41423
G0 F12000 X25.649 Y-38.63
G1 F2400 X25.65 Y38.631 E4910.47771
G0 F12000 X25.2 Y38.631
G1 F2400 X25.199 Y-38.63 E4913.54119
G0 F12000 X24.749 Y-38.63
G1 F2400 X24.75 Y38.631 E4916.60467
G0 F12000 X24.3 Y38.631
G1 F2400 X24.299 Y-38.63 E4919.66816
G0 F12000 X23.849 Y-38.63
G1 F2400 X23.85 Y38.631 E4922.73164
G0 F12000 X23.4 Y38.631
G1 F2400 X23.399 Y-38.63 E4925.79512
G0 F12000 X22.949 Y-38.63
G1 F2400 X22.95 Y38.631 E4928.8586
G0 F12000 X22.5 Y38.631
G1 F2400 X22.499 Y-38.63 E4931.92208
G0 F12000 X22.049 Y-38.63
G1 F2400 X22.05 Y38.631 E4934.98556
G0 F12000 X21.6 Y38.631
G1 F2400 X21.599 Y-38.63 E4938.04904
G0 F12000 X21.149 Y-38.63
G1 F2400 X21.15 Y38.631 E4941.11252
G0 F12000 X20.7 Y38.631
G1 F2400 X20.699 Y-38.63 E4944.176
G0 F12000 X20.249 Y-38.63
G1 F2400 X20.25 Y38.631 E4947.23948
G0 F12000 X19.8 Y38.631
G1 F2400 X19.799 Y-38.63 E4950.30296
G0 F12000 X19.349 Y-38.63
G1 F2400 X19.35 Y38.631 E4953.36644
G0 F12000 X18.9 Y38.631
G1 F2400 X18.9 Y26.122 E4953.86244
G0 F12000 X18.45 Y26.122
G1 F2400 X18.45 Y38.631 E4954.35843
G0 F12000 X18 Y38.631
G1 F2400 X18 Y26.122 E4954.85443
G0 F12000 X17.55 Y26.122
G1 F2400 X17.55 Y38.631 E4955.35042
G0 F12000 X17.1 Y38.631
G1 F2400 X17.1 Y26.122 E4955.84642
G0 F12000 X16.65 Y26.122
G1 F2400 X16.65 Y38.631 E4956.34241
G0 F12000 X16.2 Y38.631
G1 F2400 X16.2 Y26.122 E4956.83841
G0 F12000 X15.75 Y26.122
G1 F2400 X15.75 Y38.631 E4957.3344
G0 F12000 X15.3 Y38.631
G1 F2400 X15.3 Y26.122 E4957.8304
G0 F12000 X14.85 Y26.123
G1 F2400 X14.85 Y38.631 E4958.32635
G0 F12000 X14.4 Y38.63
G1 F2400 X14.4 Y26.123 E4958.82227
G0 F12000 X13.95 Y26.123
G1 F2400 X13.95 Y38.63 E4959.31818
G0 F12000 X13.5 Y38.63
G1 F2400 X13.5 Y26.123 E4959.8141
G0 F12000 X13.05 Y26.123
G1 F2400 X13.05 Y38.63 E4960.31001
G0 F12000 X12.6 Y38.63
G1 F2400 X12.6 Y26.123 E4960.80593
G0 F12000 X12.15 Y26.123
G1 F2400 X12.15 Y38.63 E4961.30185
G0 F12000 X11.7 Y38.63
G1 F2400 X11.7 Y26.123 E4961.79776
G0 F12000 X11.25 Y26.123
G1 F2400 X11.25 Y38.63 E4962.29368
G0 F12000 X10.8 Y38.63
G1 F2400 X10.8 Y26.123 E4962.78959
G0 F12000 X10.35 Y26.123
G1 F2400 X10.35 Y38.63 E4963.28551
G0 F12000 X9.9 Y38.63
G1 F2400 X9.9 Y26.123 E4963.78143
G0 F12000 X9.45 Y26.123
G1 F2400 X9.45 Y38.63 E4964.27734
G0 F12000 X9 Y38.63
G1 F2400 X9 Y26.123 E4964.77326
G0 F12000 X8.55 Y26.123
G1 F2400 X8.55 Y38.63 E4965.26917
G0 F12000 X8.1 Y38.63
G1 F2400 X8.1 Y26.123 E4965.76509
G0 F12000 X7.65 Y26.123
G1 F2400 X7.65 Y38.63 E4966.261
G0 F12000 X7.2 Y38.63
G1 F2400 X7.2 Y26.123 E4966.75692
G0 F12000 X6.75 Y26.123
G1 F2400 X6.75 Y38.63 E4967.25284
G0 F12000 X6.3 Y38.63
G1 F2400 X6.3 Y26.123 E4967.74875
G0 F12000 X5.85 Y26.123
G1 F2400 X5.85 Y38.63 E4968.24467
G0 F12000 X5.4 Y38.63
G1 F2400 X5.4 Y26.123 E4968.74058
G0 F12000 X4.95 Y26.123
G1 F2400 X4.95 Y38.63 E4969.2365
G0 F12000 X4.5 Y38.63
G1 F2400 X4.5 Y26.123 E4969.73241
G0 F12000 X4.05 Y26.123
G1 F2400 X4.05 Y38.63 E4970.22833
G0 F12000 X3.6 Y38.63
G1 F2400 X3.6 Y26.123 E4970.72425
G0 F12000 X3.15 Y26.123
G1 F2400 X3.15 Y38.63 E4971.22016
G0 F12000 X2.7 Y38.63
G1 F2400 X2.7 Y26.123 E4971.71608
G0 F12000 X2.25 Y26.123
G1 F2400 X2.25 Y38.63 E4972.21199
G0 F12000 X1.8 Y38.63
G1 F2400 X1.8 Y26.123 E4972.70791
G0 F12000 X1.35 Y26.123
G1 F2400 X1.35 Y38.63 E4973.20383
G0 F12000 X0.9 Y38.63
G1 F2400 X0.9 Y26.123 E4973.69974
G0 F12000 X0.45 Y26.123
G1 F2400 X0.45 Y38.63 E4974.19566
G0 F12000 X0 Y38.63
G1 F2400 X0 Y26.123 E4974.69157
G0 F12000 X-0.449 Y26.123
G1 F2400 X-0.449 Y38.63 E4975.18749
G0 F12000 X-0.899 Y38.63
G1 F2400 X-0.899 Y26.123 E4975.6834
G0 F12000 X-1.349 Y26.123
G1 F2400 X-1.349 Y38.63 E4976.17932
G0 F12000 X-1.799 Y38.63
G1 F2400 X-1.799 Y26.123 E4976.67524
G0 F12000 X-2.249 Y26.123
G1 F2400 X-2.249 Y38.63 E4977.17115
G0 F12000 X-2.699 Y38.63
G1 F2400 X-2.699 Y26.123 E4977.66707
G0 F12000 X-3.149 Y26.123
G1 F2400 X-3.149 Y38.63 E4978.16298
G0 F12000 X-3.599 Y38.63
G1 F2400 X-3.599 Y26.123 E4978.6589
G0 F12000 X-4.049 Y26.123
G1 F2400 X-4.049 Y38.63 E4979.15481
G0 F12000 X-4.499 Y38.63
G1 F2400 X-4.499 Y26.123 E4979.65073
G0 F12000 X-4.949 Y26.123
G1 F2400 X-4.949 Y38.63 E4980.14665
G0 F12000 X-5.399 Y38.63
G1 F2400 X-5.399 Y26.123 E4980.64256
G0 F12000 X-5.849 Y26.123
G1 F2400 X-5.849 Y38.63 E4981.13848
G0 F12000 X-6.299 Y38.63
G1 F2400 X-6.299 Y26.123 E4981.63439
G0 F12000 X-6.749 Y26.123
G1 F2400 X-6.749 Y38.63 E4982.13031
G0 F12000 X-7.199 Y38.63
G1 F2400 X-7.199 Y26.123 E4982.62623
G0 F12000 X-7.649 Y26.123
G1 F2400 X-7.649 Y38.63 E4983.12214
G0 F12000 X-8.099 Y38.63
G1 F2400 X-8.099 Y26.123 E4983.61806
G0 F12000 X-8.549 Y26.123
G1 F2400 X-8.549 Y38.63 E4984.11397
G0 F12000 X-8.999 Y38.63
G1 F2400 X-8.999 Y26.123 E4984.60989
G0 F12000 X-9.449 Y26.123
G1 F2400 X-9.449 Y38.63 E4985.1058
G0 F12000 X-9.899 Y38.63
G1 F2400 X-9.899 Y26.123 E4985.60172
G0 F12000 X-10.349 Y26.123
G1 F2400 X-10.349 Y38.63 E4986.09764
G0 F12000 X-10.799 Y38.63
G1 F2400 X-10.799 Y26.123 E4986.59355
G0 F12000 X-11.249 Y26.123
