; Generated with MatterSlice 1.0
; filamentDiameter = 1.75
; extrusionWidth = 0.5
; firstLayerExtrusionWidth = 0.625
; layerThickness = 0.2
; firstLayerThickness = 0.3
; automatic settings before start_gcode
G21 ; set units to millimeters
M107 ; fan off
M190 S60 ; wait for bed temperature to be reached
M104 T0 S210 ; start heating extruder 1
M109 T0 S210 ; wait for extruder 1
T0 ; set the active extruder to 0
; settings from start_gcode
G28
; automatic settings after start_gcode
T0 ; set the active extruder to 0
G90 ; use absolute coordinates
G92 E0 ; reset the expected extruder position
M82 ; use absolute distance for extrusion
; Layer count: 155
; Layer Change GCode
; LAYER:0
G4 P0
M107
G0 F12000 X60.902 Y-42.492 Z0.8
; TYPE:SKIRT
G1 Z0.3
G1 F6000 E0
G1 F900 X62.398 Y-41.098 E0.1594
G1 X63.066 Y-39.158 E0.31934
G1 X63.066 Y39.161 E6.42458
G1 X62.399 Y41.091 E6.58376
G1 X60.91 Y42.491 E6.74308
G1 X59.115 Y43.066 E6.89001
G1 X-59.115 Y43.066 E16.10645
G1 X-60.91 Y42.491 E16.25338
G1 X-62.399 Y41.091 E16.4127
G1 X-63.033 Y39.257 E16.56397
G1 X-64.686 Y6.451 E19.12455
G1 X-64.686 Y-6.451 E20.13031
G1 X-63.033 Y-39.254 E22.69066
G1 X-62.398 Y-41.098 E22.84269
G1 X-60.902 Y-42.492 E23.00209
G1 X-59.115 Y-43.065 E23.14838
G1 X59.115 Y-43.065 E32.36481
G1 X60.902 Y-42.492 E32.5111
G0 F12000 X60.578 Y-41.94
G1 F900 X61.857 Y-40.747 E32.64745
G1 X62.441 Y-39.053 E32.78713
G1 X62.441 Y39.056 E38.87599
G1 X61.859 Y40.742 E39.01503
G1 X60.585 Y41.939 E39.1513
G1 X59.018 Y42.441 E39.27957
G1 X-59.018 Y42.441 E48.48088
G1 X-60.585 Y41.939 E48.60915
G1 X-61.859 Y40.742 E48.74542
G1 X-62.413 Y39.137 E48.87778
G1 X-64.061 Y6.435 E51.43025
G1 X-64.061 Y-6.435 E52.43351
G1 X-62.413 Y-39.134 E54.98574
G1 X-61.857 Y-40.747 E55.11874
G1 X-60.578 Y-41.94 E55.25509
G1 X-59.018 Y-42.44 E55.38279
G1 X59.018 Y-42.44 E64.5841
G1 X60.578 Y-41.94 E64.7118
G1 F6000 E62.9118
G1 Z0.8
G0 F12000 X-58.452 Y38.817
; TYPE:WALL-OUTER
G1 Z0.3
G1 F6000 E64.7118
G1 F900 X-58.452 Y38.817 E64.7118
G1 X-58.699 Y38.738 E64.73202
G1 X-58.725 Y38.714 E64.73477
G1 X-58.817 Y38.447 E64.75679
G1 X-58.817 Y-38.446 E70.75086
G1 X-58.725 Y-38.713 E70.77288
G1 X-58.7 Y-38.736 E70.77553
G1 X-58.452 Y-38.816 E70.79584
G1 X58.452 Y-38.816 E79.90891
G1 X58.7 Y-38.736 E79.92922
G1 X58.725 Y-38.713 E79.93187
G1 X58.817 Y-38.446 E79.95388
G1 X58.817 Y38.447 E85.94796
G1 X58.725 Y38.714 E85.96997
G1 X58.699 Y38.738 E85.97273
G1 X58.452 Y38.817 E85.99295
G1 X-58.452 Y38.817 E95.10602
G0 F12000 X-58.193 Y38.193
; TYPE:WALL-INNER
G1 F900 X-58.193 Y38.193 E95.10602
G1 X-58.193 Y-38.192 E101.06049
G1 X58.193 Y-38.192 E110.13318
G1 X58.193 Y38.193 E116.08765
G1 X-58.193 Y38.193 E125.16034
G0 F12000 X-57.569 Y37.569
G1 F900 X-57.569 Y37.569 E125.16034
G1 X-57.569 Y-37.568 E131.01753
G1 X57.569 Y-37.568 E139.99293
G1 X57.569 Y37.569 E145.85012
G1 X-57.569 Y37.569 E154.82552
G0 F12000 X-57.194 Y36.875
; TYPE:BOTTOM-FILL
G1 F900 X57.194 Y36.875 E163.74246
G0 F12000 X57.194 Y36.25
G1 F900 X-57.194 Y36.25 E172.6594
G0 F12000 X-57.194 Y35.625
G1 F900 X57.194 Y35.625 E181.57634
G0 F12000 X57.194 Y35
G1 F900 X-57.194 Y35 E190.49328
G0 F12000 X-57.194 Y34.375
G1 F900 X57.194 Y34.375 E199.41021
G0 F12000 X57.194 Y33.75
G1 F900 X-57.194 Y33.75 E208.32715
G0 F12000 X-57.194 Y33.125
G1 F900 X57.194 Y33.125 E217.24409
G0 F12000 X57.194 Y32.499
G1 F900 X-57.194 Y32.5 E226.16103
G0 F12000 X-57.194 Y31.875
G1 F900 X57.194 Y31.874 E235.07797
G0 F12000 X57.194 Y31.249
G1 F900 X-57.194 Y31.25 E243.99491
G0 F12000 X-57.194 Y30.625
G1 F900 X57.194 Y30.624 E252.91184
G0 F12000 X57.194 Y29.999
G1 F900 X-57.194 Y30 E261.82878
G0 F12000 X-57.194 Y29.375
G1 F900 X57.194 Y29.374 E270.74572
G0 F12000 X57.194 Y28.749
G1 F900 X-57.194 Y28.75 E279.66266
G0 F12000 X-57.194 Y28.125
G1 F900 X57.194 Y28.124 E288.5796
G0 F12000 X57.194 Y27.499
G1 F900 X-57.194 Y27.5 E297.49654
G0 F12000 X-57.194 Y26.875
G1 F900 X57.194 Y26.874 E306.41347
G0 F12000 X57.194 Y26.249
G1 F900 X-57.194 Y26.25 E315.33041
G0 F12000 X-57.194 Y25.625
G1 F900 X57.194 Y25.624 E324.24735
G0 F12000 X57.194 Y24.999
G1 F900 X-57.194 Y25 E333.16429
G0 F12000 X-57.194 Y24.375
G1 F900 X57.194 Y24.374 E342.08123
G0 F12000 X57.194 Y23.749
G1 F900 X-57.194 Y23.75 E350.99817
G0 F12000 X-57.194 Y23.125
G1 F900 X57.194 Y23.124 E359.9151
G0 F12000 X57.194 Y22.499
G1 F900 X-57.194 Y22.5 E368.83204
G0 F12000 X-57.194 Y21.875
G1 F900 X57.194 Y21.874 E377.74898
G0 F12000 X57.194 Y21.249
G1 F900 X-57.194 Y21.25 E386.66592
G0 F12000 X-57.194 Y20.625
G1 F900 X57.194 Y20.624 E395.58286
G0 F12000 X57.194 Y19.999
G1 F900 X-57.194 Y20 E404.49979
G0 F12000 X-57.194 Y19.375
G1 F900 X57.194 Y19.374 E413.41673
G0 F12000 X57.194 Y18.749
G1 F900 X-57.194 Y18.75 E422.33367
G0 F12000 X-57.194 Y18.125
G1 F900 X57.194 Y18.124 E431.25061
G0 F12000 X57.194 Y17.499
G1 F900 X-57.194 Y17.5 E440.16755
G0 F12000 X-57.194 Y16.875
G1 F900 X57.194 Y16.874 E449.08449
G0 F12000 X57.194 Y16.249
G1 F900 X-57.194 Y16.25 E458.00142
G0 F12000 X-57.194 Y15.625
G1 F900 X57.194 Y15.624 E466.91836
G0 F12000 X57.194 Y14.999
G1 F900 X-57.194 Y15 E475.8353
G0 F12000 X-57.194 Y14.375
G1 F900 X57.194 Y14.374 E484.75224
G0 F12000 X57.194 Y13.749
G1 F900 X-57.194 Y13.75 E493.66918
G0 F12000 X-57.194 Y13.125
G1 F900 X57.194 Y13.124 E502.58612
G0 F12000 X57.194 Y12.499
G1 F900 X-57.194 Y12.5 E511.50305
G0 F12000 X-57.194 Y11.875
G1 F900 X57.194 Y11.874 E520.41999
G0 F12000 X57.194 Y11.249
G1 F900 X-57.194 Y11.25 E529.33693
G0 F12000 X-57.194 Y10.625
G1 F900 X57.194 Y10.624 E538.25387
G0 F12000 X57.194 Y9.999
G1 F900 X-57.194 Y10 E547.17081
G0 F12000 X-57.194 Y9.375
G1 F900 X57.194 Y9.374 E556.08775
G0 F12000 X57.194 Y8.749
G1 F900 X-57.194 Y8.75 E565.00468
G0 F12000 X-57.194 Y8.125
G1 F900 X57.194 Y8.124 E573.92162
G0 F12000 X57.194 Y7.499
G1 F900 X-57.194 Y7.5 E582.83856
G0 F12000 X-57.194 Y6.875
G1 F900 X57.194 Y6.874 E591.7555
G0 F12000 X57.194 Y6.249
G1 F900 X-57.194 Y6.25 E600.67244
G0 F12000 X-57.194 Y5.625
G1 F900 X57.194 Y5.624 E609.58937
G0 F12000 X57.194 Y4.999
G1 F900 X-57.194 Y5 E618.50631
G0 F12000 X-57.194 Y4.375
G1 F900 X57.194 Y4.374 E627.42325
G0 F12000 X57.194 Y3.749
G1 F900 X-57.194 Y3.75 E636.34019
G0 F12000 X-57.194 Y3.125
G1 F900 X57.194 Y3.124 E645.25713
G0 F12000 X57.194 Y2.499
G1 F900 X-57.194 Y2.5 E654.17407
G0 F12000 X-57.194 Y1.875
G1 F900 X57.194 Y1.874 E663.091
G0 F12000 X57.194 Y1.249
G1 F900 X-57.194 Y1.25 E672.00794
G0 F12000 X-57.194 Y0.625
G1 F900 X57.194 Y0.624 E680.92488
G0 F12000 X57.194 Y0
G1 F900 X-57.194 Y0 E689.84182
G0 F12000 X-57.194 Y-0.624
G1 F900 X57.194 Y-0.625 E698.75876
G0 F12000 X57.194 Y-1.25
G1 F900 X-57.194 Y-1.249 E707.6757
G0 F12000 X-57.194 Y-1.874
G1 F900 X57.194 Y-1.875 E716.59263
G0 F12000 X57.194 Y-2.5
G1 F900 X-57.194 Y-2.499 E725.50957
G0 F12000 X-57.194 Y-3.124
G1 F900 X57.194 Y-3.125 E734.42651
G0 F12000 X57.194 Y-3.75
G1 F900 X-57.194 Y-3.749 E743.34345
G0 F12000 X-57.194 Y-4.374
G1 F900 X57.194 Y-4.375 E752.26039
G0 F12000 X57.194 Y-5
G1 F900 X-57.194 Y-4.999 E761.17733
G0 F12000 X-57.194 Y-5.624
G1 F900 X57.194 Y-5.625 E770.09426
G0 F12000 X57.194 Y-6.25
G1 F900 X-57.194 Y-6.249 E779.0112
G0 F12000 X-57.194 Y-6.874
G1 F900 X57.194 Y-6.875 E787.92814
G0 F12000 X57.194 Y-7.5
G1 F900 X-57.194 Y-7.499 E796.84508
G0 F12000 X-57.194 Y-8.124
G1 F900 X57.194 Y-8.125 E805.76202
G0 F12000 X57.194 Y-8.75
G1 F900 X-57.194 Y-8.749 E814.67896
G0 F12000 X-57.194 Y-9.374
G1 F900 X57.194 Y-9.375 E823.59589
G0 F12000 X57.194 Y-10
G1 F900 X-57.194 Y-9.999 E832.51283
G0 F12000 X-57.194 Y-10.624
G1 F900 X57.194 Y-10.625 E841.42977
G0 F12000 X57.194 Y-11.25
G1 F900 X-57.194 Y-11.249 E850.34671
G0 F12000 X-57.194 Y-11.874
G1 F900 X57.194 Y-11.875 E859.26365
G0 F12000 X57.194 Y-12.5
G1 F900 X-57.194 Y-12.499 E868.18058
G0 F12000 X-57.194 Y-13.124
G1 F900 X57.194 Y-13.125 E877.09752
G0 F12000 X57.194 Y-13.75
G1 F900 X-57.194 Y-13.749 E886.01446
G0 F12000 X-57.194 Y-14.374
G1 F900 X57.194 Y-14.375 E894.9314
G0 F12000 X57.194 Y-15
G1 F900 X-57.194 Y-14.999 E903.84834
G0 F12000 X-57.194 Y-15.624
G1 F900 X57.194 Y-15.625 E912.76528
G0 F12000 X57.194 Y-16.25
G1 F900 X-57.194 Y-16.249 E921.68221
G0 F12000 X-57.194 Y-16.874
G1 F900 X57.194 Y-16.875 E930.59915
G0 F12000 X57.194 Y-17.5
G1 F900 X-57.194 Y-17.499 E939.51609
G0 F12000 X-57.194 Y-18.124
G1 F900 X57.194 Y-18.125 E948.43303
G0 F12000 X57.194 Y-18.75
G1 F900 X-57.194 Y-18.749 E957.34997
G0 F12000 X-57.194 Y-19.374
G1 F900 X57.194 Y-19.375 E966.26691
G0 F12000 X57.194 Y-20
G1 F900 X-57.194 Y-19.999 E975.18384
G0 F12000 X-57.194 Y-20.624
G1 F900 X57.194 Y-20.625 E984.10078
G0 F12000 X57.194 Y-21.25
G1 F900 X-57.194 Y-21.249 E993.01772
G0 F12000 X-57.194 Y-21.874
G1 F900 X57.194 Y-21.875 E1001.93466
G0 F12000 X57.194 Y-22.5
G1 F900 X-57.194 Y-22.499 E1010.8516
G0 F12000 X-57.194 Y-23.124
G1 F900 X57.194 Y-23.125 E1019.76854
G0 F12000 X57.194 Y-23.75
G1 F900 X-57.194 Y-23.749 E1028.68547
G0 F12000 X-57.194 Y-24.374
G1 F900 X57.194 Y-24.375 E1037.60241
G0 F12000 X57.194 Y-25
G1 F900 X-57.194 Y-24.999 E1046.51935
G0 F12000 X-57.194 Y-25.624
G1 F900 X57.194 Y-25.625 E1055.43629
G0 F12000 X57.194 Y-26.25
G1 F900 X-57.194 Y-26.249 E1064.35323
G0 F12000 X-57.194 Y-26.874
G1 F900 X57.194 Y-26.875 E1073.27016
G0 F12000 X57.194 Y-27.5
G1 F900 X-57.194 Y-27.499 E1082.1871
G0 F12000 X-57.194 Y-28.124
G1 F900 X57.194 Y-28.125 E1091.10404
G0 F12000 X57.194 Y-28.75
G1 F900 X-57.194 Y-28.749 E1100.02098
G0 F12000 X-57.194 Y-29.374
G1 F900 X57.194 Y-29.375 E1108.93792
G0 F12000 X57.194 Y-30
G1 F900 X-57.194 Y-29.999 E1117.85486
G0 F12000 X-57.194 Y-30.624
G1 F900 X57.194 Y-30.625 E1126.77179
G0 F12000 X57.194 Y-31.25
G1 F900 X-57.194 Y-31.249 E1135.68873
G0 F12000 X-57.194 Y-31.874
G1 F900 X57.194 Y-31.875 E1144.60567
G0 F12000 X57.194 Y-32.5
G1 F900 X-57.194 Y-32.499 E1153.52261
G0 F12000 X-57.194 Y-33.125
G1 F900 X57.194 Y-33.125 E1162.43955
G0 F12000 X57.194 Y-33.75
G1 F900 X-57.194 Y-33.75 E1171.35649
G0 F12000 X-57.194 Y-34.375
G1 F900 X57.194 Y-34.375 E1180.27342
G0 F12000 X57.194 Y-35
G1 F900 X-57.194 Y-35 E1189.19036
G0 F12000 X-57.194 Y-35.625
G1 F900 X57.194 Y-35.625 E1198.1073
G0 F12000 X57.194 Y-36.25
G1 F900 X-57.194 Y-36.25 E1207.02424
G0 F12000 X-57.194 Y-36.875
G1 F900 X57.194 Y-36.875 E1215.94118
G1 F6000 E1214.14118
G1 Z0.8
G0 F12000 X57.194 Y-36.875 Z1.05
; Layer Change GCode
; LAYER:1
G0 X-58.45 Y38.91 Z1
G0 X-58.45 Y38.91
G0 X-58.482 Y39.259
G0 X-58.482 Y39.259
G0 X-58.259 Y38.259
; TYPE:WALL-INNER
G1 Z0.5
G1 F6000 E1215.94118
G1 F2400 X-58.259 Y38.259 E1215.94118
G1 X-58.259 Y-38.259 E1219.12243
G1 X58.259 Y-38.259 E1223.96668
G1 X58.259 Y38.259 E1227.14793
G1 X-58.259 Y38.259 E1231.99219
G0 F12000 X-58.759 Y38.422
G1 F2400 X-58.759 Y38.422 E1231.99219
G1 X-58.759 Y-38.422 E1235.18699
G1 X-58.706 Y-38.614 E1235.19527
G1 X-58.653 Y-38.686 E1235.19899
G1 X-58.55 Y-38.74 E1235.20382
G1 X-58.439 Y-38.759 E1235.2085
G1 X58.439 Y-38.759 E1240.06773
G1 X58.55 Y-38.74 E1240.07241
G1 X58.649 Y-38.689 E1240.07704
G1 X58.725 Y-38.581 E1240.08253
G1 X58.759 Y-38.422 E1240.08929
G1 X58.759 Y38.422 E1243.28409
G1 X58.725 Y38.581 E1243.29085
G1 X58.649 Y38.689 E1243.29634
G1 X58.55 Y38.74 E1243.30097
G1 X58.439 Y38.759 E1243.30565
G1 X-58.439 Y38.759 E1248.16487
G1 X-58.55 Y38.74 E1248.16956
G1 X-58.649 Y38.689 E1248.17419
G1 X-58.725 Y38.581 E1248.17968
G1 X-58.759 Y38.422 E1248.18644
G0 F12000 X-59.259 Y38.476
; TYPE:WALL-OUTER
G1 F1800 X-59.259 Y38.476 E1248.18644
G1 X-59.259 Y-38.475 E1251.38569
G1 X-59.192 Y-38.787 E1251.39896
G1 X-58.989 Y-39.076 E1251.41364
G1 X-58.712 Y-39.22 E1251.42662
G1 X-58.482 Y-39.259 E1251.43632
G1 X58.482 Y-39.259 E1256.29911
G1 X58.712 Y-39.22 E1256.30881
G1 X58.987 Y-39.077 E1256.3217
G1 X59.193 Y-38.785 E1256.33656
G1 X59.259 Y-38.475 E1256.34973
G1 X59.259 Y38.476 E1259.54898
G1 X59.193 Y38.785 E1259.56212
G1 X58.987 Y39.077 E1259.57698
G1 X58.712 Y39.22 E1259.58986
G1 X58.482 Y39.259 E1259.59956
G1 X-58.482 Y39.259 E1264.46236
G1 X-58.712 Y39.22 E1264.47206
G1 X-58.987 Y39.077 E1264.48495
G1 X-59.193 Y38.785 E1264.4998
G1 X-59.259 Y38.476 E1264.51294
G0 F12000 X-58.909 Y38.436
G0 X-57.499 Y37.818
G0 X-57.499 Y37.818
; TYPE:FILL
G1 F2400 X-57.5 Y-37.817 E1267.65748
G0 F12000 X-57 Y-37.817
G1 F2400 X-56.999 Y37.818 E1270.80202
G0 F12000 X-56.499 Y37.818
G1 F2400 X-56.5 Y-37.817 E1273.94655
G0 F12000 X-56 Y-37.817
G1 F2400 X-55.999 Y37.818 E1277.09109
G0 F12000 X-55.499 Y37.818
G1 F2400 X-55.5 Y-37.817 E1280.23563
G0 F12000 X-55 Y-37.817
G1 F2400 X-54.999 Y37.818 E1283.38017
G0 F12000 X-54.499 Y37.818
G1 F2400 X-54.5 Y-37.817 E1286.52471
G0 F12000 X-54 Y-37.817
G1 F2400 X-53.999 Y37.818 E1289.66924
G0 F12000 X-53.499 Y37.818
G1 F2400 X-53.5 Y-37.817 E1292.81378
G0 F12000 X-53 Y-37.817
G1 F2400 X-52.999 Y37.818 E1295.95832
G0 F12000 X-52.499 Y37.818
G1 F2400 X-52.5 Y-37.817 E1299.10286
G0 F12000 X-52 Y-37.817
G1 F2400 X-51.999 Y37.818 E1302.2474
G0 F12000 X-51.499 Y37.818
G1 F2400 X-51.5 Y-37.817 E1305.39193
G0 F12000 X-51 Y-37.817
G1 F2400 X-50.999 Y37.818 E1308.53647
G0 F12000 X-50.499 Y37.818
G1 F2400 X-50.5 Y-37.817 E1311.68101
G0 F12000 X-50 Y-37.817
G1 F2400 X-49.999 Y37.818 E1314.82555
G0 F12000 X-49.499 Y37.818
G1 F2400 X-49.5 Y-37.817 E1317.97008
G0 F12000 X-49 Y-37.817
G1 F2400 X-48.999 Y37.818 E1321.11462
G0 F12000 X-48.499 Y37.818
G1 F2400 X-48.5 Y-37.817 E1324.25916
G0 F12000 X-48 Y-37.817
G1 F2400 X-47.999 Y37.818 E1327.4037
G0 F12000 X-47.499 Y37.818
G1 F2400 X-47.5 Y-37.817 E1330.54824
G0 F12000 X-47 Y-37.817
G1 F2400 X-46.999 Y37.818 E1333.69277
G0 F12000 X-46.499 Y37.818
G1 F2400 X-46.5 Y-37.817 E1336.83731
G0 F12000 X-46 Y-37.817
G1 F2400 X-45.999 Y37.818 E1339.98185
G0 F12000 X-45.499 Y37.818
G1 F2400 X-45.5 Y-37.817 E1343.12639
G0 F12000 X-45 Y-37.817
G1 F2400 X-44.999 Y37.818 E1346.27093
G0 F12000 X-44.499 Y37.818
G1 F2400 X-44.5 Y-37.817 E1349.41546
G0 F12000 X-44 Y-37.817
G1 F2400 X-43.999 Y37.818 E1352.56
G0 F12000 X-43.499 Y37.818
G1 F2400 X-43.5 Y-37.817 E1355.70454
G0 F12000 X-43 Y-37.817
G1 F2400 X-42.999 Y37.818 E1358.84908
G0 F12000 X-42.499 Y37.818
G1 F2400 X-42.5 Y-37.817 E1361.99362
G0 F12000 X-42 Y-37.817
G1 F2400 X-41.999 Y37.818 E1365.13815
G0 F12000 X-41.499 Y37.818
G1 F2400 X-41.5 Y-37.817 E1368.28269
G0 F12000 X-41 Y-37.817
G1 F2400 X-40.999 Y37.818 E1371.42723
G0 F12000 X-40.499 Y37.818
G1 F2400 X-40.5 Y-37.817 E1374.57177
G0 F12000 X-40 Y-37.817
G1 F2400 X-39.999 Y37.818 E1377.7163
G0 F12000 X-39.499 Y37.818
G1 F2400 X-39.5 Y-37.817 E1380.86084
G0 F12000 X-39 Y-37.817
G1 F2400 X-38.999 Y37.818 E1384.00538
G0 F12000 X-38.499 Y37.818
G1 F2400 X-38.5 Y-37.817 E1387.14992
G0 F12000 X-38 Y-37.817
G1 F2400 X-37.999 Y37.818 E1390.29446
G0 F12000 X-37.499 Y37.818
G1 F2400 X-37.5 Y-37.817 E1393.43899
G0 F12000 X-37 Y-37.817
G1 F2400 X-36.999 Y37.818 E1396.58353
G0 F12000 X-36.499 Y37.818
G1 F2400 X-36.5 Y-37.817 E1399.72807
G0 F12000 X-36 Y-37.817
G1 F2400 X-35.999 Y37.818 E1402.87261
G0 F12000 X-35.499 Y37.818
G1 F2400 X-35.5 Y-37.817 E1406.01715
G0 F12000 X-35 Y-37.817
G1 F2400 X-34.999 Y37.818 E1409.16168
G0 F12000 X-34.499 Y37.818
G1 F2400 X-34.5 Y-37.817 E1412.30622
G0 F12000 X-34 Y-37.817
G1 F2400 X-33.999 Y37.818 E1415.45076
G0 F12000 X-33.499 Y37.818
G1 F2400 X-33.5 Y-37.817 E1418.5953
G0 F12000 X-33 Y-37.817
G1 F2400 X-32.999 Y37.818 E1421.73984
G0 F12000 X-32.499 Y37.818
G1 F2400 X-32.5 Y-37.817 E1424.88437
G0 F12000 X-32 Y-37.817
G1 F2400 X-31.999 Y37.818 E1428.02891
G0 F12000 X-31.499 Y37.818
G1 F2400 X-31.5 Y-37.817 E1431.17345
G0 F12000 X-31 Y-37.817
G1 F2400 X-30.999 Y37.818 E1434.31799
G0 F12000 X-30.499 Y37.818
G1 F2400 X-30.5 Y-37.817 E1437.46252
G0 F12000 X-30 Y-37.817
G1 F2400 X-29.999 Y37.818 E1440.60706
G0 F12000 X-29.499 Y37.818
G1 F2400 X-29.5 Y-37.818 E1443.75164
G0 F12000 X-29 Y-37.818
G1 F2400 X-28.999 Y37.818 E1446.89622
G0 F12000 X-28.499 Y37.818
G1 F2400 X-28.5 Y-37.818 E1450.0408
G0 F12000 X-28 Y-37.818
G1 F2400 X-27.999 Y37.818 E1453.18538
G0 F12000 X-27.499 Y37.818
G1 F2400 X-27.5 Y-37.818 E1456.32996
G0 F12000 X-27 Y-37.818
G1 F2400 X-26.999 Y37.818 E1459.47454
G0 F12000 X-26.499 Y37.818
G1 F2400 X-26.5 Y-37.818 E1462.61912
G0 F12000 X-26 Y-37.818
G1 F2400 X-25.999 Y37.818 E1465.7637
G0 F12000 X-25.499 Y37.818
G1 F2400 X-25.5 Y-37.818 E1468.90828
G0 F12000 X-25 Y-37.818
G1 F2400 X-24.999 Y37.818 E1472.05286
G0 F12000 X-24.499 Y37.818
G1 F2400 X-24.5 Y-37.818 E1475.19744
G0 F12000 X-24 Y-37.818
G1 F2400 X-23.999 Y37.818 E1478.34202
G0 F12000 X-23.499 Y37.818
G1 F2400 X-23.5 Y-37.818 E1481.4866
G0 F12000 X-23 Y-37.818
G1 F2400 X-22.999 Y37.818 E1484.63118
G0 F12000 X-22.499 Y37.818
G1 F2400 X-22.5 Y-37.818 E1487.77575
G0 F12000 X-22 Y-37.818
G1 F2400 X-21.999 Y37.818 E1490.92033
G0 F12000 X-21.499 Y37.818
G1 F2400 X-21.5 Y-37.818 E1494.06491
G0 F12000 X-21 Y-37.818
G1 F2400 X-20.999 Y37.818 E1497.20949
G0 F12000 X-20.499 Y37.818
G1 F2400 X-20.5 Y-37.818 E1500.35407
G0 F12000 X-20 Y-37.818
G1 F2400 X-19.999 Y37.818 E1503.49865
G0 F12000 X-19.499 Y37.818
G1 F2400 X-19.5 Y-37.818 E1506.64323
G0 F12000 X-19 Y-37.818
G1 F2400 X-18.999 Y37.818 E1509.78781
G0 F12000 X-18.499 Y37.818
G1 F2400 X-18.5 Y-37.818 E1512.93239
G0 F12000 X-18 Y-37.818
G1 F2400 X-17.999 Y37.818 E1516.07697
G0 F12000 X-17.499 Y37.818
G1 F2400 X-17.5 Y-37.818 E1519.22155
G0 F12000 X-17 Y-37.818
G1 F2400 X-16.999 Y37.818 E1522.36613
G0 F12000 X-16.499 Y37.818
G1 F2400 X-16.5 Y-37.818 E1525.51071
G0 F12000 X-16 Y-37.818
G1 F2400 X-15.999 Y37.818 E1528.65529
G0 F12000 X-15.499 Y37.818
G1 F2400 X-15.5 Y-37.818 E1531.79987
G0 F12000 X-15 Y-37.818
G1 F2400 X-14.999 Y37.818 E1534.94445
G0 F12000 X-14.499 Y37.818
G1 F2400 X-14.5 Y-37.818 E1538.08903
G0 F12000 X-14 Y-37.818
G1 F2400 X-13.999 Y37.818 E1541.23361
G0 F12000 X-13.499 Y37.818
G1 F2400 X-13.5 Y-37.818 E1544.37819
G0 F12000 X-13 Y-37.818
G1 F2400 X-12.999 Y37.818 E1547.52276
G0 F12000 X-12.499 Y37.818
G1 F2400 X-12.5 Y-37.818 E1550.66734
G0 F12000 X-12 Y-37.818
G1 F2400 X-11.999 Y37.818 E1553.81192
G0 F12000 X-11.499 Y37.818
G1 F2400 X-11.5 Y-37.818 E1556.9565
G0 F12000 X-11 Y-37.818
G1 F2400 X-10.999 Y37.818 E1560.10108
G0 F12000 X-10.499 Y37.818
G1 F2400 X-10.5 Y-37.818 E1563.24566
G0 F12000 X-10 Y-37.818
G1 F2400 X-9.999 Y37.818 E1566.39024
G0 F12000 X-9.499 Y37.818
G1 F2400 X-9.5 Y-37.818 E1569.53482
G0 F12000 X-9 Y-37.818
G1 F2400 X-8.999 Y37.818 E1572.6794
G0 F12000 X-8.499 Y37.818
G1 F2400 X-8.5 Y-37.818 E1575.82398
G0 F12000 X-8 Y-37.818
G1 F2400 X-7.999 Y37.818 E1578.96856
G0 F12000 X-7.499 Y37.818
G1 F2400 X-7.5 Y-37.818 E1582.11314
G0 F12000 X-7 Y-37.818
G1 F2400 X-6.999 Y37.818 E1585.25772
G0 F12000 X-6.499 Y37.818
G1 F2400 X-6.5 Y-37.818 E1588.4023
G0 F12000 X-6 Y-37.818
G1 F2400 X-5.999 Y37.818 E1591.54688
G0 F12000 X-5.499 Y37.818
G1 F2400 X-5.5 Y-37.818 E1594.69146
G0 F12000 X-5 Y-37.818
G1 F2400 X-4.999 Y37.818 E1597.83604
G0 F12000 X-4.499 Y37.818
G1 F2400 X-4.5 Y-37.818 E1600.98062
G0 F12000 X-4 Y-37.818
G1 F2400 X-3.999 Y37.818 E1604.12519
G0 F12000 X-3.499 Y37.818
G1 F2400 X-3.5 Y-37.818 E1607.26977
G0 F12000 X-3 Y-37.818
G1 F2400 X-2.999 Y37.818 E1610.41435
G0 F12000 X-2.499 Y37.818
G1 F2400 X-2.5 Y-37.818 E1613.55893
G0 F12000 X-2 Y-37.818
G1 F2400 X-1.999 Y37.818 E1616.70351
G0 F12000 X-1.499 Y37.818
G1 F2400 X-1.5 Y-37.818 E1619.84809
G0 F12000 X-1 Y-37.818
G1 F2400 X-0.999 Y37.818 E1622.99267
G0 F12000 X-0.499 Y37.818
G1 F2400 X-0.5 Y-37.818 E1626.13725
G0 F12000 X0 Y-37.818
G1 F2400 X0 Y37.819 E1629.28187
G0 F12000 X0.5 Y37.819
G1 F2400 X0.499 Y-37.817 E1632.42645
G0 F12000 X0.999 Y-37.817
G1 F2400 X1 Y37.819 E1635.57103
G0 F12000 X1.5 Y37.819
G1 F2400 X1.499 Y-37.817 E1638.71561
G0 F12000 X1.999 Y-37.817
G1 F2400 X2 Y37.819 E1641.86019
G0 F12000 X2.5 Y37.819
G1 F2400 X2.499 Y-37.817 E1645.00477
G0 F12000 X2.999 Y-37.817
G1 F2400 X3 Y37.819 E1648.14935
G0 F12000 X3.5 Y37.819
G1 F2400 X3.499 Y-37.817 E1651.29393
G0 F12000 X3.999 Y-37.817
G1 F2400 X4 Y37.819 E1654.43851
G0 F12000 X4.5 Y37.819
G1 F2400 X4.499 Y-37.817 E1657.58309
G0 F12000 X4.999 Y-37.817
G1 F2400 X5 Y37.819 E1660.72767
G0 F12000 X5.5 Y37.819
G1 F2400 X5.499 Y-37.817 E1663.87225
G0 F12000 X5.999 Y-37.817
G1 F2400 X6 Y37.819 E1667.01683
G0 F12000 X6.5 Y37.819
G1 F2400 X6.499 Y-37.817 E1670.16141
G0 F12000 X6.999 Y-37.817
G1 F2400 X7 Y37.819 E1673.30598
G0 F12000 X7.5 Y37.819
G1 F2400 X7.499 Y-37.817 E1676.45056
G0 F12000 X7.999 Y-37.817
G1 F2400 X8 Y37.819 E1679.59514
G0 F12000 X8.5 Y37.819
G1 F2400 X8.499 Y-37.817 E1682.73972
G0 F12000 X8.999 Y-37.817
G1 F2400 X9 Y37.819 E1685.8843
G0 F12000 X9.5 Y37.819
G1 F2400 X9.499 Y-37.817 E1689.02888
G0 F12000 X9.999 Y-37.817
G1 F2400 X10 Y37.819 E1692.17346
G0 F12000 X10.5 Y37.819
G1 F2400 X10.499 Y-37.817 E1695.31804
G0 F12000 X10.999 Y-37.817
G1 F2400 X11 Y37.819 E1698.46262
G0 F12000 X11.5 Y37.819
G1 F2400 X11.499 Y-37.817 E1701.6072
G0 F12000 X11.999 Y-37.817
G1 F2400 X12 Y37.819 E1704.75178
G0 F12000 X12.5 Y37.819
G1 F2400 X12.499 Y-37.817 E1707.89636
G0 F12000 X12.999 Y-37.817
G1 F2400 X13 Y37.819 E1711.04094
G0 F12000 X13.5 Y37.819
G1 F2400 X13.499 Y-37.817 E1714.18552
G0 F12000 X13.999 Y-37.817
G1 F2400 X14 Y37.819 E1717.3301
G0 F12000 X14.5 Y37.819
G1 F2400 X14.499 Y-37.817 E1720.47468
G0 F12000 X14.999 Y-37.817
G1 F2400 X15 Y37.819 E1723.61926
G0 F12000 X15.5 Y37.819
G1 F2400 X15.499 Y-37.817 E1726.76384
G0 F12000 X15.999 Y-37.817
G1 F2400 X16 Y37.819 E1729.90842
G0 F12000 X16.5 Y37.819
G1 F2400 X16.499 Y-37.817 E1733.05299
G0 F12000 X16.999 Y-37.817
G1 F2400 X17 Y37.819 E1736.19757
G0 F12000 X17.5 Y37.819
G1 F2400 X17.499 Y-37.817 E1739.34215
G0 F12000 X17.999 Y-37.817
G1 F2400 X18 Y37.819 E1742.48673
G0 F12000 X18.5 Y37.819
G1 F2400 X18.499 Y-37.817 E1745.63131
G0 F12000 X18.999 Y-37.817
G1 F2400 X19 Y37.819 E1748.77589
G0 F12000 X19.5 Y37.819
G1 F2400 X19.499 Y-37.817 E1751.92047
G0 F12000 X19.999 Y-37.817
G1 F2400 X20 Y37.819 E1755.06505
G0 F12000 X20.5 Y37.819
G1 F2400 X20.499 Y-37.817 E1758.20963
G0 F12000 X20.999 Y-37.817
G1 F2400 X21 Y37.819 E1761.35421
G0 F12000 X21.5 Y37.819
G1 F2400 X21.499 Y-37.817 E1764.49879
G0 F12000 X21.999 Y-37.817
G1 F2400 X22 Y37.819 E1767.64337
G0 F12000 X22.5 Y37.819
G1 F2400 X22.499 Y-37.817 E1770.78795
G0 F12000 X22.999 Y-37.817
G1 F2400 X23 Y37.819 E1773.93253
G0 F12000 X23.5 Y37.819
G1 F2400 X23.499 Y-37.817 E1777.07711
G0 F12000 X23.999 Y-37.817
G1 F2400 X24 Y37.819 E1780.22169
G0 F12000 X24.5 Y37.819
G1 F2400 X24.499 Y-37.817 E1783.36627
G0 F12000 X24.999 Y-37.817
G1 F2400 X25 Y37.819 E1786.51085
G0 F12000 X25.5 Y37.819
G1 F2400 X25.499 Y-37.817 E1789.65543
G0 F12000 X25.999 Y-37.817
G1 F2400 X26 Y37.819 E1792.8
G0 F12000 X26.5 Y37.819
G1 F2400 X26.499 Y-37.817 E1795.94458
G0 F12000 X26.999 Y-37.817
G1 F2400 X27 Y37.819 E1799.08916
G0 F12000 X27.5 Y37.819
G1 F2400 X27.499 Y-37.817 E1802.23374
G0 F12000 X27.999 Y-37.817
G1 F2400 X28 Y37.819 E1805.37832
G0 F12000 X28.5 Y37.819
G1 F2400 X28.499 Y-37.817 E1808.5229
G0 F12000 X28.999 Y-37.817
G1 F2400 X29 Y37.819 E1811.66748
G0 F12000 X29.5 Y37.819
G1 F2400 X29.499 Y-37.817 E1814.81206
G0 F12000 X29.999 Y-37.817
G1 F2400 X30 Y37.818 E1817.9566
G0 F12000 X30.5 Y37.818
G1 F2400 X30.499 Y-37.817 E1821.10114
G0 F12000 X30.999 Y-37.817
G1 F2400 X31 Y37.818 E1824.24567
G0 F12000 X31.5 Y37.818
G1 F2400 X31.499 Y-37.817 E1827.39021
G0 F12000 X31.999 Y-37.817
G1 F2400 X32 Y37.818 E1830.53475
G0 F12000 X32.5 Y37.818
G1 F2400 X32.499 Y-37.817 E1833.67929
G0 F12000 X32.999 Y-37.817
G1 F2400 X33 Y37.818 E1836.82383
G0 F12000 X33.5 Y37.818
G1 F2400 X33.499 Y-37.817 E1839.96836
G0 F12000 X33.999 Y-37.817
G1 F2400 X34 Y37.818 E1843.1129
G0 F12000 X34.5 Y37.818
G1 F2400 X34.499 Y-37.817 E1846.25744
G0 F12000 X34.999 Y-37.817
G1 F2400 X35 Y37.818 E1849.40198
G0 F12000 X35.5 Y37.818
G1 F2400 X35.499 Y-37.817 E1852.54652
G0 F12000 X35.999 Y-37.817
G1 F2400 X36 Y37.818 E1855.69105
G0 F12000 X36.5 Y37.818
G1 F2400 X36.499 Y-37.817 E1858.83559
G0 F12000 X36.999 Y-37.817
G1 F2400 X37 Y37.818 E1861.98013
G0 F12000 X37.5 Y37.818
G1 F2400 X37.499 Y-37.817 E1865.12467
G0 F12000 X37.999 Y-37.817
G1 F2400 X38 Y37.818 E1868.26921
G0 F12000 X38.5 Y37.818
G1 F2400 X38.499 Y-37.817 E1871.41374
G0 F12000 X38.999 Y-37.817
G1 F2400 X39 Y37.818 E1874.55828
G0 F12000 X39.5 Y37.818
G1 F2400 X39.499 Y-37.817 E1877.70282
G0 F12000 X39.999 Y-37.817
G1 F2400 X40 Y37.818 E1880.84736
G0 F12000 X40.5 Y37.818
G1 F2400 X40.499 Y-37.817 E1883.99189
G0 F12000 X40.999 Y-37.817
G1 F2400 X41 Y37.818 E1887.13643
G0 F12000 X41.5 Y37.818
G1 F2400 X41.499 Y-37.817 E1890.28097
G0 F12000 X41.999 Y-37.817
G1 F2400 X42 Y37.818 E1893.42551
G0 F12000 X42.5 Y37.818
G1 F2400 X42.499 Y-37.817 E1896.57005
G0 F12000 X42.999 Y-37.817
G1 F2400 X43 Y37.818 E1899.71458
G0 F12000 X43.5 Y37.818
G1 F2400 X43.499 Y-37.817 E1902.85912
G0 F12000 X43.999 Y-37.817
G1 F2400 X44 Y37.818 E1906.00366
G0 F12000 X44.5 Y37.818
G1 F2400 X44.499 Y-37.817 E1909.1482
G0 F12000 X44.999 Y-37.817
G1 F2400 X45 Y37.818 E1912.29274
G0 F12000 X45.5 Y37.818
G1 F2400 X45.499 Y-37.817 E1915.43727
G0 F12000 X45.999 Y-37.817
G1 F2400 X46 Y37.818 E1918.58181
G0 F12000 X46.5 Y37.818
G1 F2400 X46.499 Y-37.817 E1921.72635
G0 F12000 X46.999 Y-37.817
G1 F2400 X47 Y37.818 E1924.87089
G0 F12000 X47.5 Y37.818
G1 F2400 X47.499 Y-37.817 E1928.01543
G0 F12000 X47.999 Y-37.817
G1 F2400 X48 Y37.818 E1931.15996
G0 F12000 X48.5 Y37.818
G1 F2400 X48.499 Y-37.817 E1934.3045
G0 F12000 X48.999 Y-37.817
G1 F2400 X49 Y37.818 E1937.44904
G0 F12000 X49.5 Y37.818
G1 F2400 X49.499 Y-37.817 E1940.59358
G0 F12000 X49.999 Y-37.817
G1 F2400 X50 Y37.818 E1943.73811
G0 F12000 X50.5 Y37.818
G1 F2400 X50.499 Y-37.817 E1946.88265
G0 F12000 X50.999 Y-37.817
G1 F2400 X51 Y37.818 E1950.02719
G0 F12000 X51.5 Y37.818
G1 F2400 X51.499 Y-37.817 E1953.17173
G0 F12000 X51.999 Y-37.817
G1 F2400 X52 Y37.818 E1956.31627
G0 F12000 X52.5 Y37.818
G1 F2400 X52.499 Y-37.817 E1959.4608
G0 F12000 X52.999 Y-37.817
G1 F2400 X53 Y37.818 E1962.60534
G0 F12000 X53.5 Y37.818
G1 F2400 X53.499 Y-37.817 E1965.74988
G0 F12000 X53.999 Y-37.817
G1 F2400 X54 Y37.818 E1968.89442
G0 F12000 X54.5 Y37.818
G1 F2400 X54.499 Y-37.817 E1972.03896
G0 F12000 X54.999 Y-37.817
G1 F2400 X55 Y37.818 E1975.18349
G0 F12000 X55.5 Y37.818
G1 F2400 X55.499 Y-37.817 E1978.32803
G0 F12000 X55.999 Y-37.817
G1 F2400 X56 Y37.818 E1981.47257
G0 F12000 X56.5 Y37.818
G1 F2400 X56.499 Y-37.817 E1984.61711
G0 F12000 X56.999 Y-37.817
G1 F2400 X57 Y37.818 E1987.76165
G0 F12000 X57.5 Y37.818
G1 F2400 X57.499 Y-37.817 E1990.90618
G0 F12000 X-58.678 Y-38.892
G0 X-58.678 Y-38.892
G1 F2400 X-58.761 Y-38.882 E1990.90878
G1 X-58.894 Y-38.78 E1990.91148
G1 X-58.915 Y-38.664 E1990.91249
G0 F12000 X-58.009 Y-38
; TYPE:BOTTOM-FILL
G1 F2400 X58.009 Y-38 E1995.73596
G0 F12000 X58.009 Y-37.5
G1 F2400 X-58.009 Y-37.5 E2000.55943
G0 F12000 X-58.009 Y-37
G1 F2400 X-57.319 Y-36.75 E2000.58811
G1 X-58.009 Y-36.25 E2000.61673
G1 X-57.319 Y-35.75 E2000.64536
G1 X-58.009 Y-35.25 E2000.67398
G1 X-57.319 Y-34.75 E2000.70261
G1 X-58.009 Y-34.25 E2000.73123
G1 X-57.319 Y-33.75 E2000.75986
G1 X-58.009 Y-33.25 E2000.78848
G1 X-57.319 Y-32.749 E2000.81712
G1 X-58.009 Y-32.249 E2000.84575
G1 X-57.319 Y-31.749 E2000.87437
G1 X-58.009 Y-31.249 E2000.903
G1 X-57.319 Y-30.749 E2000.93162
G1 X-58.009 Y-30.249 E2000.96025
G1 X-57.319 Y-29.749 E2000.98887
G1 X-58.009 Y-29.249 E2001.0175
G1 X-57.319 Y-28.749 E2001.04612
G1 X-58.009 Y-28.249 E2001.07475
G1 X-57.319 Y-27.749 E2001.10337
G1 X-58.009 Y-27.249 E2001.132
G1 X-57.319 Y-26.749 E2001.16062
G1 X-58.009 Y-26.249 E2001.18925
G1 X-57.319 Y-25.749 E2001.21787
G1 X-58.009 Y-25.249 E2001.2465
G1 X-57.319 Y-24.749 E2001.27512
G1 X-58.009 Y-24.249 E2001.30375
G1 X-57.319 Y-23.749 E2001.33237
G1 X-58.009 Y-23.249 E2001.361
G1 X-57.319 Y-22.749 E2001.38962
G1 X-58.009 Y-22.249 E2001.41825
G1 X-57.319 Y-21.749 E2001.44687
G1 X-58.009 Y-21.249 E2001.4755
G1 X-57.319 Y-20.749 E2001.50412
G1 X-58.009 Y-20.249 E2001.53275
G1 X-57.319 Y-19.749 E2001.56137
G1 X-58.009 Y-19.249 E2001.59
G1 X-57.319 Y-18.749 E2001.61862
G1 X-58.009 Y-18.249 E2001.64725
G1 X-57.319 Y-17.749 E2001.67587
G1 X-58.009 Y-17.249 E2001.7045
G1 X-57.319 Y-16.749 E2001.73312
G1 X-58.009 Y-16.249 E2001.76175
G1 X-57.319 Y-15.749 E2001.79037
G1 X-58.009 Y-15.249 E2001.819
G1 X-57.319 Y-14.749 E2001.84762
G1 X-58.009 Y-14.249 E2001.87625
G1 X-57.319 Y-13.749 E2001.90487
G1 X-58.009 Y-13.249 E2001.93349
G1 X-57.319 Y-12.749 E2001.96212
G1 X-58.009 Y-12.249 E2001.99074
G1 X-57.319 Y-11.749 E2002.01937
G1 X-58.009 Y-11.249 E2002.04799
G1 X-57.319 Y-10.749 E2002.07662
G1 X-58.009 Y-10.249 E2002.10524
G1 X-57.319 Y-9.749 E2002.13387
G1 X-58.009 Y-9.249 E2002.16249
G1 X-57.319 Y-8.749 E2002.19112
G1 X-58.009 Y-8.249 E2002.21974
G1 X-57.319 Y-7.749 E2002.24837
G1 X-58.009 Y-7.249 E2002.27699
G1 X-57.319 Y-6.749 E2002.30562
G1 X-58.009 Y-6.249 E2002.33424
G1 X-57.319 Y-5.749 E2002.36287
G1 X-58.009 Y-5.249 E2002.39149
G1 X-57.319 Y-4.749 E2002.42012
G1 X-58.009 Y-4.249 E2002.44874
G1 X-57.319 Y-3.749 E2002.47737
G1 X-58.009 Y-3.249 E2002.50599
G1 X-57.319 Y-2.749 E2002.53462
G1 X-58.009 Y-2.249 E2002.56324
G1 X-57.319 Y-1.749 E2002.59187
G1 X-58.009 Y-1.249 E2002.62049
G1 X-57.319 Y-0.749 E2002.64912
G1 X-58.009 Y-0.249 E2002.67774
G1 X-57.319 Y0.25 E2002.70642
G1 X-58.009 Y0.75 E2002.73504
G1 X-57.319 Y1.25 E2002.76367
G1 X-58.009 Y1.75 E2002.79229
G1 X-57.319 Y2.25 E2002.82092
G1 X-58.009 Y2.75 E2002.84954
G1 X-57.319 Y3.25 E2002.87817
G1 X-58.009 Y3.75 E2002.90679
G1 X-57.319 Y4.25 E2002.93542
G1 X-58.009 Y4.75 E2002.96404
G1 X-57.319 Y5.25 E2002.99267
G1 X-58.009 Y5.75 E2003.02129
G1 X-57.319 Y6.25 E2003.04992
G1 X-58.009 Y6.75 E2003.07854
G1 X-57.319 Y7.25 E2003.10717
G1 X-58.009 Y7.75 E2003.13579
G1 X-57.319 Y8.25 E2003.16442
G1 X-58.009 Y8.75 E2003.19304
G1 X-57.319 Y9.25 E2003.22167
G1 X-58.009 Y9.75 E2003.25029
G1 X-57.319 Y10.25 E2003.27892
G1 X-58.009 Y10.75 E2003.30754
G1 X-57.319 Y11.25 E2003.33616
G1 X-58.009 Y11.75 E2003.36479
G1 X-57.319 Y12.25 E2003.39341
G1 X-58.009 Y12.75 E2003.42204
G1 X-57.319 Y13.25 E2003.45066
G1 X-58.009 Y13.75 E2003.47929
G1 X-57.319 Y14.25 E2003.50791
G1 X-58.009 Y14.75 E2003.53654
G1 X-57.319 Y15.25 E2003.56516
G1 X-58.009 Y15.75 E2003.59379
G1 X-57.319 Y16.25 E2003.62241
G1 X-58.009 Y16.75 E2003.65104
G1 X-57.319 Y17.25 E2003.67966
G1 X-58.009 Y17.75 E2003.70829
G1 X-57.319 Y18.25 E2003.73691
G1 X-58.009 Y18.75 E2003.76554
G1 X-57.319 Y19.25 E2003.79416
G1 X-58.009 Y19.75 E2003.82279
G1 X-57.319 Y20.25 E2003.85141
G1 X-58.009 Y20.75 E2003.88004
G1 X-57.319 Y21.25 E2003.90866
G1 X-58.009 Y21.75 E2003.93729
G1 X-57.319 Y22.25 E2003.96591
G1 X-58.009 Y22.75 E2003.99454
G1 X-57.319 Y23.25 E2004.02316
G1 X-58.009 Y23.75 E2004.05179
G1 X-57.319 Y24.25 E2004.08041
G1 X-58.009 Y24.75 E2004.10904
G1 X-57.319 Y25.25 E2004.13766
G1 X-58.009 Y25.75 E2004.16629
G1 X-57.319 Y26.25 E2004.19491
G1 X-58.009 Y26.75 E2004.22354
G1 X-57.319 Y27.25 E2004.25216
G1 X-58.009 Y27.75 E2004.28079
G1 X-57.319 Y28.25 E2004.30941
G1 X-58.009 Y28.75 E2004.33804
G1 X-57.319 Y29.25 E2004.36666
G1 X-58.009 Y29.75 E2004.39529
G1 X-57.319 Y30.25 E2004.42391
G1 X-58.009 Y30.75 E2004.45254
G1 X-57.319 Y31.25 E2004.48116
G1 X-58.009 Y31.75 E2004.50978
G1 X-57.319 Y32.25 E2004.53841
G1 X-58.009 Y32.75 E2004.56703
G1 X-57.319 Y33.25 E2004.59566
G1 X-58.009 Y33.75 E2004.62428
G1 X-57.319 Y34.25 E2004.65291
G1 X-58.009 Y34.75 E2004.68153
G1 X-57.319 Y35.25 E2004.71016
G1 X-58.009 Y35.75 E2004.73878
G1 X-57.319 Y36.25 E2004.76741
G1 X-58.009 Y36.75 E2004.79603
G1 X-57.319 Y37 E2004.82655
G0 F12000 X-58.009 Y37.5
G1 F2400 X58.009 Y37.5 E2009.65001
G0 F12000 X58.009 Y37
G1 F2400 X57.319 Y36.75 E2009.67869
G1 X58.009 Y36.25 E2009.70732
G1 X57.319 Y35.75 E2009.73594
G1 X58.009 Y35.25 E2009.76457
G1 X57.319 Y34.75 E2009.79319
G1 X58.009 Y34.25 E2009.82182
G1 X57.319 Y33.75 E2009.85044
G1 X58.009 Y33.25 E2009.87907
G1 X57.319 Y32.749 E2009.90771
G1 X58.009 Y32.249 E2009.93634
G1 X57.319 Y31.749 E2009.96496
G1 X58.009 Y31.249 E2009.99359
G1 X57.319 Y30.749 E2010.02221
G1 X58.009 Y30.249 E2010.05084
G1 X57.319 Y29.749 E2010.07946
G1 X58.009 Y29.249 E2010.10809
G1 X57.319 Y28.749 E2010.13671
G1 X58.009 Y28.249 E2010.16534
G1 X57.319 Y27.749 E2010.19396
G1 X58.009 Y27.249 E2010.22259
G1 X57.319 Y26.749 E2010.25121
G1 X58.009 Y26.249 E2010.27984
G1 X57.319 Y25.749 E2010.30846
G1 X58.009 Y25.249 E2010.33709
G1 X57.319 Y24.749 E2010.36571
G1 X58.009 Y24.249 E2010.39434
G1 X57.319 Y23.749 E2010.42296
G1 X58.009 Y23.249 E2010.45159
G1 X57.319 Y22.749 E2010.48021
G1 X58.009 Y22.249 E2010.50884
G1 X57.319 Y21.749 E2010.53746
G1 X58.009 Y21.249 E2010.56609
G1 X57.319 Y20.749 E2010.59471
G1 X58.009 Y20.249 E2010.62333
G1 X57.319 Y19.749 E2010.65196
G1 X58.009 Y19.249 E2010.68058
G1 X57.319 Y18.749 E2010.70921
G1 X58.009 Y18.249 E2010.73783
G1 X57.319 Y17.749 E2010.76646
G1 X58.009 Y17.249 E2010.79508
G1 X57.319 Y16.749 E2010.82371
G1 X58.009 Y16.249 E2010.85233
G1 X57.319 Y15.749 E2010.88096
G1 X58.009 Y15.249 E2010.90958
G1 X57.319 Y14.749 E2010.93821
G1 X58.009 Y14.249 E2010.96683
G1 X57.319 Y13.749 E2010.99546
G1 X58.009 Y13.249 E2011.02408
G1 X57.319 Y12.749 E2011.05271
G1 X58.009 Y12.249 E2011.08133
G1 X57.319 Y11.749 E2011.10996
G1 X58.009 Y11.249 E2011.13858
G1 X57.319 Y10.749 E2011.16721
G1 X58.009 Y10.249 E2011.19583
G1 X57.319 Y9.749 E2011.22446
G1 X58.009 Y9.249 E2011.25308
G1 X57.319 Y8.749 E2011.28171
G1 X58.009 Y8.249 E2011.31033
G1 X57.319 Y7.749 E2011.33896
G1 X58.009 Y7.249 E2011.36758
G1 X57.319 Y6.749 E2011.39621
G1 X58.009 Y6.249 E2011.42483
G1 X57.319 Y5.749 E2011.45346
G1 X58.009 Y5.249 E2011.48208
G1 X57.319 Y4.749 E2011.51071
G1 X58.009 Y4.249 E2011.53933
G1 X57.319 Y3.749 E2011.56796
G1 X58.009 Y3.249 E2011.59658
G1 X57.319 Y2.749 E2011.62521
G1 X58.009 Y2.249 E2011.65383
G1 X57.319 Y1.749 E2011.68246
G1 X58.009 Y1.249 E2011.71108
G1 X57.319 Y0.749 E2011.73971
G1 X58.009 Y0.249 E2011.76833
G1 X57.319 Y-0.25 E2011.79701
G1 X58.009 Y-0.75 E2011.82563
G1 X57.319 Y-1.25 E2011.85426
G1 X58.009 Y-1.75 E2011.88288
G1 X57.319 Y-2.25 E2011.91151
G1 X58.009 Y-2.75 E2011.94013
G1 X57.319 Y-3.25 E2011.96876
G1 X58.009 Y-3.75 E2011.99738
G1 X57.319 Y-4.25 E2012.026
G1 X58.009 Y-4.75 E2012.05463
G1 X57.319 Y-5.25 E2012.08325
G1 X58.009 Y-5.75 E2012.11188
G1 X57.319 Y-6.25 E2012.1405
G1 X58.009 Y-6.75 E2012.16913
G1 X57.319 Y-7.25 E2012.19775
G1 X58.009 Y-7.75 E2012.22638
G1 X57.319 Y-8.25 E2012.255
G1 X58.009 Y-8.75 E2012.28363
G1 X57.319 Y-9.25 E2012.31225
G1 X58.009 Y-9.75 E2012.34088
G1 X57.319 Y-10.25 E2012.3695
G1 X58.009 Y-10.75 E2012.39813
G1 X57.319 Y-11.25 E2012.42675
G1 X58.009 Y-11.75 E2012.45538
G1 X57.319 Y-12.25 E2012.484
G1 X58.009 Y-12.75 E2012.51263
G1 X57.319 Y-13.25 E2012.54125
G1 X58.009 Y-13.75 E2012.56988
G1 X57.319 Y-14.25 E2012.5985
G1 X58.009 Y-14.75 E2012.62713
G1 X57.319 Y-15.25 E2012.65575
G1 X58.009 Y-15.75 E2012.68438
G1 X57.319 Y-16.25 E2012.713
G1 X58.009 Y-16.75 E2012.74163
G1 X57.319 Y-17.25 E2012.77025
G1 X58.009 Y-17.75 E2012.79888
G1 X57.319 Y-18.25 E2012.8275
G1 X58.009 Y-18.75 E2012.85613
G1 X57.319 Y-19.25 E2012.88475
G1 X58.009 Y-19.75 E2012.91338
G1 X57.319 Y-20.25 E2012.942
G1 X58.009 Y-20.75 E2012.97063
G1 X57.319 Y-21.25 E2012.99925
G1 X58.009 Y-21.75 E2013.02788
G1 X57.319 Y-22.25 E2013.0565
G1 X58.009 Y-22.75 E2013.08513
G1 X57.319 Y-23.25 E2013.11375
G1 X58.009 Y-23.75 E2013.14237
G1 X57.319 Y-24.25 E2013.171
G1 X58.009 Y-24.75 E2013.19962
G1 X57.319 Y-25.25 E2013.22825
G1 X58.009 Y-25.75 E2013.25687
G1 X57.319 Y-26.25 E2013.2855
G1 X58.009 Y-26.75 E2013.31412
G1 X57.319 Y-27.25 E2013.34275
G1 X58.009 Y-27.75 E2013.37137
G1 X57.319 Y-28.25 E2013.4
G1 X58.009 Y-28.75 E2013.42862
G1 X57.319 Y-29.25 E2013.45725
G1 X58.009 Y-29.75 E2013.48587
G1 X57.319 Y-30.25 E2013.5145
G1 X58.009 Y-30.75 E2013.54312
G1 X57.319 Y-31.25 E2013.57175
G1 X58.009 Y-31.75 E2013.60037
G1 X57.319 Y-32.25 E2013.629
G1 X58.009 Y-32.75 E2013.65762
G1 X57.319 Y-33.25 E2013.68625
G1 X58.009 Y-33.75 E2013.71487
G1 X57.319 Y-34.25 E2013.7435
G1 X58.009 Y-34.75 E2013.77212
G1 X57.319 Y-35.25 E2013.80075
G1 X58.009 Y-35.75 E2013.82937
G1 X57.319 Y-36.25 E2013.858
G1 X58.009 Y-36.75 E2013.88662
G1 X57.319 Y-37 E2013.91713
G0 F12000 X58.009 Y38
G0 X58.009 Y38
G1 F2400 X-58.009 Y38 E2018.7406
G0 F12000 X-58.009 Y38 Z0.75
; Layer Change GCode
; LAYER:2
G0 X-58.471 Y39.084 Z0.7
G0 X-58.471 Y39.084
G0 X-58.485 Y39.434
G0 X-58.485 Y39.434
G0 X-58.428 Y38.434
; TYPE:WALL-INNER
G1 F2400 X-58.428 Y38.434 E2018.7406
G1 X-58.428 Y-38.434 E2021.9364
G1 X58.428 Y-38.434 E2026.79471
G1 X58.428 Y38.434 E2029.99051
G1 X-58.428 Y38.434 E2034.84882
G0 F12000 X-58.466 Y38.934
G1 F2400 X-58.466 Y38.934 E2034.84882
G1 X-58.585 Y38.922 E2034.85379
G1 X-58.691 Y38.888 E2034.85842
G1 X-58.839 Y38.767 E2034.86637
G1 X-58.899 Y38.65 E2034.87183
G1 X-58.934 Y38.439 E2034.88072
G1 X-58.934 Y-38.438 E2038.0769
G1 X-58.899 Y-38.649 E2038.08579
G1 X-58.841 Y-38.761 E2038.09103
G1 X-58.667 Y-38.899 E2038.10027
G1 X-58.466 Y-38.934 E2038.10875
G1 X58.466 Y-38.934 E2042.97022
G1 X58.585 Y-38.922 E2042.97519
G1 X58.69 Y-38.888 E2042.97978
G1 X58.838 Y-38.767 E2042.98773
G1 X58.899 Y-38.649 E2042.99325
G1 X58.934 Y-38.438 E2043.00214
G1 X58.934 Y38.439 E2046.19832
G1 X58.899 Y38.65 E2046.20721
G1 X58.842 Y38.76 E2046.21236
G1 X58.667 Y38.899 E2046.22165
G1 X58.466 Y38.934 E2046.23013
G1 X-58.466 Y38.934 E2051.0916
G0 F12000 X-58.485 Y39.434
; TYPE:WALL-OUTER
G1 F1800 X-58.485 Y39.434 E2051.0916
G1 X-58.692 Y39.413 E2051.10025
G1 X-58.933 Y39.337 E2051.11076
G1 X-59.235 Y39.089 E2051.127
G1 X-59.379 Y38.809 E2051.14009
G1 X-59.434 Y38.477 E2051.15408
G1 X-59.434 Y-38.476 E2054.35342
G1 X-59.379 Y-38.809 E2054.36745
G1 X-59.236 Y-39.087 E2054.38045
G1 X-58.903 Y-39.35 E2054.39809
G1 X-58.691 Y-39.414 E2054.4073
G1 X-58.485 Y-39.434 E2054.4159
G1 X58.485 Y-39.434 E2059.27895
G1 X58.692 Y-39.413 E2059.2876
G1 X58.933 Y-39.337 E2059.29811
G1 X59.235 Y-39.088 E2059.31438
G1 X59.379 Y-38.809 E2059.32743
G1 X59.434 Y-38.476 E2059.34146
G1 X59.434 Y38.477 E2062.5408
G1 X59.379 Y38.809 E2062.55479
G1 X59.236 Y39.088 E2062.56782
G1 X58.903 Y39.35 E2062.58544
G1 X58.691 Y39.414 E2062.59465
G1 X58.485 Y39.434 E2062.60325
G1 X-58.485 Y39.434 E2067.4663
G0 F12000 X-58.588 Y38.641
; TYPE:FILL
G1 F2400 X-58.584 Y38.623 E2067.46783
G1 X-58.61 Y38.545 E2067.46871
G0 F12000 X-58.178 Y38
G1 F2400 X58.178 Y38 E2072.30623
G0 F12000 X58.178 Y37.5
G1 F2400 X-58.178 Y37.5 E2077.14375
G0 F12000 X-58.178 Y37
G1 F2400 X58.178 Y37 E2081.98127
G0 F12000 X58.178 Y36.5
G1 F2400 X-58.178 Y36.5 E2086.81879
G0 F12000 X-58.178 Y36
G1 F2400 X58.178 Y36 E2091.65631
G0 F12000 X58.178 Y35.5
G1 F2400 X-58.178 Y35.5 E2096.49383
G0 F12000 X-58.178 Y35
G1 F2400 X58.178 Y35 E2101.33135
G0 F12000 X58.178 Y34.5
G1 F2400 X-58.178 Y34.5 E2106.16887
G0 F12000 X-58.178 Y34
G1 F2400 X58.178 Y34 E2111.00639
G0 F12000 X58.178 Y33.5
G1 F2400 X-58.178 Y33.5 E2115.84391
G0 F12000 X-58.178 Y33
G1 F2400 X58.178 Y33 E2120.68143
G0 F12000 X58.178 Y32.499
G1 F2400 X-58.178 Y32.5 E2125.51895
G0 F12000 X-58.178 Y32
G1 F2400 X58.178 Y31.999 E2130.35647
G0 F12000 X58.178 Y31.499
G1 F2400 X-58.178 Y31.5 E2135.19399
G0 F12000 X-58.178 Y31
G1 F2400 X58.178 Y30.999 E2140.03151
G0 F12000 X58.178 Y30.499
G1 F2400 X-58.178 Y30.5 E2144.86903
G0 F12000 X-58.178 Y30
G1 F2400 X58.178 Y29.999 E2149.70655
G0 F12000 X58.178 Y29.499
G1 F2400 X-58.178 Y29.5 E2154.54407
G0 F12000 X-58.178 Y29
G1 F2400 X58.178 Y28.999 E2159.38159
G0 F12000 X58.178 Y28.499
G1 F2400 X-58.178 Y28.5 E2164.21911
G0 F12000 X-58.178 Y28
G1 F2400 X58.178 Y27.999 E2169.05663
G0 F12000 X58.178 Y27.499
G1 F2400 X-58.178 Y27.5 E2173.89415
G0 F12000 X-58.178 Y27
G1 F2400 X58.178 Y26.999 E2178.73167
G0 F12000 X58.178 Y26.499
G1 F2400 X-58.178 Y26.5 E2183.56919
G0 F12000 X-58.178 Y26
G1 F2400 X58.178 Y25.999 E2188.40672
G0 F12000 X58.178 Y25.499
G1 F2400 X-58.178 Y25.5 E2193.24424
G0 F12000 X-58.178 Y25
G1 F2400 X58.178 Y24.999 E2198.08176
G0 F12000 X58.178 Y24.499
G1 F2400 X-58.178 Y24.5 E2202.91928
G0 F12000 X-58.178 Y24
G1 F2400 X58.178 Y23.999 E2207.7568
G0 F12000 X58.178 Y23.499
G1 F2400 X-58.178 Y23.5 E2212.59432
G0 F12000 X-58.178 Y23
G1 F2400 X58.178 Y22.999 E2217.43184
G0 F12000 X58.178 Y22.499
G1 F2400 X-58.178 Y22.5 E2222.26936
G0 F12000 X-58.178 Y22
G1 F2400 X58.178 Y21.999 E2227.10688
G0 F12000 X58.178 Y21.499
G1 F2400 X-58.178 Y21.5 E2231.9444
G0 F12000 X-58.178 Y21
G1 F2400 X58.178 Y20.999 E2236.78192
G0 F12000 X58.178 Y20.499
G1 F2400 X-58.178 Y20.5 E2241.61944
G0 F12000 X-58.178 Y20
G1 F2400 X58.178 Y19.999 E2246.45696
G0 F12000 X58.178 Y19.499
G1 F2400 X-58.178 Y19.5 E2251.29448
G0 F12000 X-58.178 Y19
G1 F2400 X58.178 Y18.999 E2256.132
G0 F12000 X58.178 Y18.499
G1 F2400 X-58.178 Y18.5 E2260.96952
G0 F12000 X-58.178 Y18
G1 F2400 X58.178 Y17.999 E2265.80704
G0 F12000 X58.178 Y17.499
G1 F2400 X-58.178 Y17.5 E2270.64456
G0 F12000 X-58.178 Y17
G1 F2400 X58.178 Y16.999 E2275.48208
G0 F12000 X58.178 Y16.499
G1 F2400 X-58.178 Y16.5 E2280.3196
G0 F12000 X-58.178 Y16
G1 F2400 X58.178 Y15.999 E2285.15712
G0 F12000 X58.178 Y15.499
G1 F2400 X-58.178 Y15.5 E2289.99464
G0 F12000 X-58.178 Y15
G1 F2400 X58.178 Y14.999 E2294.83216
G0 F12000 X58.178 Y14.499
G1 F2400 X-58.178 Y14.5 E2299.66968
G0 F12000 X-58.178 Y14
G1 F2400 X58.178 Y13.999 E2304.5072
G0 F12000 X58.178 Y13.499
G1 F2400 X-58.178 Y13.5 E2309.34472
G0 F12000 X-58.178 Y13
G1 F2400 X58.178 Y12.999 E2314.18224
G0 F12000 X58.178 Y12.499
G1 F2400 X-58.178 Y12.5 E2319.01976
G0 F12000 X-58.178 Y12
G1 F2400 X58.178 Y11.999 E2323.85728
G0 F12000 X58.178 Y11.499
G1 F2400 X-58.178 Y11.5 E2328.6948
G0 F12000 X-58.178 Y11
G1 F2400 X58.178 Y10.999 E2333.53233
G0 F12000 X58.178 Y10.499
G1 F2400 X-58.178 Y10.5 E2338.36985
G0 F12000 X-58.178 Y10
G1 F2400 X58.178 Y9.999 E2343.20737
G0 F12000 X58.178 Y9.499
G1 F2400 X-58.178 Y9.5 E2348.04489
G0 F12000 X-58.178 Y9
G1 F2400 X58.178 Y8.999 E2352.88241
G0 F12000 X58.178 Y8.499
G1 F2400 X-58.178 Y8.5 E2357.71993
G0 F12000 X-58.178 Y8
G1 F2400 X58.178 Y7.999 E2362.55745
G0 F12000 X58.178 Y7.499
G1 F2400 X-58.178 Y7.5 E2367.39497
G0 F12000 X-58.178 Y7
G1 F2400 X58.178 Y6.999 E2372.23249
G0 F12000 X58.178 Y6.499
G1 F2400 X-58.178 Y6.5 E2377.07001
G0 F12000 X-58.178 Y6
G1 F2400 X58.178 Y5.999 E2381.90753
G0 F12000 X58.178 Y5.499
G1 F2400 X-58.178 Y5.5 E2386.74505
G0 F12000 X-58.178 Y5
G1 F2400 X58.178 Y4.999 E2391.58257
G0 F12000 X58.178 Y4.499
G1 F2400 X-58.178 Y4.5 E2396.42009
G0 F12000 X-58.178 Y4
G1 F2400 X58.178 Y3.999 E2401.25761
G0 F12000 X58.178 Y3.499
G1 F2400 X-58.178 Y3.5 E2406.09513
G0 F12000 X-58.178 Y3
G1 F2400 X58.178 Y2.999 E2410.93265
G0 F12000 X58.178 Y2.499
G1 F2400 X-58.178 Y2.5 E2415.77017
G0 F12000 X-58.178 Y2
G1 F2400 X58.178 Y1.999 E2420.60769
G0 F12000 X58.178 Y1.499
G1 F2400 X-58.178 Y1.5 E2425.44521
G0 F12000 X-58.178 Y1
G1 F2400 X58.178 Y0.999 E2430.28273
G0 F12000 X58.178 Y0.499
G1 F2400 X-58.178 Y0.5 E2435.12025
G0 F12000 X-58.178 Y0
G1 F2400 X58.178 Y0 E2439.95777
G0 F12000 X58.178 Y-0.5
G1 F2400 X-58.178 Y-0.499 E2444.79529
G0 F12000 X-58.178 Y-0.999
G1 F2400 X58.178 Y-1 E2449.63281
G0 F12000 X58.178 Y-1.5
G1 F2400 X-58.178 Y-1.499 E2454.47033
G0 F12000 X-58.178 Y-1.999
G1 F2400 X58.178 Y-2 E2459.30785
G0 F12000 X58.178 Y-2.5
G1 F2400 X-58.178 Y-2.499 E2464.14537
G0 F12000 X-58.178 Y-2.999
G1 F2400 X58.178 Y-3 E2468.98289
G0 F12000 X58.178 Y-3.5
G1 F2400 X-58.178 Y-3.499 E2473.82042
G0 F12000 X-58.178 Y-3.999
G1 F2400 X58.178 Y-4 E2478.65794
G0 F12000 X58.178 Y-4.5
G1 F2400 X-58.178 Y-4.499 E2483.49546
G0 F12000 X-58.178 Y-4.999
G1 F2400 X58.178 Y-5 E2488.33298
G0 F12000 X58.178 Y-5.5
G1 F2400 X-58.178 Y-5.499 E2493.1705
G0 F12000 X-58.178 Y-5.999
G1 F2400 X58.178 Y-6 E2498.00802
G0 F12000 X58.178 Y-6.5
G1 F2400 X-58.178 Y-6.499 E2502.84554
G0 F12000 X-58.178 Y-6.999
G1 F2400 X58.178 Y-7 E2507.68306
G0 F12000 X58.178 Y-7.5
G1 F2400 X-58.178 Y-7.499 E2512.52058
G0 F12000 X-58.178 Y-7.999
G1 F2400 X58.178 Y-8 E2517.3581
G0 F12000 X58.178 Y-8.5
G1 F2400 X-58.178 Y-8.499 E2522.19562
G0 F12000 X-58.178 Y-8.999
G1 F2400 X58.178 Y-9 E2527.03314
G0 F12000 X58.178 Y-9.5
G1 F2400 X-58.178 Y-9.499 E2531.87066
G0 F12000 X-58.178 Y-9.999
G1 F2400 X58.178 Y-10 E2536.70818
G0 F12000 X58.178 Y-10.5
G1 F2400 X-58.178 Y-10.499 E2541.5457
G0 F12000 X-58.178 Y-10.999
G1 F2400 X58.178 Y-11 E2546.38322
G0 F12000 X58.178 Y-11.5
G1 F2400 X-58.178 Y-11.499 E2551.22074
G0 F12000 X-58.178 Y-11.999
G1 F2400 X58.178 Y-12 E2556.05826
G0 F12000 X58.178 Y-12.5
G1 F2400 X-58.178 Y-12.499 E2560.89578
G0 F12000 X-58.178 Y-12.999
G1 F2400 X58.178 Y-13 E2565.7333
G0 F12000 X58.178 Y-13.5
G1 F2400 X-58.178 Y-13.499 E2570.57082
G0 F12000 X-58.178 Y-13.999
G1 F2400 X58.178 Y-14 E2575.40834
G0 F12000 X58.178 Y-14.5
G1 F2400 X-58.178 Y-14.499 E2580.24586
G0 F12000 X-58.178 Y-14.999
G1 F2400 X58.178 Y-15 E2585.08338
G0 F12000 X58.178 Y-15.5
G1 F2400 X-58.178 Y-15.499 E2589.9209
G0 F12000 X-58.178 Y-15.999
G1 F2400 X58.178 Y-16 E2594.75842
G0 F12000 X58.178 Y-16.5
G1 F2400 X-58.178 Y-16.499 E2599.59594
G0 F12000 X-58.178 Y-16.999
G1 F2400 X58.178 Y-17 E2604.43346
G0 F12000 X58.178 Y-17.5
G1 F2400 X-58.178 Y-17.499 E2609.27098
G0 F12000 X-58.178 Y-17.999
G1 F2400 X58.178 Y-18 E2614.10851
G0 F12000 X58.178 Y-18.5
G1 F2400 X-58.178 Y-18.499 E2618.94603
G0 F12000 X-58.178 Y-18.999
G1 F2400 X58.178 Y-19 E2623.78355
G0 F12000 X58.178 Y-19.5
G1 F2400 X-58.178 Y-19.499 E2628.62107
G0 F12000 X-58.178 Y-19.999
G1 F2400 X58.178 Y-20 E2633.45859
G0 F12000 X58.178 Y-20.5
G1 F2400 X-58.178 Y-20.499 E2638.29611
G0 F12000 X-58.178 Y-20.999
G1 F2400 X58.178 Y-21 E2643.13363
G0 F12000 X58.178 Y-21.5
G1 F2400 X-58.178 Y-21.499 E2647.97115
G0 F12000 X-58.178 Y-21.999
G1 F2400 X58.178 Y-22 E2652.80867
G0 F12000 X58.178 Y-22.5
G1 F2400 X-58.178 Y-22.499 E2657.64619
G0 F12000 X-58.178 Y-22.999
G1 F2400 X58.178 Y-23 E2662.48371
G0 F12000 X58.178 Y-23.5
G1 F2400 X-58.178 Y-23.499 E2667.32123
G0 F12000 X-58.178 Y-23.999
G1 F2400 X58.178 Y-24 E2672.15875
G0 F12000 X58.178 Y-24.5
G1 F2400 X-58.178 Y-24.499 E2676.99627
G0 F12000 X-58.178 Y-24.999
G1 F2400 X58.178 Y-25 E2681.83379
G0 F12000 X58.178 Y-25.5
G1 F2400 X-58.178 Y-25.499 E2686.67131
G0 F12000 X-58.178 Y-25.999
G1 F2400 X58.178 Y-26 E2691.50883
G0 F12000 X58.178 Y-26.5
G1 F2400 X-58.178 Y-26.499 E2696.34635
G0 F12000 X-58.178 Y-26.999
G1 F2400 X58.178 Y-27 E2701.18387
G0 F12000 X58.178 Y-27.5
G1 F2400 X-58.178 Y-27.499 E2706.02139
G0 F12000 X-58.178 Y-27.999
G1 F2400 X58.178 Y-28 E2710.85891
G0 F12000 X58.178 Y-28.5
G1 F2400 X-58.178 Y-28.499 E2715.69643
G0 F12000 X-58.178 Y-28.999
G1 F2400 X58.178 Y-29 E2720.53395
G0 F12000 X58.178 Y-29.5
G1 F2400 X-58.178 Y-29.499 E2725.37147
G0 F12000 X-58.178 Y-29.999
G1 F2400 X58.178 Y-30 E2730.20899
G0 F12000 X58.178 Y-30.5
G1 F2400 X-58.178 Y-30.499 E2735.04651
G0 F12000 X-58.178 Y-30.999
G1 F2400 X58.178 Y-31 E2739.88403
G0 F12000 X58.178 Y-31.5
G1 F2400 X-58.178 Y-31.499 E2744.72155
G0 F12000 X-58.178 Y-31.999
G1 F2400 X58.178 Y-32 E2749.55907
G0 F12000 X58.178 Y-32.5
G1 F2400 X-58.178 Y-32.499 E2754.3966
G0 F12000 X-58.178 Y-33
G1 F2400 X58.178 Y-33 E2759.23412
G0 F12000 X58.178 Y-33.5
G1 F2400 X-58.178 Y-33.5 E2764.07164
G0 F12000 X-58.178 Y-34
G1 F2400 X58.178 Y-34 E2768.90916
G0 F12000 X58.178 Y-34.5
G1 F2400 X-58.178 Y-34.5 E2773.74668
G0 F12000 X-58.178 Y-35
G1 F2400 X58.178 Y-35 E2778.5842
G0 F12000 X58.178 Y-35.5
G1 F2400 X-58.178 Y-35.5 E2783.42172
G0 F12000 X-58.178 Y-36
G1 F2400 X58.178 Y-36 E2788.25924
G0 F12000 X58.178 Y-36.5
G1 F2400 X-58.178 Y-36.5 E2793.09676
G0 F12000 X-58.178 Y-37
G1 F2400 X58.178 Y-37 E2797.93428
G0 F12000 X58.178 Y-37.5
G1 F2400 X-58.178 Y-37.5 E2802.7718
G0 F12000 X-58.178 Y-38
G1 F2400 X58.178 Y-38 E2807.60932
G0 F12000 X58.567 Y-38.55
G1 F2400 X58.606 Y-38.619 E2807.61257
G1 X58.582 Y-38.585 E2807.61561
G1 X58.588 Y-38.641 E2807.61618
G0 F12000 X58.615 Y38.545
G0 X58.615 Y38.545
G1 F2400 X58.602 Y38.623 E2807.61942
G1 X58.596 Y38.636 E2807.61957
G0 F12000 X-58.567 Y-38.55
G0 X-58.567 Y-38.55
G1 F2400 X-58.599 Y-38.628 E2807.62286
G1 X-58.555 Y-38.626 E2807.62331
G0 F12000 X-58.555 Y-38.626 Z0.95
; Layer Change GCode
; LAYER:3
G4 P0
M106 S153
G0 X-58.484 Y39.119 Z0.9
G0 X-58.484 Y39.519
G0 X-58.485 Y39.22
G0 X-58.485 Y39.22
G0 X-58.491 Y39.57
G0 X-58.491 Y39.57
G0 X-58.483 Y38.567
; TYPE:WALL-INNER
G1 F2400 X-58.483 Y38.567 E2807.62331
G1 X-58.555 Y38.515 E2807.627
G1 X-58.57 Y38.411 E2807.63137
G1 X-58.57 Y-38.411 E2810.82526
G1 X-58.555 Y-38.515 E2810.82962
G1 X-58.496 Y-38.56 E2810.83271
G1 X58.445 Y-38.57 E2815.69455
G1 X58.533 Y-38.542 E2815.69839
G1 X58.552 Y-38.522 E2815.69954
G1 X58.57 Y-38.411 E2815.70421
G1 X58.57 Y38.411 E2818.8981
G1 X58.55 Y38.526 E2818.90295
G1 X58.515 Y38.556 E2818.90487
G1 X-58.483 Y38.567 E2823.76908
G0 F12000 X-58.474 Y39.07
G1 F2400 X-58.474 Y39.07 E2823.76908
G1 X-58.628 Y39.054 E2823.77552
G1 X-58.835 Y38.949 E2823.78517
G1 X-58.965 Y38.814 E2823.79296
G1 X-59.039 Y38.663 E2823.79995
G1 X-59.07 Y38.448 E2823.80898
G1 X-59.07 Y-38.448 E2827.00595
G1 X-59.039 Y-38.665 E2827.01506
G1 X-58.967 Y-38.811 E2827.02183
G1 X-58.835 Y-38.948 E2827.02974
G1 X-58.594 Y-39.06 E2827.04079
G1 X58.474 Y-39.07 E2831.90791
G1 X58.628 Y-39.054 E2831.91435
G1 X58.835 Y-38.949 E2831.92399
G1 X58.966 Y-38.812 E2831.93188
G1 X59.039 Y-38.665 E2831.9387
G1 X59.07 Y-38.448 E2831.94781
G1 X59.07 Y38.448 E2835.14478
G1 X59.039 Y38.663 E2835.15381
G1 X58.965 Y38.814 E2835.1608
G1 X58.83 Y38.955 E2835.16891
G1 X58.651 Y39.046 E2835.17726
G1 X58.594 Y39.06 E2835.1797
G1 X-58.474 Y39.07 E2840.04683
G0 F12000 X-58.491 Y39.57
; TYPE:WALL-OUTER
G1 F1800 X-58.491 Y39.57 E2840.04683
G1 X-58.707 Y39.552 E2840.05584
G1 X-58.812 Y39.522 E2840.06038
G1 X-59.139 Y39.356 E2840.07562
G1 X-59.378 Y39.107 E2840.08997
G1 X-59.523 Y38.811 E2840.10368
G1 X-59.57 Y38.485 E2840.11737
G1 X-59.57 Y-38.484 E2843.31737
G1 X-59.523 Y-38.814 E2843.33123
G1 X-59.38 Y-39.104 E2843.34467
G1 X-59.138 Y-39.356 E2843.3592
G1 X-58.814 Y-39.52 E2843.37429
G1 X-58.658 Y-39.56 E2843.38099
G1 X58.491 Y-39.57 E2848.25148
G1 X58.707 Y-39.552 E2848.26049
G1 X58.812 Y-39.522 E2848.26503
G1 X59.137 Y-39.357 E2848.28018
G1 X59.381 Y-39.102 E2848.29486
G1 X59.523 Y-38.814 E2848.30821
G1 X59.57 Y-38.484 E2848.32206
G1 X59.57 Y38.485 E2851.52206
G1 X59.523 Y38.811 E2851.53576
G1 X59.378 Y39.107 E2851.54946
G1 X59.138 Y39.357 E2851.56387
G1 X58.817 Y39.52 E2851.57884
G1 X58.658 Y39.56 E2851.58565
G1 X-58.491 Y39.57 E2856.45614
G0 F12000 X-58.619 Y38.778
; TYPE:FILL
G1 F2400 X-58.64 Y38.723 E2856.45766
G1 X-58.722 Y38.706 E2856.4584
G0 F12000 X-57.999 Y38.316
G1 F2400 X-58 Y-38.309 E2859.6441
G0 F12000 X-57.5 Y-38.309
G1 F2400 X-57.499 Y38.316 E2862.82979
G0 F12000 X-56.999 Y38.316
G1 F2400 X-57 Y-38.309 E2866.01549
G0 F12000 X-56.5 Y-38.309
G1 F2400 X-56.499 Y38.316 E2869.20119
G0 F12000 X-55.999 Y38.316
G1 F2400 X-56 Y-38.309 E2872.38689
G0 F12000 X-55.5 Y-38.309
G1 F2400 X-55.499 Y38.316 E2875.57258
G0 F12000 X-54.999 Y38.316
G1 F2400 X-55 Y-38.309 E2878.75828
G0 F12000 X-54.5 Y-38.309
G1 F2400 X-54.499 Y38.316 E2881.94398
G0 F12000 X-53.999 Y38.316
G1 F2400 X-54 Y-38.309 E2885.12967
G0 F12000 X-53.5 Y-38.309
G1 F2400 X-53.499 Y38.316 E2888.31537
G0 F12000 X-52.999 Y38.316
G1 F2400 X-53 Y-38.309 E2891.50107
G0 F12000 X-52.5 Y-38.309
G1 F2400 X-52.499 Y38.316 E2894.68677
G0 F12000 X-51.999 Y38.315
G1 F2400 X-52 Y-38.309 E2897.87242
G0 F12000 X-51.5 Y-38.31
G1 F2400 X-51.499 Y38.315 E2901.05812
G0 F12000 X-50.999 Y38.315
G1 F2400 X-51 Y-38.31 E2904.24382
G0 F12000 X-50.5 Y-38.31
G1 F2400 X-50.499 Y38.315 E2907.42951
G0 F12000 X-49.999 Y38.315
G1 F2400 X-50 Y-38.31 E2910.61521
G0 F12000 X-49.5 Y-38.31
G1 F2400 X-49.499 Y38.315 E2913.80091
G0 F12000 X-48.999 Y38.315
G1 F2400 X-49 Y-38.31 E2916.98661
G0 F12000 X-48.5 Y-38.31
G1 F2400 X-48.499 Y38.315 E2920.1723
G0 F12000 X-47.999 Y38.315
G1 F2400 X-48 Y-38.31 E2923.358
G0 F12000 X-47.5 Y-38.31
G1 F2400 X-47.499 Y38.315 E2926.5437
G0 F12000 X-46.999 Y38.315
G1 F2400 X-47 Y-38.31 E2929.7294
G0 F12000 X-46.5 Y-38.31
G1 F2400 X-46.499 Y38.315 E2932.91509
G0 F12000 X-45.999 Y38.315
G1 F2400 X-46 Y-38.31 E2936.10079
G0 F12000 X-45.5 Y-38.31
G1 F2400 X-45.499 Y38.315 E2939.28649
G0 F12000 X-44.999 Y38.315
G1 F2400 X-45 Y-38.31 E2942.47218
G0 F12000 X-44.5 Y-38.31
G1 F2400 X-44.499 Y38.315 E2945.65788
G0 F12000 X-43.999 Y38.315
G1 F2400 X-44 Y-38.31 E2948.84358
G0 F12000 X-43.5 Y-38.31
G1 F2400 X-43.499 Y38.315 E2952.02928
G0 F12000 X-42.999 Y38.315
G1 F2400 X-43 Y-38.31 E2955.21497
G0 F12000 X-42.5 Y-38.31
G1 F2400 X-42.499 Y38.315 E2958.40067
G0 F12000 X-41.999 Y38.315
G1 F2400 X-42 Y-38.31 E2961.58637
G0 F12000 X-41.5 Y-38.31
G1 F2400 X-41.499 Y38.315 E2964.77207
G0 F12000 X-40.999 Y38.315
G1 F2400 X-41 Y-38.31 E2967.95776
G0 F12000 X-40.5 Y-38.31
G1 F2400 X-40.499 Y38.314 E2971.14342
G0 F12000 X-39.999 Y38.314
G1 F2400 X-40 Y-38.31 E2974.32907
G0 F12000 X-39.5 Y-38.31
G1 F2400 X-39.499 Y38.314 E2977.51473
G0 F12000 X-38.999 Y38.314
G1 F2400 X-39 Y-38.31 E2980.70039
G0 F12000 X-38.5 Y-38.311
G1 F2400 X-38.499 Y38.314 E2983.88608
G0 F12000 X-37.999 Y38.314
G1 F2400 X-38 Y-38.311 E2987.07178
G0 F12000 X-37.5 Y-38.311
G1 F2400 X-37.499 Y38.314 E2990.25748
G0 F12000 X-36.999 Y38.314
G1 F2400 X-37 Y-38.311 E2993.44317
G0 F12000 X-36.5 Y-38.311
G1 F2400 X-36.499 Y38.314 E2996.62887
G0 F12000 X-35.999 Y38.314
G1 F2400 X-36 Y-38.311 E2999.81457
G0 F12000 X-35.5 Y-38.311
G1 F2400 X-35.499 Y38.314 E3003.00027
G0 F12000 X-34.999 Y38.314
G1 F2400 X-35 Y-38.311 E3006.18596
G0 F12000 X-34.5 Y-38.311
G1 F2400 X-34.499 Y38.314 E3009.37166
G0 F12000 X-33.999 Y38.314
G1 F2400 X-34 Y-38.311 E3012.55736
G0 F12000 X-33.5 Y-38.311
G1 F2400 X-33.499 Y38.314 E3015.74306
G0 F12000 X-32.999 Y38.314
G1 F2400 X-33 Y-38.311 E3018.92875
G0 F12000 X-32.5 Y-38.311
G1 F2400 X-32.499 Y38.314 E3022.11445
G0 F12000 X-31.999 Y38.314
G1 F2400 X-32 Y-38.311 E3025.30015
G0 F12000 X-31.5 Y-38.311
G1 F2400 X-31.499 Y38.314 E3028.48585
G0 F12000 X-30.999 Y38.314
G1 F2400 X-31 Y-38.311 E3031.67154
G0 F12000 X-30.5 Y-38.311
G1 F2400 X-30.499 Y38.314 E3034.85724
G0 F12000 X-29.999 Y38.314
G1 F2400 X-30 Y-38.311 E3038.04294
G0 F12000 X-29.5 Y-38.312
G1 F2400 X-29.499 Y38.314 E3041.22868
G0 F12000 X-28.999 Y38.313
G1 F2400 X-29 Y-38.312 E3044.41437
G0 F12000 X-28.5 Y-38.312
G1 F2400 X-28.499 Y38.313 E3047.60007
G0 F12000 X-27.999 Y38.313
G1 F2400 X-28 Y-38.312 E3050.78577
G0 F12000 X-27.5 Y-38.312
G1 F2400 X-27.499 Y38.313 E3053.97147
G0 F12000 X-26.999 Y38.313
G1 F2400 X-27 Y-38.312 E3057.15716
G0 F12000 X-26.5 Y-38.312
G1 F2400 X-26.499 Y38.313 E3060.34286
G0 F12000 X-25.999 Y38.313
G1 F2400 X-26 Y-38.312 E3063.52856
G0 F12000 X-25.5 Y-38.313
G1 F2400 X-25.499 Y38.313 E3066.7143
G0 F12000 X-24.999 Y38.313
G1 F2400 X-25 Y-38.313 E3069.90004
G0 F12000 X-24.5 Y-38.313
G1 F2400 X-24.499 Y38.313 E3073.08577
G0 F12000 X-23.999 Y38.313
G1 F2400 X-24 Y-38.313 E3076.27151
G0 F12000 X-23.5 Y-38.313
G1 F2400 X-23.499 Y38.313 E3079.45725
G0 F12000 X-22.999 Y38.313
G1 F2400 X-23 Y-38.313 E3082.64299
G0 F12000 X-22.5 Y-38.313
G1 F2400 X-22.499 Y38.313 E3085.82873
G0 F12000 X-21.999 Y38.313
G1 F2400 X-22 Y-38.313 E3089.01447
G0 F12000 X-21.5 Y-38.313
G1 F2400 X-21.499 Y38.313 E3092.20021
G0 F12000 X-20.999 Y38.313
G1 F2400 X-21 Y-38.313 E3095.38595
G0 F12000 X-20.5 Y-38.313
G1 F2400 X-20.499 Y38.313 E3098.57169
G0 F12000 X-19.999 Y38.313
G1 F2400 X-20 Y-38.313 E3101.75742
G0 F12000 X-19.5 Y-38.313
G1 F2400 X-19.499 Y38.313 E3104.94316
G0 F12000 X-18.999 Y38.313
G1 F2400 X-19 Y-38.313 E3108.1289
G0 F12000 X-18.5 Y-38.313
G1 F2400 X-18.499 Y38.313 E3111.31464
G0 F12000 X-17.999 Y38.313
G1 F2400 X-18 Y-38.313 E3114.50038
G0 F12000 X-17.5 Y-38.313
G1 F2400 X-17.499 Y38.313 E3117.68612
G0 F12000 X-16.999 Y38.312
G1 F2400 X-17 Y-38.313 E3120.87182
G0 F12000 X-16.5 Y-38.313
G1 F2400 X-16.499 Y38.312 E3124.05751
G0 F12000 X-15.999 Y38.312
G1 F2400 X-16 Y-38.313 E3127.24321
G0 F12000 X-15.5 Y-38.313
G1 F2400 X-15.499 Y38.312 E3130.42891
G0 F12000 X-14.999 Y38.312
G1 F2400 X-15 Y-38.313 E3133.6146
G0 F12000 X-14.5 Y-38.313
G1 F2400 X-14.499 Y38.312 E3136.8003
G0 F12000 X-13.999 Y38.312
G1 F2400 X-14 Y-38.313 E3139.986
G0 F12000 X-13.5 Y-38.313
G1 F2400 X-13.499 Y38.312 E3143.1717
G0 F12000 X-12.999 Y38.312
G1 F2400 X-13 Y-38.313 E3146.35739
G0 F12000 X-12.5 Y-38.314
G1 F2400 X-12.499 Y38.312 E3149.54313
G0 F12000 X-11.999 Y38.312
G1 F2400 X-12 Y-38.314 E3152.72887
G0 F12000 X-11.5 Y-38.314
G1 F2400 X-11.499 Y38.312 E3155.91461
G0 F12000 X-10.999 Y38.312
G1 F2400 X-11 Y-38.314 E3159.10035
G0 F12000 X-10.5 Y-38.314
G1 F2400 X-10.499 Y38.312 E3162.28609
G0 F12000 X-9.999 Y38.312
G1 F2400 X-10 Y-38.314 E3165.47183
G0 F12000 X-9.5 Y-38.314
G1 F2400 X-9.499 Y38.312 E3168.65757
G0 F12000 X-8.999 Y38.312
G1 F2400 X-9 Y-38.314 E3171.84331
G0 F12000 X-8.5 Y-38.314
G1 F2400 X-8.499 Y38.312 E3175.02904
G0 F12000 X-7.999 Y38.312
G1 F2400 X-8 Y-38.314 E3178.21478
G0 F12000 X-7.5 Y-38.314
G1 F2400 X-7.499 Y38.312 E3181.40052
G0 F12000 X-6.999 Y38.312
G1 F2400 X-7 Y-38.314 E3184.58626
G0 F12000 X-6.5 Y-38.314
G1 F2400 X-6.499 Y38.312 E3187.772
G0 F12000 X-5.999 Y38.312
G1 F2400 X-6 Y-38.314 E3190.95774
G0 F12000 X-5.5 Y-38.314
G1 F2400 X-5.499 Y38.311 E3194.14344
G0 F12000 X-4.999 Y38.311
G1 F2400 X-5 Y-38.314 E3197.32913
G0 F12000 X-4.5 Y-38.314
G1 F2400 X-4.499 Y38.311 E3200.51483
G0 F12000 X-3.999 Y38.311
G1 F2400 X-4 Y-38.314 E3203.70053
G0 F12000 X-3.5 Y-38.314
G1 F2400 X-3.499 Y38.311 E3206.88623
G0 F12000 X-2.999 Y38.311
G1 F2400 X-3 Y-38.314 E3210.07192
G0 F12000 X-2.5 Y-38.314
G1 F2400 X-2.499 Y38.311 E3213.25762
G0 F12000 X-1.999 Y38.311
G1 F2400 X-2 Y-38.314 E3216.44332
G0 F12000 X-1.5 Y-38.314
G1 F2400 X-1.499 Y38.311 E3219.62901
G0 F12000 X-0.999 Y38.311
G1 F2400 X-1 Y-38.314 E3222.81471
G0 F12000 X-0.5 Y-38.314
G1 F2400 X-0.499 Y38.311 E3226.00041
G0 F12000 X0 Y38.311
G1 F2400 X0 Y-38.314 E3229.18611
G0 F12000 X0.499 Y-38.315
G1 F2400 X0.5 Y38.311 E3232.37185
G0 F12000 X1 Y38.311
G1 F2400 X0.999 Y-38.315 E3235.55758
G0 F12000 X1.499 Y-38.315
G1 F2400 X1.5 Y38.311 E3238.74332
G0 F12000 X2 Y38.311
G1 F2400 X1.999 Y-38.315 E3241.92906
G0 F12000 X2.499 Y-38.315
G1 F2400 X2.5 Y38.311 E3245.1148
G0 F12000 X3 Y38.311
G1 F2400 X2.999 Y-38.315 E3248.30054
G0 F12000 X3.499 Y-38.315
G1 F2400 X3.5 Y38.311 E3251.48628
G0 F12000 X4 Y38.311
G1 F2400 X3.999 Y-38.315 E3254.67202
G0 F12000 X4.499 Y-38.315
G1 F2400 X4.5 Y38.311 E3257.85776
G0 F12000 X5 Y38.311
G1 F2400 X4.999 Y-38.315 E3261.0435
G0 F12000 X5.499 Y-38.315
G1 F2400 X5.5 Y38.311 E3264.22923
G0 F12000 X6 Y38.31
G1 F2400 X5.999 Y-38.315 E3267.41493
G0 F12000 X6.499 Y-38.315
G1 F2400 X6.5 Y38.31 E3270.60063
G0 F12000 X7 Y38.31
G1 F2400 X6.999 Y-38.315 E3273.78633
G0 F12000 X7.499 Y-38.315
G1 F2400 X7.5 Y38.31 E3276.97202
G0 F12000 X8 Y38.31
G1 F2400 X7.999 Y-38.315 E3280.15772
G0 F12000 X8.499 Y-38.315
G1 F2400 X8.5 Y38.31 E3283.34342
G0 F12000 X9 Y38.31
G1 F2400 X8.999 Y-38.315 E3286.52912
G0 F12000 X9.499 Y-38.315
G1 F2400 X9.5 Y38.31 E3289.71481
G0 F12000 X10 Y38.31
G1 F2400 X9.999 Y-38.315 E3292.90051
G0 F12000 X10.499 Y-38.315
G1 F2400 X10.5 Y38.31 E3296.08621
G0 F12000 X11 Y38.31
G1 F2400 X10.999 Y-38.315 E3299.2719
G0 F12000 X11.499 Y-38.315
G1 F2400 X11.5 Y38.31 E3302.4576
G0 F12000 X12 Y38.31
G1 F2400 X11.999 Y-38.315 E3305.6433
G0 F12000 X12.499 Y-38.315
G1 F2400 X12.5 Y38.31 E3308.829
G0 F12000 X13 Y38.31
G1 F2400 X12.999 Y-38.316 E3312.01474
G0 F12000 X13.499 Y-38.316
G1 F2400 X13.5 Y38.31 E3315.20047
G0 F12000 X14 Y38.31
G1 F2400 X13.999 Y-38.316 E3318.38621
G0 F12000 X14.499 Y-38.316
G1 F2400 X14.5 Y38.31 E3321.57195
G0 F12000 X15 Y38.31
G1 F2400 X14.999 Y-38.316 E3324.75769
G0 F12000 X15.499 Y-38.316
G1 F2400 X15.5 Y38.31 E3327.94343
G0 F12000 X16 Y38.31
G1 F2400 X15.999 Y-38.316 E3331.12917
G0 F12000 X16.499 Y-38.316
G1 F2400 X16.5 Y38.31 E3334.31491
G0 F12000 X17 Y38.31
G1 F2400 X16.999 Y-38.316 E3337.50065
G0 F12000 X17.499 Y-38.316
G1 F2400 X17.5 Y38.309 E3340.68634
G0 F12000 X18 Y38.309
G1 F2400 X17.999 Y-38.316 E3343.87204
G0 F12000 X18.499 Y-38.316
G1 F2400 X18.5 Y38.309 E3347.05774
G0 F12000 X19 Y38.309
G1 F2400 X18.999 Y-38.316 E3350.24344
G0 F12000 X19.499 Y-38.316
G1 F2400 X19.5 Y38.309 E3353.42913
G0 F12000 X20 Y38.309
G1 F2400 X19.999 Y-38.316 E3356.61483
G0 F12000 X20.499 Y-38.316
G1 F2400 X20.5 Y38.309 E3359.80053
G0 F12000 X21 Y38.309
G1 F2400 X20.999 Y-38.316 E3362.98622
G0 F12000 X21.499 Y-38.316
G1 F2400 X21.5 Y38.309 E3366.17192
G0 F12000 X22 Y38.309
G1 F2400 X21.999 Y-38.316 E3369.35762
G0 F12000 X22.499 Y-38.316
G1 F2400 X22.5 Y38.309 E3372.54332
G0 F12000 X23 Y38.309
G1 F2400 X22.999 Y-38.316 E3375.72901
G0 F12000 X23.499 Y-38.316
G1 F2400 X23.5 Y38.309 E3378.91471
G0 F12000 X24 Y38.309
G1 F2400 X23.999 Y-38.316 E3382.10041
G0 F12000 X24.499 Y-38.316
G1 F2400 X24.5 Y38.309 E3385.28611
G0 F12000 X25 Y38.309
G1 F2400 X24.999 Y-38.316 E3388.4718
G0 F12000 X25.499 Y-38.316
G1 F2400 X25.5 Y38.309 E3391.6575
G0 F12000 X26 Y38.309
G1 F2400 X25.999 Y-38.317 E3394.84324
G0 F12000 X26.499 Y-38.317
G1 F2400 X26.5 Y38.309 E3398.02898
G0 F12000 X27 Y38.309
G1 F2400 X26.999 Y-38.317 E3401.21472
G0 F12000 X27.499 Y-38.317
G1 F2400 X27.5 Y38.309 E3404.40046
G0 F12000 X28 Y38.309
G1 F2400 X27.999 Y-38.317 E3407.5862
G0 F12000 X28.499 Y-38.317
G1 F2400 X28.5 Y38.309 E3410.77193
G0 F12000 X29 Y38.309
G1 F2400 X28.999 Y-38.317 E3413.95767
G0 F12000 X29.499 Y-38.317
G1 F2400 X29.5 Y38.308 E3417.14337
G0 F12000 X30 Y38.307
G1 F2400 X29.999 Y-38.317 E3420.32903
G0 F12000 X30.499 Y-38.317
G1 F2400 X30.5 Y38.307 E3423.51468
G0 F12000 X31 Y38.307
G1 F2400 X30.999 Y-38.317 E3426.70034
G0 F12000 X31.499 Y-38.317
G1 F2400 X31.5 Y38.307 E3429.88599
G0 F12000 X32 Y38.307
G1 F2400 X31.999 Y-38.317 E3433.07165
G0 F12000 X32.499 Y-38.317
G1 F2400 X32.5 Y38.307 E3436.2573
G0 F12000 X33 Y38.307
G1 F2400 X32.999 Y-38.317 E3439.44296
G0 F12000 X33.499 Y-38.317
G1 F2400 X33.5 Y38.307 E3442.62862
G0 F12000 X34 Y38.307
G1 F2400 X33.999 Y-38.317 E3445.81427
G0 F12000 X34.499 Y-38.317
G1 F2400 X34.5 Y38.307 E3448.99993
G0 F12000 X35 Y38.307
G1 F2400 X34.999 Y-38.317 E3452.18558
G0 F12000 X35.499 Y-38.317
G1 F2400 X35.5 Y38.307 E3455.37124
G0 F12000 X36 Y38.307
G1 F2400 X35.999 Y-38.317 E3458.55689
G0 F12000 X36.499 Y-38.317
G1 F2400 X36.5 Y38.307 E3461.74255
G0 F12000 X37 Y38.307
G1 F2400 X36.999 Y-38.317 E3464.92821
G0 F12000 X37.499 Y-38.317
G1 F2400 X37.5 Y38.307 E3468.11386
G0 F12000 X38 Y38.307
G1 F2400 X37.999 Y-38.317 E3471.29952
G0 F12000 X38.499 Y-38.317
G1 F2400 X38.5 Y38.307 E3474.48517
G0 F12000 X39 Y38.307
G1 F2400 X38.999 Y-38.318 E3477.67087
G0 F12000 X39.499 Y-38.318
G1 F2400 X39.5 Y38.307 E3480.85657
G0 F12000 X40 Y38.307
G1 F2400 X39.999 Y-38.318 E3484.04227
G0 F12000 X40.499 Y-38.318
G1 F2400 X40.5 Y38.307 E3487.22796
G0 F12000 X41 Y38.306
G1 F2400 X40.999 Y-38.318 E3490.41362
G0 F12000 X41.499 Y-38.318
G1 F2400 X41.5 Y38.306 E3493.59927
G0 F12000 X42 Y38.306
G1 F2400 X41.999 Y-38.318 E3496.78493
G0 F12000 X42.499 Y-38.318
G1 F2400 X42.5 Y38.306 E3499.97059
G0 F12000 X43 Y38.306
G1 F2400 X42.999 Y-38.318 E3503.15624
G0 F12000 X43.499 Y-38.318
G1 F2400 X43.5 Y38.306 E3506.3419
G0 F12000 X44 Y38.306
G1 F2400 X43.999 Y-38.318 E3509.52755
G0 F12000 X44.499 Y-38.318
G1 F2400 X44.5 Y38.306 E3512.71321
G0 F12000 X45 Y38.306
G1 F2400 X44.999 Y-38.318 E3515.89886
G0 F12000 X45.499 Y-38.318
G1 F2400 X45.5 Y38.306 E3519.08452
G0 F12000 X46 Y38.306
G1 F2400 X45.999 Y-38.318 E3522.27018
G0 F12000 X46.499 Y-38.318
G1 F2400 X46.5 Y38.306 E3525.45583
G0 F12000 X47 Y38.306
G1 F2400 X46.999 Y-38.318 E3528.64149
G0 F12000 X47.499 Y-38.318
G1 F2400 X47.5 Y38.306 E3531.82714
G0 F12000 X48 Y38.306
G1 F2400 X47.999 Y-38.318 E3535.0128
G0 F12000 X48.499 Y-38.318
G1 F2400 X48.5 Y38.306 E3538.19845
G0 F12000 X49 Y38.306
G1 F2400 X48.999 Y-38.318 E3541.38411
G0 F12000 X49.499 Y-38.318
G1 F2400 X49.5 Y38.306 E3544.56977
G0 F12000 X50 Y38.306
G1 F2400 X49.999 Y-38.318 E3547.75542
G0 F12000 X50.499 Y-38.318
G1 F2400 X50.5 Y38.306 E3550.94108
G0 F12000 X51 Y38.306
G1 F2400 X50.999 Y-38.318 E3554.12673
G0 F12000 X51.499 Y-38.318
G1 F2400 X51.5 Y38.306 E3557.31239
G0 F12000 X52 Y38.306
G1 F2400 X51.999 Y-38.319 E3560.49809
G0 F12000 X52.499 Y-38.319
G1 F2400 X52.5 Y38.305 E3563.68374
G0 F12000 X53 Y38.305
G1 F2400 X52.999 Y-38.319 E3566.8694
G0 F12000 X53.499 Y-38.319
G1 F2400 X53.5 Y38.305 E3570.05505
G0 F12000 X54 Y38.305
G1 F2400 X53.999 Y-38.319 E3573.24071
G0 F12000 X54.499 Y-38.319
G1 F2400 X54.5 Y38.305 E3576.42636
G0 F12000 X55 Y38.305
G1 F2400 X54.999 Y-38.319 E3579.61202
G0 F12000 X55.499 Y-38.319
G1 F2400 X55.5 Y38.305 E3582.79768
G0 F12000 X56 Y38.305
G1 F2400 X55.999 Y-38.319 E3585.98333
G0 F12000 X56.499 Y-38.319
G1 F2400 X56.5 Y38.305 E3589.16899
G0 F12000 X57 Y38.305
G1 F2400 X56.999 Y-38.319 E3592.35464
G0 F12000 X57.499 Y-38.319
G1 F2400 X57.5 Y38.305 E3595.5403
G0 F12000 X58 Y38.305
G1 F2400 X57.999 Y-38.319 E3598.72595
G0 F12000 X58.625 Y-38.705
G1 F2400 X58.664 Y-38.72 E3598.7279
G1 X58.663 Y-38.725 E3598.72989
G1 X58.619 Y-38.778 E3598.73074
G0 F12000 X58.72 Y38.604
G0 X58.72 Y38.604
G1 F2400 X58.722 Y38.679 E3598.73365
G1 X58.689 Y38.724 E3598.7347
G1 X58.62 Y38.781 E3598.73566
G0 F12000 X-58.687 Y-38.618
G0 X-58.687 Y-38.618
G1 F2400 X-58.73 Y-38.686 E3598.73867
G1 X-58.675 Y-38.7 E3598.73917
G0 F12000 X-58.675 Y-38.7 Z1.15
; Layer Change GCode
; LAYER:4
G0 X58.475 Y39.301 Z1.1
G0 X58.475 Y39.301
G0 X58.488 Y39.652
G0 X58.488 Y39.652
G0 X58.436 Y38.652
; TYPE:WALL-INNER
G1 F2400 X58.436 Y38.652 E3598.73917
G1 X-58.505 Y38.645 E3603.60101
G1 X-58.593 Y38.611 E3603.60493
G1 X-58.633 Y38.544 E3603.60818
G1 X-58.652 Y38.41 E3603.6138
G1 X-58.652 Y-38.409 E3606.80757
G1 X-58.613 Y-38.588 E3606.81518
G1 X-58.555 Y-38.635 E3606.81829
G1 X-58.436 Y-38.652 E3606.82328
G1 X58.499 Y-38.645 E3611.68488
G1 X58.594 Y-38.611 E3611.68907
G1 X58.633 Y-38.542 E3611.69237
G1 X58.652 Y-38.409 E3611.69795
G1 X58.652 Y38.41 E3614.89171
G1 X58.615 Y38.585 E3614.89915
G1 X58.555 Y38.635 E3614.9024
G1 X58.436 Y38.652 E3614.9074
G0 F12000 X58.462 Y39.152
G1 F2400 X58.462 Y39.152 E3614.9074
G1 X-58.555 Y39.145 E3619.7724
G1 X-58.749 Y39.104 E3619.78064
G1 X-58.928 Y38.991 E3619.78944
G1 X-59.043 Y38.852 E3619.79694
G1 X-59.118 Y38.681 E3619.80471
G1 X-59.152 Y38.444 E3619.81466
G1 X-59.152 Y-38.444 E3623.01129
G1 X-59.119 Y-38.68 E3623.0212
G1 X-59.042 Y-38.852 E3623.02903
G1 X-58.927 Y-38.991 E3623.03653
G1 X-58.756 Y-39.1 E3623.04496
G1 X-58.599 Y-39.139 E3623.05169
G1 X-58.462 Y-39.152 E3623.05741
G1 X58.552 Y-39.145 E3627.92229
G1 X58.753 Y-39.102 E3627.93083
G1 X58.927 Y-38.991 E3627.93941
G1 X59.042 Y-38.852 E3627.94691
G1 X59.119 Y-38.68 E3627.95475
G1 X59.152 Y-38.444 E3627.96466
G1 X59.152 Y38.444 E3631.16129
G1 X59.118 Y38.681 E3631.17124
G1 X59.043 Y38.852 E3631.17901
G1 X58.928 Y38.991 E3631.18651
G1 X58.756 Y39.1 E3631.19497
G1 X58.599 Y39.139 E3631.2017
G1 X58.462 Y39.152 E3631.20742
G0 F12000 X58.488 Y39.652
; TYPE:WALL-OUTER
G1 F1800 X58.488 Y39.652 E3631.20742
G1 X-58.606 Y39.645 E3636.07562
G1 X-58.949 Y39.569 E3636.09023
G1 X-59.263 Y39.37 E3636.10568
G1 X-59.472 Y39.118 E3636.11929
G1 X-59.604 Y38.819 E3636.13288
G1 X-59.652 Y38.479 E3636.14716
G1 X-59.652 Y-38.478 E3639.34666
G1 X-59.604 Y-38.819 E3639.36098
G1 X-59.472 Y-39.117 E3639.37453
G1 X-59.263 Y-39.37 E3639.38817
G1 X-58.955 Y-39.566 E3639.40335
G1 X-58.68 Y-39.634 E3639.41513
G1 X-58.488 Y-39.652 E3639.42314
G1 X58.604 Y-39.645 E3644.29126
G1 X58.948 Y-39.57 E3644.3059
G1 X59.263 Y-39.37 E3644.32141
G1 X59.472 Y-39.117 E3644.33506
G1 X59.604 Y-38.819 E3644.34861
G1 X59.652 Y-38.478 E3644.36292
G1 X59.652 Y38.479 E3647.56242
G1 X59.604 Y38.819 E3647.5767
G1 X59.472 Y39.118 E3647.59029
G1 X59.263 Y39.37 E3647.6039
G1 X58.955 Y39.566 E3647.61908
G1 X58.68 Y39.634 E3647.63086
G1 X58.488 Y39.652 E3647.63887
G0 F12000 X58.707 Y38.834
; TYPE:FILL
G1 F2400 X58.694 Y38.806 E3647.6392
G0 F12000 X58.765 Y38.739
G1 F2400 X58.794 Y38.76 E3647.63951
G0 F12000 X58.852 Y38.664
G1 F2400 X58.831 Y38.615 E3647.64004
G0 F12000 X58.402 Y38
G1 F2400 X-58.402 Y38 E3652.49619
G0 F12000 X-58.402 Y37.5
G1 F2400 X58.402 Y37.5 E3657.35234
G0 F12000 X58.402 Y37
G1 F2400 X-58.402 Y37 E3662.20848
G0 F12000 X-58.402 Y36.5
G1 F2400 X58.402 Y36.5 E3667.06463
G0 F12000 X58.402 Y36
G1 F2400 X-58.402 Y36 E3671.92078
G0 F12000 X-58.402 Y35.5
G1 F2400 X58.402 Y35.5 E3676.77692
G0 F12000 X58.402 Y35
G1 F2400 X-58.402 Y35 E3681.63307
G0 F12000 X-58.402 Y34.5
G1 F2400 X58.402 Y34.5 E3686.48921
G0 F12000 X58.402 Y34
G1 F2400 X-58.402 Y34 E3691.34536
G0 F12000 X-58.402 Y33.5
G1 F2400 X58.402 Y33.5 E3696.20151
G0 F12000 X58.402 Y33
G1 F2400 X-58.402 Y33 E3701.05765
G0 F12000 X-58.402 Y32.5
G1 F2400 X58.402 Y32.499 E3705.9138
G0 F12000 X58.402 Y31.999
G1 F2400 X-58.402 Y32 E3710.76994
G0 F12000 X-58.402 Y31.5
G1 F2400 X58.402 Y31.499 E3715.62609
G0 F12000 X58.402 Y30.999
G1 F2400 X-58.402 Y31 E3720.48224
G0 F12000 X-58.402 Y30.5
G1 F2400 X58.402 Y30.499 E3725.33838
G0 F12000 X58.402 Y29.999
G1 F2400 X-58.402 Y30 E3730.19453
G0 F12000 X-58.402 Y29.5
G1 F2400 X58.402 Y29.499 E3735.05067
G0 F12000 X58.402 Y28.999
G1 F2400 X-58.402 Y29 E3739.90682
G0 F12000 X-58.402 Y28.5
G1 F2400 X58.402 Y28.499 E3744.76297
G0 F12000 X58.402 Y27.999
G1 F2400 X-58.402 Y28 E3749.61911
G0 F12000 X-58.402 Y27.5
G1 F2400 X58.402 Y27.499 E3754.47526
G0 F12000 X58.402 Y26.999
G1 F2400 X-58.402 Y27 E3759.3314
G0 F12000 X-58.402 Y26.5
G1 F2400 X58.402 Y26.499 E3764.18755
G0 F12000 X58.402 Y25.999
G1 F2400 X-58.402 Y26 E3769.0437
G0 F12000 X-58.402 Y25.5
G1 F2400 X58.402 Y25.499 E3773.89984
G0 F12000 X58.402 Y24.999
G1 F2400 X-58.402 Y25 E3778.75599
G0 F12000 X-58.402 Y24.5
G1 F2400 X58.402 Y24.499 E3783.61213
G0 F12000 X58.402 Y23.999
G1 F2400 X-58.402 Y24 E3788.46828
G0 F12000 X-58.402 Y23.5
G1 F2400 X58.402 Y23.499 E3793.32443
G0 F12000 X58.402 Y22.999
G1 F2400 X-58.402 Y23 E3798.18057
G0 F12000 X-58.402 Y22.5
G1 F2400 X58.402 Y22.499 E3803.03672
G0 F12000 X58.402 Y21.999
G1 F2400 X-58.402 Y22 E3807.89286
G0 F12000 X-58.402 Y21.5
G1 F2400 X58.402 Y21.499 E3812.74901
G0 F12000 X58.402 Y20.999
G1 F2400 X-58.402 Y21 E3817.60516
G0 F12000 X-58.402 Y20.5
G1 F2400 X58.402 Y20.499 E3822.4613
G0 F12000 X58.402 Y19.999
G1 F2400 X-58.402 Y20 E3827.31745
G0 F12000 X-58.402 Y19.5
G1 F2400 X58.402 Y19.499 E3832.17359
G0 F12000 X58.402 Y18.999
G1 F2400 X-58.402 Y19 E3837.02974
G0 F12000 X-58.402 Y18.5
G1 F2400 X58.402 Y18.499 E3841.88589
G0 F12000 X58.402 Y17.999
G1 F2400 X-58.402 Y18 E3846.74203
G0 F12000 X-58.402 Y17.5
G1 F2400 X58.402 Y17.499 E3851.59818
G0 F12000 X58.402 Y16.999
G1 F2400 X-58.402 Y17 E3856.45432
G0 F12000 X-58.402 Y16.5
G1 F2400 X58.402 Y16.499 E3861.31047
G0 F12000 X58.402 Y15.999
G1 F2400 X-58.402 Y16 E3866.16662
G0 F12000 X-58.402 Y15.5
G1 F2400 X58.402 Y15.499 E3871.02276
G0 F12000 X58.402 Y14.999
G1 F2400 X-58.402 Y15 E3875.87891
G0 F12000 X-58.402 Y14.5
G1 F2400 X58.402 Y14.499 E3880.73505
G0 F12000 X58.402 Y13.999
G1 F2400 X-58.402 Y14 E3885.5912
G0 F12000 X-58.402 Y13.5
G1 F2400 X58.402 Y13.499 E3890.44735
G0 F12000 X58.402 Y12.999
G1 F2400 X-58.402 Y13 E3895.30349
G0 F12000 X-58.402 Y12.5
G1 F2400 X58.402 Y12.499 E3900.15964
G0 F12000 X58.402 Y11.999
G1 F2400 X-58.402 Y12 E3905.01578
G0 F12000 X-58.402 Y11.5
G1 F2400 X58.402 Y11.499 E3909.87193
G0 F12000 X58.402 Y10.999
G1 F2400 X-58.402 Y11 E3914.72808
G0 F12000 X-58.402 Y10.5
G1 F2400 X58.402 Y10.499 E3919.58422
G0 F12000 X58.402 Y9.999
G1 F2400 X-58.402 Y10 E3924.44037
G0 F12000 X-58.402 Y9.5
G1 F2400 X58.402 Y9.499 E3929.29651
G0 F12000 X58.402 Y8.999
G1 F2400 X-58.402 Y9 E3934.15266
G0 F12000 X-58.402 Y8.5
G1 F2400 X58.402 Y8.499 E3939.00881
G0 F12000 X58.402 Y7.999
G1 F2400 X-58.402 Y8 E3943.86495
G0 F12000 X-58.402 Y7.5
G1 F2400 X58.402 Y7.499 E3948.7211
G0 F12000 X58.402 Y6.999
G1 F2400 X-58.402 Y7 E3953.57724
G0 F12000 X-58.402 Y6.5
G1 F2400 X58.402 Y6.499 E3958.43339
G0 F12000 X58.402 Y5.999
G1 F2400 X-58.402 Y6 E3963.28954
G0 F12000 X-58.402 Y5.5
G1 F2400 X58.402 Y5.499 E3968.14568
G0 F12000 X58.402 Y4.999
G1 F2400 X-58.402 Y5 E3973.00183
G0 F12000 X-58.402 Y4.5
G1 F2400 X58.402 Y4.499 E3977.85797
G0 F12000 X58.402 Y3.999
G1 F2400 X-58.402 Y4 E3982.71412
G0 F12000 X-58.402 Y3.5
G1 F2400 X58.402 Y3.499 E3987.57027
G0 F12000 X58.402 Y2.999
G1 F2400 X-58.402 Y3 E3992.42641
G0 F12000 X-58.402 Y2.5
G1 F2400 X58.402 Y2.499 E3997.28256
G0 F12000 X58.402 Y1.999
G1 F2400 X-58.402 Y2 E4002.1387
G0 F12000 X-58.402 Y1.5
G1 F2400 X58.402 Y1.499 E4006.99485
G0 F12000 X58.402 Y0.999
G1 F2400 X-58.402 Y1 E4011.851
G0 F12000 X-58.402 Y0.5
G1 F2400 X58.402 Y0.499 E4016.70714
G0 F12000 X58.402 Y0
G1 F2400 X-58.402 Y0 E4021.56329
G0 F12000 X-58.402 Y-0.499
G1 F2400 X58.402 Y-0.5 E4026.41943
G0 F12000 X58.402 Y-1
G1 F2400 X-58.402 Y-0.999 E4031.27558
G0 F12000 X-58.402 Y-1.499
G1 F2400 X58.402 Y-1.5 E4036.13173
G0 F12000 X58.402 Y-2
G1 F2400 X-58.402 Y-1.999 E4040.98787
G0 F12000 X-58.402 Y-2.499
G1 F2400 X58.402 Y-2.5 E4045.84402
G0 F12000 X58.402 Y-3
G1 F2400 X-58.402 Y-2.999 E4050.70016
G0 F12000 X-58.402 Y-3.499
G1 F2400 X58.402 Y-3.5 E4055.55631
G0 F12000 X58.402 Y-4
G1 F2400 X-58.402 Y-3.999 E4060.41246
G0 F12000 X-58.402 Y-4.499
G1 F2400 X58.402 Y-4.5 E4065.2686
G0 F12000 X58.402 Y-5
G1 F2400 X-58.402 Y-4.999 E4070.12475
G0 F12000 X-58.402 Y-5.499
G1 F2400 X58.402 Y-5.5 E4074.98089
G0 F12000 X58.402 Y-6
G1 F2400 X-58.402 Y-5.999 E4079.83704
G0 F12000 X-58.402 Y-6.499
G1 F2400 X58.402 Y-6.5 E4084.69319
G0 F12000 X58.402 Y-7
G1 F2400 X-58.402 Y-6.999 E4089.54933
G0 F12000 X-58.402 Y-7.499
G1 F2400 X58.402 Y-7.5 E4094.40548
G0 F12000 X58.402 Y-8
G1 F2400 X-58.402 Y-7.999 E4099.26162
G0 F12000 X-58.402 Y-8.499
G1 F2400 X58.402 Y-8.5 E4104.11777
G0 F12000 X58.402 Y-9
G1 F2400 X-58.402 Y-8.999 E4108.97392
G0 F12000 X-58.402 Y-9.499
G1 F2400 X58.402 Y-9.5 E4113.83006
G0 F12000 X58.402 Y-10
G1 F2400 X-58.402 Y-9.999 E4118.68621
G0 F12000 X-58.402 Y-10.499
G1 F2400 X58.402 Y-10.5 E4123.54235
G0 F12000 X58.402 Y-11
G1 F2400 X-58.402 Y-10.999 E4128.3985
G0 F12000 X-58.402 Y-11.499
G1 F2400 X58.402 Y-11.5 E4133.25465
G0 F12000 X58.402 Y-12
G1 F2400 X-58.402 Y-11.999 E4138.11079
G0 F12000 X-58.402 Y-12.499
G1 F2400 X58.402 Y-12.5 E4142.96694
G0 F12000 X58.402 Y-13
G1 F2400 X-58.402 Y-12.999 E4147.82308
G0 F12000 X-58.402 Y-13.499
G1 F2400 X58.402 Y-13.5 E4152.67923
G0 F12000 X58.402 Y-14
G1 F2400 X-58.402 Y-13.999 E4157.53538
G0 F12000 X-58.402 Y-14.499
G1 F2400 X58.402 Y-14.5 E4162.39152
G0 F12000 X58.402 Y-15
G1 F2400 X-58.402 Y-14.999 E4167.24767
G0 F12000 X-58.402 Y-15.499
G1 F2400 X58.402 Y-15.5 E4172.10381
G0 F12000 X58.402 Y-16
G1 F2400 X-58.402 Y-15.999 E4176.95996
G0 F12000 X-58.402 Y-16.499
G1 F2400 X58.402 Y-16.5 E4181.81611
G0 F12000 X58.402 Y-17
G1 F2400 X-58.402 Y-16.999 E4186.67225
G0 F12000 X-58.402 Y-17.499
G1 F2400 X58.402 Y-17.5 E4191.5284
G0 F12000 X58.402 Y-18
G1 F2400 X-58.402 Y-17.999 E4196.38454
G0 F12000 X-58.402 Y-18.499
G1 F2400 X58.402 Y-18.5 E4201.24069
G0 F12000 X58.402 Y-19
G1 F2400 X-58.402 Y-18.999 E4206.09684
G0 F12000 X-58.402 Y-19.499
G1 F2400 X58.402 Y-19.5 E4210.95298
G0 F12000 X58.402 Y-20
G1 F2400 X-58.402 Y-19.999 E4215.80913
G0 F12000 X-58.402 Y-20.499
G1 F2400 X58.402 Y-20.5 E4220.66528
G0 F12000 X58.402 Y-21
G1 F2400 X-58.402 Y-20.999 E4225.52142
G0 F12000 X-58.402 Y-21.499
G1 F2400 X58.402 Y-21.5 E4230.37757
G0 F12000 X58.402 Y-22
G1 F2400 X-58.402 Y-21.999 E4235.23371
G0 F12000 X-58.402 Y-22.499
G1 F2400 X58.402 Y-22.5 E4240.08986
G0 F12000 X58.402 Y-23
G1 F2400 X-58.402 Y-22.999 E4244.94601
G0 F12000 X-58.402 Y-23.499
G1 F2400 X58.402 Y-23.5 E4249.80215
G0 F12000 X58.402 Y-24
G1 F2400 X-58.402 Y-23.999 E4254.6583
G0 F12000 X-58.402 Y-24.499
G1 F2400 X58.402 Y-24.5 E4259.51444
G0 F12000 X58.402 Y-25
G1 F2400 X-58.402 Y-24.999 E4264.37059
G0 F12000 X-58.402 Y-25.499
G1 F2400 X58.402 Y-25.5 E4269.22674
G0 F12000 X58.402 Y-26
G1 F2400 X-58.402 Y-25.999 E4274.08288
G0 F12000 X-58.402 Y-26.499
G1 F2400 X58.402 Y-26.5 E4278.93903
G0 F12000 X58.402 Y-27
G1 F2400 X-58.402 Y-26.999 E4283.79517
G0 F12000 X-58.402 Y-27.499
G1 F2400 X58.402 Y-27.5 E4288.65132
G0 F12000 X58.402 Y-28
G1 F2400 X-58.402 Y-27.999 E4293.50747
G0 F12000 X-58.402 Y-28.499
G1 F2400 X58.402 Y-28.5 E4298.36361
G0 F12000 X58.402 Y-29
G1 F2400 X-58.402 Y-28.999 E4303.21976
G0 F12000 X-58.402 Y-29.499
G1 F2400 X58.402 Y-29.5 E4308.0759
G0 F12000 X58.402 Y-30
G1 F2400 X-58.402 Y-29.999 E4312.93205
G0 F12000 X-58.402 Y-30.499
G1 F2400 X58.402 Y-30.5 E4317.7882
G0 F12000 X58.402 Y-31
G1 F2400 X-58.402 Y-30.999 E4322.64434
G0 F12000 X-58.402 Y-31.499
G1 F2400 X58.402 Y-31.5 E4327.50049
G0 F12000 X58.402 Y-32
G1 F2400 X-58.402 Y-31.999 E4332.35663
G0 F12000 X-58.402 Y-32.499
G1 F2400 X58.402 Y-32.5 E4337.21278
G0 F12000 X58.402 Y-33
G1 F2400 X-58.402 Y-33 E4342.06893
G0 F12000 X-58.402 Y-33.5
G1 F2400 X58.402 Y-33.5 E4346.92507
G0 F12000 X58.402 Y-34
G1 F2400 X-58.402 Y-34 E4351.78122
G0 F12000 X-58.402 Y-34.5
G1 F2400 X58.402 Y-34.5 E4356.63736
G0 F12000 X58.402 Y-35
G1 F2400 X-58.402 Y-35 E4361.49351
G0 F12000 X-58.402 Y-35.5
G1 F2400 X58.402 Y-35.5 E4366.34966
G0 F12000 X58.402 Y-36
G1 F2400 X-58.402 Y-36 E4371.2058
G0 F12000 X-58.402 Y-36.5
G1 F2400 X58.402 Y-36.5 E4376.06195
G0 F12000 X58.402 Y-37
G1 F2400 X-58.402 Y-37 E4380.91809
G0 F12000 X-58.402 Y-37.5
G1 F2400 X58.402 Y-37.5 E4385.77424
G0 F12000 X58.402 Y-38
G1 F2400 X-58.402 Y-38 E4390.63039
G0 F12000 X-58.831 Y-38.615
G1 F2400 X-58.852 Y-38.664 E4390.6309
G0 F12000 X-58.794 Y-38.759
G1 F2400 X-58.765 Y-38.74 E4390.63121
G0 F12000 X-58.695 Y-38.804
G1 F2400 X-58.707 Y-38.835 E4390.63155
G0 F12000 X-58.831 Y38.615
G0 X-58.831 Y38.615
G1 F2400 X-58.852 Y38.664 E4390.63209
G0 F12000 X-58.794 Y38.76
G1 F2400 X-58.765 Y38.739 E4390.6324
G0 F12000 X-58.678 Y38.807
G1 F2400 X-58.707 Y38.834 E4390.63282
G0 F12000 X58.678 Y-38.806
G1 F2400 X58.707 Y-38.834 E4390.63323
G0 F12000 X58.765 Y-38.739
G1 F2400 X58.794 Y-38.759 E4390.63355
G0 F12000 X58.852 Y-38.664
G1 F2400 X58.831 Y-38.615 E4390.63406
G0 F12000 X58.831 Y-38.615 Z1.35
; Layer Change GCode
; LAYER:5
G0 X-58.633 Y39.355 Z1.3
G0 X-58.633 Y39.355
G0 X-58.688 Y39.702
G0 X-58.688 Y39.702
G0 X-58.518 Y38.704
; TYPE:WALL-INNER
G1 F2400 X-58.518 Y38.704 E4390.63406
G1 X-58.593 Y38.679 E4390.63735
G1 X-58.669 Y38.614 E4390.6415
G1 X-58.692 Y38.559 E4390.64398
G1 X-58.71 Y38.421 E4390.64977
G1 X-58.71 Y-38.421 E4393.84449
G1 X-58.672 Y-38.609 E4393.85246
G1 X-58.602 Y-38.676 E4393.85649
G1 X-58.478 Y-38.71 E4393.86183
G1 X58.53 Y-38.704 E4398.72646
G1 X58.65 Y-38.637 E4398.73218
G1 X58.692 Y-38.56 E4398.73582
G1 X58.71 Y-38.421 E4398.74165
G1 X58.71 Y38.421 E4401.93637
G1 X58.692 Y38.559 E4401.94216
G1 X58.643 Y38.646 E4401.94631
G1 X58.602 Y38.676 E4401.94842
G1 X58.478 Y38.71 E4401.95376
G1 X-58.518 Y38.704 E4406.81789
G0 F12000 X-58.6 Y39.204
G1 F2400 X-58.6 Y39.204 E4406.81789
G1 X-58.828 Y39.126 E4406.82791
G1 X-59.003 Y38.997 E4406.83695
G1 X-59.106 Y38.866 E4406.84388
G1 X-59.178 Y38.693 E4406.85167
G1 X-59.21 Y38.448 E4406.86194
G1 X-59.21 Y-38.448 E4410.05891
G1 X-59.178 Y-38.691 E4410.0691
G1 X-59.105 Y-38.868 E4410.07706
G1 X-58.991 Y-39.012 E4410.08469
G1 X-58.835 Y-39.124 E4410.09268
G1 X-58.599 Y-39.204 E4410.10304
G1 X-58.483 Y-39.21 E4410.10786
G1 X58.592 Y-39.204 E4414.97528
G1 X58.823 Y-39.13 E4414.98536
G1 X59.002 Y-38.998 E4414.99461
G1 X59.106 Y-38.866 E4415.0016
G1 X59.178 Y-38.691 E4415.00946
G1 X59.21 Y-38.448 E4415.01965
G1 X59.21 Y38.448 E4418.21662
G1 X59.178 Y38.693 E4418.22689
G1 X59.105 Y38.868 E4418.23477
G1 X58.992 Y39.012 E4418.24238
G1 X58.835 Y39.124 E4418.2504
G1 X58.599 Y39.204 E4418.26076
G1 X-58.6 Y39.204 E4423.13333
G0 F12000 X-58.688 Y39.702
; TYPE:WALL-OUTER
G1 F1800 X-58.688 Y39.702 E4423.13333
G1 X-59.063 Y39.574 E4423.1498
G1 X-59.356 Y39.357 E4423.16496
G1 X-59.541 Y39.123 E4423.17736
G1 X-59.665 Y38.823 E4423.19086
G1 X-59.71 Y38.482 E4423.20516
G1 X-59.71 Y-38.482 E4426.40495
G1 X-59.665 Y-38.822 E4426.41921
G1 X-59.541 Y-39.122 E4426.43271
G1 X-59.339 Y-39.379 E4426.4463
G1 X-59.068 Y-39.573 E4426.46015
G1 X-58.694 Y-39.7 E4426.47657
G1 X-58.488 Y-39.71 E4426.48515
G1 X58.646 Y-39.704 E4431.35501
G1 X58.8 Y-39.67 E4431.36157
G1 X59.059 Y-39.577 E4431.37301
G1 X59.354 Y-39.359 E4431.38826
G1 X59.542 Y-39.12 E4431.4009
G1 X59.665 Y-38.822 E4431.41431
G1 X59.71 Y-38.482 E4431.42857
G1 X59.71 Y38.482 E4434.62836
G1 X59.665 Y38.823 E4434.64266
G1 X59.541 Y39.123 E4434.65615
G1 X59.339 Y39.379 E4434.66971
G1 X59.068 Y39.573 E4434.68357
G1 X58.694 Y39.7 E4434.69999
G1 X-58.688 Y39.702 E4439.58016
G0 F12000 X-58.77 Y38.858
; TYPE:FILL
G1 F2400 X-58.722 Y38.847 E4439.58077
G0 F12000 X-58.911 Y38.682
G1 F2400 X-58.895 Y38.626 E4439.58138
G0 F12000 X-57.999 Y38.453
G1 F2400 X-58 Y-38.459 E4442.77901
G0 F12000 X-57.5 Y-38.459
G1 F2400 X-57.499 Y38.453 E4445.97664
G0 F12000 X-56.999 Y38.453
G1 F2400 X-57 Y25.999 E4446.49442
G0 F12000 X-56.5 Y25.999
G1 F2400 X-56.499 Y38.453 E4447.01219
G0 F12000 X-55.999 Y38.453
G1 F2400 X-56 Y25.999 E4447.52997
G0 F12000 X-55.5 Y25.999
G1 F2400 X-55.499 Y38.453 E4448.04775
G0 F12000 X-54.999 Y38.453
G1 F2400 X-55 Y25.999 E4448.56553
G0 F12000 X-54.5 Y25.999
G1 F2400 X-54.499 Y38.453 E4449.0833
G0 F12000 X-53.999 Y38.453
G1 F2400 X-54 Y25.999 E4449.60108
G0 F12000 X-53.5 Y25.999
G1 F2400 X-53.499 Y38.453 E4450.11886
G0 F12000 X-52.999 Y38.453
G1 F2400 X-53 Y25.999 E4450.63663
G0 F12000 X-52.5 Y25.999
G1 F2400 X-52.499 Y38.453 E4451.15441
G0 F12000 X-51.999 Y38.453
G1 F2400 X-52 Y25.999 E4451.67219
G0 F12000 X-51.5 Y25.999
G1 F2400 X-51.499 Y38.453 E4452.18997
G0 F12000 X-50.999 Y38.453
G1 F2400 X-51 Y25.999 E4452.70774
G0 F12000 X-50.5 Y25.999
G1 F2400 X-50.499 Y38.453 E4453.22552
G0 F12000 X-49.999 Y38.454
G1 F2400 X-50 Y25.999 E4453.74334
G0 F12000 X-49.5 Y25.999
G1 F2400 X-49.499 Y38.454 E4454.26116
G0 F12000 X-48.999 Y38.454
G1 F2400 X-49 Y25.999 E4454.77898
G0 F12000 X-48.5 Y25.999
G1 F2400 X-48.499 Y38.454 E4455.29679
G0 F12000 X-47.999 Y38.454
G1 F2400 X-48 Y25.999 E4455.81461
G0 F12000 X-47.5 Y25.999
G1 F2400 X-47.499 Y38.454 E4456.33243
G0 F12000 X-46.999 Y38.454
G1 F2400 X-47 Y25.999 E4456.85025
G0 F12000 X-46.5 Y25.999
G1 F2400 X-46.499 Y38.454 E4457.36807
G0 F12000 X-45.999 Y38.454
G1 F2400 X-46 Y25.999 E4457.88589
G0 F12000 X-45.5 Y25.999
G1 F2400 X-45.499 Y38.454 E4458.40371
G0 F12000 X-44.999 Y38.454
G1 F2400 X-45 Y25.999 E4458.92153
G0 F12000 X-44.5 Y25.999
G1 F2400 X-44.499 Y38.454 E4459.43934
G0 F12000 X-43.999 Y38.454
G1 F2400 X-44 Y25.999 E4459.95716
G0 F12000 X-43.5 Y25.999
G1 F2400 X-43.499 Y38.454 E4460.47498
G0 F12000 X-42.999 Y38.454
G1 F2400 X-43 Y25.999 E4460.9928
G0 F12000 X-42.5 Y25.999
G1 F2400 X-42.499 Y38.454 E4461.51062
G0 F12000 X-41.999 Y38.454
G1 F2400 X-42 Y25.999 E4462.02844
G0 F12000 X-41.5 Y25.999
G1 F2400 X-41.499 Y38.454 E4462.54626
G0 F12000 X-40.999 Y38.454
G1 F2400 X-41 Y25.999 E4463.06408
G0 F12000 X-40.5 Y25.999
G1 F2400 X-40.499 Y38.454 E4463.58189
G0 F12000 X-39.999 Y38.454
G1 F2400 X-40 Y25.999 E4464.09971
G0 F12000 X-39.5 Y25.999
G1 F2400 X-39.499 Y38.454 E4464.61753
G0 F12000 X-38.999 Y38.454
G1 F2400 X-39 Y25.999 E4465.13535
G0 F12000 X-38.5 Y25.999
G1 F2400 X-38.499 Y38.454 E4465.65317
G0 F12000 X-37.999 Y38.454
G1 F2400 X-38 Y25.999 E4466.17099
G0 F12000 X-37.5 Y25.999
G1 F2400 X-37.499 Y38.454 E4466.68881
G0 F12000 X-36.999 Y38.454
G1 F2400 X-37 Y25.999 E4467.20663
G0 F12000 X-36.5 Y25.999
G1 F2400 X-36.499 Y38.454 E4467.72444
G0 F12000 X-35.999 Y38.454
G1 F2400 X-36 Y25.999 E4468.24226
G0 F12000 X-35.5 Y25.999
G1 F2400 X-35.499 Y38.454 E4468.76008
G0 F12000 X-34.999 Y38.454
G1 F2400 X-35 Y25.999 E4469.2779
G0 F12000 X-34.5 Y25.999
G1 F2400 X-34.499 Y38.454 E4469.79572
G0 F12000 X-33.999 Y38.454
G1 F2400 X-34 Y25.999 E4470.31354
G0 F12000 X-33.5 Y25.999
G1 F2400 X-33.499 Y38.454 E4470.83136
G0 F12000 X-32.999 Y38.455
G1 F2400 X-33 Y25.999 E4471.34922
G0 F12000 X-32.499 Y25.999
G1 F2400 X-32.499 Y38.455 E4471.86708
G0 F12000 X-31.999 Y38.455
G1 F2400 X-31.999 Y25.999 E4472.38494
G0 F12000 X-31.499 Y25.999
G1 F2400 X-31.499 Y38.455 E4472.9028
G0 F12000 X-30.999 Y38.455
G1 F2400 X-30.999 Y25.999 E4473.42066
G0 F12000 X-30.499 Y25.999
G1 F2400 X-30.499 Y38.455 E4473.93852
G0 F12000 X-29.999 Y38.455
G1 F2400 X-29.999 Y25.999 E4474.45638
G0 F12000 X-29.499 Y25.999
G1 F2400 X-29.499 Y38.455 E4474.97424
G0 F12000 X-28.999 Y38.455
G1 F2400 X-28.999 Y25.999 E4475.4921
G0 F12000 X-28.499 Y25.999
G1 F2400 X-28.499 Y38.455 E4476.00996
G0 F12000 X-27.999 Y38.455
G1 F2400 X-27.999 Y25.999 E4476.52782
G0 F12000 X-27.499 Y25.999
G1 F2400 X-27.499 Y38.455 E4477.04568
G0 F12000 X-26.999 Y38.455
G1 F2400 X-26.999 Y25.999 E4477.56354
G0 F12000 X-26.499 Y25.999
G1 F2400 X-26.499 Y38.455 E4478.0814
G0 F12000 X-25.999 Y38.455
G1 F2400 X-25.999 Y25.999 E4478.59926
G0 F12000 X-25.499 Y25.999
G1 F2400 X-25.499 Y38.455 E4479.11712
G0 F12000 X-24.999 Y38.455
G1 F2400 X-24.999 Y25.999 E4479.63498
G0 F12000 X-24.499 Y25.999
G1 F2400 X-24.499 Y38.455 E4480.15284
G0 F12000 X-23.999 Y38.455
G1 F2400 X-23.999 Y25.999 E4480.6707
G0 F12000 X-23.499 Y25.999
G1 F2400 X-23.499 Y38.455 E4481.18856
G0 F12000 X-22.999 Y38.455
G1 F2400 X-22.999 Y25.999 E4481.70642
G0 F12000 X-22.499 Y25.999
G1 F2400 X-22.499 Y38.455 E4482.22428
G0 F12000 X-21.999 Y38.455
G1 F2400 X-21.999 Y25.999 E4482.74214
G0 F12000 X-21.499 Y25.999
G1 F2400 X-21.499 Y38.455 E4483.26
G0 F12000 X-20.999 Y38.455
G1 F2400 X-20.999 Y25.999 E4483.77786
G0 F12000 X-20.499 Y25.999
G1 F2400 X-20.499 Y38.455 E4484.29572
G0 F12000 X-19.999 Y38.455
G1 F2400 X-19.999 Y25.999 E4484.81358
G0 F12000 X-19.499 Y25.999
G1 F2400 X-19.499 Y38.455 E4485.33144
G0 F12000 X-18.999 Y38.455
G1 F2400 X-18.999 Y25.998 E4485.84935
G0 F12000 X-18.499 Y25.998
G1 F2400 X-18.499 Y38.455 E4486.36725
G0 F12000 X-17.999 Y38.455
G1 F2400 X-17.999 Y25.998 E4486.88515
G0 F12000 X-17.499 Y25.998
G1 F2400 X-17.499 Y38.455 E4487.40305
G0 F12000 X-16.999 Y38.455
G1 F2400 X-16.999 Y25.998 E4487.92095
G0 F12000 X-16.499 Y25.998
G1 F2400 X-16.499 Y38.456 E4488.4389
G0 F12000 X-15.999 Y38.456
G1 F2400 X-15.999 Y25.998 E4488.95684
G0 F12000 X-15.499 Y25.998
G1 F2400 X-15.499 Y38.456 E4489.47478
G0 F12000 X-14.999 Y38.456
G1 F2400 X-14.999 Y25.998 E4489.99273
G0 F12000 X-14.499 Y25.998
G1 F2400 X-14.499 Y38.456 E4490.51067
G0 F12000 X-13.999 Y38.456
G1 F2400 X-13.999 Y25.998 E4491.02861
G0 F12000 X-13.499 Y25.998
G1 F2400 X-13.499 Y38.456 E4491.54656
G0 F12000 X-12.999 Y38.456
G1 F2400 X-12.999 Y25.998 E4492.0645
G0 F12000 X-12.499 Y25.998
G1 F2400 X-12.499 Y38.456 E4492.58245
G0 F12000 X-11.999 Y38.456
G1 F2400 X-11.999 Y25.998 E4493.10039
G0 F12000 X-11.499 Y25.998
G1 F2400 X-11.499 Y38.456 E4493.61833
G0 F12000 X-10.999 Y38.456
G1 F2400 X-10.999 Y25.998 E4494.13628
G0 F12000 X-10.499 Y25.998
G1 F2400 X-10.499 Y38.456 E4494.65422
G0 F12000 X-9.999 Y38.456
G1 F2400 X-9.999 Y25.998 E4495.17216
G0 F12000 X-9.499 Y25.998
G1 F2400 X-9.499 Y38.456 E4495.69011
G0 F12000 X-8.999 Y38.456
G1 F2400 X-8.999 Y25.998 E4496.20805
G0 F12000 X-8.499 Y25.998
G1 F2400 X-8.499 Y38.456 E4496.72599
G0 F12000 X-7.999 Y38.456
G1 F2400 X-7.999 Y25.998 E4497.24394
G0 F12000 X-7.499 Y25.998
G1 F2400 X-7.499 Y38.456 E4497.76188
G0 F12000 X-6.999 Y38.456
G1 F2400 X-6.999 Y25.998 E4498.27982
G0 F12000 X-6.499 Y25.998
G1 F2400 X-6.499 Y38.456 E4498.79777
G0 F12000 X-5.999 Y38.456
G1 F2400 X-5.999 Y25.998 E4499.31571
G0 F12000 X-5.499 Y25.998
G1 F2400 X-5.499 Y38.456 E4499.83365
G0 F12000 X-4.999 Y38.456
G1 F2400 X-4.999 Y25.998 E4500.3516
G0 F12000 X-4.499 Y25.998
G1 F2400 X-4.499 Y38.456 E4500.86954
G0 F12000 X-3.999 Y38.456
G1 F2400 X-3.999 Y25.998 E4501.38748
G0 F12000 X-3.499 Y25.998
G1 F2400 X-3.499 Y38.456 E4501.90543
G0 F12000 X-2.999 Y38.456
G1 F2400 X-2.999 Y25.998 E4502.42337
G0 F12000 X-2.499 Y25.998
G1 F2400 X-2.499 Y38.456 E4502.94131
G0 F12000 X-1.999 Y38.456
G1 F2400 X-1.999 Y25.998 E4503.45926
G0 F12000 X-2.021 Y26.497
G1 F2400 X-3.175 Y24.5 E4503.55515
G0 F12000 X-2.999 Y25
G1 F2400 X-3 Y-24.999 E4505.63387
G0 F12000 X-3.5 Y-24.999
G1 F2400 X-3.499 Y25 E4507.71258
G0 F12000 X-3.999 Y25
G1 F2400 X-4 Y-24.999 E4509.7913
G0 F12000 X-4.5 Y-24.999
G1 F2400 X-4.499 Y25 E4511.87002
G0 F12000 X-4.999 Y25
G1 F2400 X-5 Y-24.999 E4513.94873
G0 F12000 X-5.5 Y-24.999
G1 F2400 X-5.499 Y25 E4516.02745
G0 F12000 X-5.999 Y25
G1 F2400 X-6 Y-24.999 E4518.10617
G0 F12000 X-6.5 Y-24.999
G1 F2400 X-6.499 Y25 E4520.18488
G0 F12000 X-6.999 Y25
G1 F2400 X-7 Y-24.999 E4522.2636
G0 F12000 X-7.5 Y-24.999
G1 F2400 X-7.499 Y25 E4524.34232
G0 F12000 X-7.999 Y25
G1 F2400 X-8 Y-24.999 E4526.42103
G0 F12000 X-8.5 Y-24.999
G1 F2400 X-8.499 Y25 E4528.49975
G0 F12000 X-8.999 Y25
G1 F2400 X-9 Y-24.999 E4530.57847
G0 F12000 X-9.5 Y-24.999
G1 F2400 X-9.499 Y25 E4532.65719
G0 F12000 X-9.999 Y25
G1 F2400 X-10 Y-24.999 E4534.7359
G0 F12000 X-10.5 Y-24.999
G1 F2400 X-10.499 Y25 E4536.81462
G0 F12000 X-10.999 Y25
G1 F2400 X-11 Y-24.999 E4538.89334
G0 F12000 X-11.5 Y-24.999
G1 F2400 X-11.499 Y25 E4540.97205
G0 F12000 X-11.999 Y25
G1 F2400 X-12 Y-24.999 E4543.05077
G0 F12000 X-12.5 Y-24.999
G1 F2400 X-12.499 Y25 E4545.12949
G0 F12000 X-12.999 Y25
G1 F2400 X-13 Y-24.999 E4547.2082
G0 F12000 X-13.5 Y-24.999
G1 F2400 X-13.499 Y25 E4549.28692
G0 F12000 X-13.999 Y25
G1 F2400 X-14 Y-24.999 E4551.36564
G0 F12000 X-14.5 Y-24.999
G1 F2400 X-14.499 Y25 E4553.44435
G0 F12000 X-14.999 Y25
G1 F2400 X-15 Y-24.998 E4555.52303
G0 F12000 X-15.5 Y-24.998
G1 F2400 X-15.499 Y25 E4557.6017
G0 F12000 X-15.999 Y25
G1 F2400 X-16 Y-24.998 E4559.68038
G0 F12000 X-16.5 Y-24.998
G1 F2400 X-16.499 Y25 E4561.75905
G0 F12000 X-16.999 Y25
G1 F2400 X-17 Y-24.998 E4563.83773
G0 F12000 X-17.5 Y-24.998
G1 F2400 X-17.499 Y25 E4565.91641
G0 F12000 X-17.999 Y25
G1 F2400 X-18 Y-24.998 E4567.99508
G0 F12000 X-18.5 Y-24.998
G1 F2400 X-18.499 Y25 E4570.07376
G0 F12000 X-18.999 Y24.999
G1 F2400 X-19 Y-24.999 E4572.15243
G0 F12000 X-19.5 Y-24.999
G1 F2400 X-19.499 Y24.999 E4574.23111
G0 F12000 X-19.999 Y24.999
G1 F2400 X-20 Y-24.999 E4576.30978
G0 F12000 X-20.5 Y-24.999
G1 F2400 X-20.499 Y24.999 E4578.38846
G0 F12000 X-20.495 Y24.5
G1 F2400 X-19.341 Y26.499 E4578.48442
G0 F12000 X-21.072 Y26.498
G1 F2400 X-19.918 Y24.499 E4578.58038
G0 F12000 X-20.999 Y24.999
G1 F2400 X-21 Y-24.999 E4580.65906
G0 F12000 X-21.5 Y-24.999
G1 F2400 X-21.499 Y24.999 E4582.73773
G0 F12000 X-21.999 Y24.999
G1 F2400 X-22 Y-24.999 E4584.81641
G0 F12000 X-22.5 Y-24.999
G1 F2400 X-22.499 Y24.999 E4586.89508
G0 F12000 X-22.999 Y24.999
G1 F2400 X-23 Y-24.999 E4588.97376
G0 F12000 X-23.5 Y-24.999
G1 F2400 X-23.499 Y24.999 E4591.05244
G0 F12000 X-23.999 Y24.999
G1 F2400 X-24 Y-24.999 E4593.13111
G0 F12000 X-24.5 Y-24.999
G1 F2400 X-24.499 Y24.999 E4595.20979
G0 F12000 X-24.999 Y24.999
G1 F2400 X-25 Y-24.999 E4597.28846
G0 F12000 X-25.5 Y-24.999
G1 F2400 X-25.499 Y24.999 E4599.36714
G0 F12000 X-25.999 Y24.999
G1 F2400 X-26 Y-24.999 E4601.44581
G0 F12000 X-26.5 Y-24.999
G1 F2400 X-26.499 Y24.999 E4603.52449
G0 F12000 X-26.999 Y24.999
G1 F2400 X-27 Y-24.999 E4605.60316
G0 F12000 X-27.5 Y-24.999
G1 F2400 X-27.499 Y24.999 E4607.68184
G0 F12000 X-27.999 Y24.999
G1 F2400 X-28 Y-24.999 E4609.76051
G0 F12000 X-28.5 Y-24.999
G1 F2400 X-28.499 Y24.999 E4611.83919
G0 F12000 X-28.999 Y24.999
G1 F2400 X-29 Y-24.999 E4613.91786
G0 F12000 X-29.5 Y-24.999
G1 F2400 X-29.499 Y24.999 E4615.99654
G0 F12000 X-29.999 Y24.999
G1 F2400 X-30 Y-24.999 E4618.07521
G0 F12000 X-30.5 Y-24.999
G1 F2400 X-30.499 Y24.999 E4620.15389
G0 F12000 X-30.999 Y24.999
G1 F2400 X-31 Y-24.999 E4622.23256
G0 F12000 X-31.5 Y-24.999
G1 F2400 X-31.499 Y24.999 E4624.31124
G0 F12000 X-31.999 Y24.999
G1 F2400 X-32 Y-24.999 E4626.38992
G0 F12000 X-32.5 Y-24.999
G1 F2400 X-32.499 Y24.999 E4628.46859
G0 F12000 X-33 Y24.999
G1 F2400 X-33 Y-24.999 E4630.54727
G0 F12000 X-33.5 Y-24.999
G1 F2400 X-33.5 Y24.999 E4632.62594
G0 F12000 X-34 Y24.999
G1 F2400 X-34 Y-24.999 E4634.70462
G0 F12000 X-34.5 Y-24.999
G1 F2400 X-34.5 Y24.999 E4636.78329
G0 F12000 X-35 Y24.999
G1 F2400 X-35 Y-24.999 E4638.86197
G0 F12000 X-35.5 Y-24.999
G1 F2400 X-35.5 Y24.999 E4640.94064
G0 F12000 X-36 Y24.999
G1 F2400 X-36 Y-24.999 E4643.01932
G0 F12000 X-36.5 Y-24.999
G1 F2400 X-36.5 Y24.999 E4645.09799
G0 F12000 X-37 Y24.999
G1 F2400 X-37 Y-24.999 E4647.17667
G0 F12000 X-37.5 Y-24.999
G1 F2400 X-37.5 Y24.999 E4649.25534
G0 F12000 X-38 Y24.999
G1 F2400 X-38 Y-24.999 E4651.33402
G0 F12000 X-38.5 Y-24.999
G1 F2400 X-38.5 Y24.999 E4653.41269
G0 F12000 X-39 Y24.999
G1 F2400 X-39 Y-24.999 E4655.49137
G0 F12000 X-39.5 Y-24.999
G1 F2400 X-39.5 Y24.999 E4657.57004
G0 F12000 X-40 Y24.999
G1 F2400 X-40 Y-24.999 E4659.64872
G0 F12000 X-40.5 Y-24.999
G1 F2400 X-40.5 Y24.999 E4661.7274
G0 F12000 X-41 Y24.999
G1 F2400 X-41 Y-24.999 E4663.80607
G0 F12000 X-41.5 Y-24.999
G1 F2400 X-41.5 Y24.999 E4665.88475
G0 F12000 X-42 Y24.999
G1 F2400 X-42 Y-24.999 E4667.96342
G0 F12000 X-42.5 Y-24.999
G1 F2400 X-42.5 Y24.999 E4670.0421
G0 F12000 X-43 Y24.999
G1 F2400 X-43 Y-24.999 E4672.12077
G0 F12000 X-43.5 Y-24.999
G1 F2400 X-43.5 Y24.999 E4674.19945
G0 F12000 X-44 Y24.999
G1 F2400 X-44 Y-24.999 E4676.27812
G0 F12000 X-44.5 Y-24.999
G1 F2400 X-44.5 Y24.999 E4678.3568
G0 F12000 X-45 Y24.999
G1 F2400 X-45 Y-24.999 E4680.43547
G0 F12000 X-45.5 Y-24.999
G1 F2400 X-45.5 Y24.999 E4682.51415
G0 F12000 X-46 Y24.999
G1 F2400 X-46 Y-24.999 E4684.59282
G0 F12000 X-46.5 Y-24.999
G1 F2400 X-46.5 Y24.999 E4686.6715
G0 F12000 X-47 Y24.999
G1 F2400 X-47 Y-24.999 E4688.75017
G0 F12000 X-47.5 Y-24.999
G1 F2400 X-47.5 Y24.999 E4690.82885
G0 F12000 X-48 Y24.999
G1 F2400 X-48 Y-24.999 E4692.90752
G0 F12000 X-48.5 Y-24.999
G1 F2400 X-48.5 Y24.999 E4694.9862
G0 F12000 X-49 Y24.999
G1 F2400 X-49 Y-24.999 E4697.06488
G0 F12000 X-49.5 Y-24.999
G1 F2400 X-49.5 Y24.999 E4699.14355
G0 F12000 X-50 Y24.999
G1 F2400 X-50 Y-24.999 E4701.22223
G0 F12000 X-50.5 Y-24.999
G1 F2400 X-50.5 Y24.999 E4703.3009
G0 F12000 X-51 Y24.999
G1 F2400 X-51 Y-24.999 E4705.37958
G0 F12000 X-51.5 Y-24.999
G1 F2400 X-51.5 Y24.999 E4707.45825
G0 F12000 X-52 Y24.999
G1 F2400 X-52 Y-24.999 E4709.53693
G0 F12000 X-52.5 Y-24.999
G1 F2400 X-52.5 Y24.999 E4711.6156
G0 F12000 X-53 Y24.999
G1 F2400 X-53 Y-24.999 E4713.69428
G0 F12000 X-53.5 Y-24.999
G1 F2400 X-53.5 Y24.999 E4715.77295
G0 F12000 X-54 Y24.999
G1 F2400 X-54 Y-24.999 E4717.85163
G0 F12000 X-54.5 Y-24.999
G1 F2400 X-54.5 Y24.999 E4719.9303
G0 F12000 X-54.499 Y24.395
G1 F2400 X-55.714 Y26.5 E4720.03135
G0 F12000 X-53.982 Y26.5
G1 F2400 X-57.818 Y19.856 E4720.35031
G0 F12000 X-57.819 Y20
G1 F2400 X-54.5 Y20 E4720.4883
G0 F12000 X-57.818 Y20.144
G1 F2400 X-54.499 Y14.395 E4720.76429
G0 F12000 X-54.5 Y15
G1 F2400 X-57.819 Y15 E4720.90227
G0 F12000 X-54.499 Y15.604
G1 F2400 X-57.818 Y9.855 E4721.17826
G0 F12000 X-57.819 Y10
G1 F2400 X-54.5 Y10 E4721.31625
G0 F12000 X-57.818 Y10.143
G1 F2400 X-54.499 Y4.396 E4721.59217
G0 F12000 X-54.5 Y5
G1 F2400 X-57.819 Y5 E4721.73015
G0 F12000 X-54.499 Y5.604
G1 F2400 X-57.818 Y-0.144 E4722.0061
G0 F12000 X-57.819 Y0
G1 F2400 X-54.5 Y0 E4722.14409
G0 F12000 X-57.818 Y0.144
G1 F2400 X-54.499 Y-5.604 E4722.42004
G0 F12000 X-54.5 Y-4.999
G1 F2400 X-57.819 Y-4.999 E4722.55803
G0 F12000 X-54.499 Y-4.396
G1 F2400 X-57.818 Y-10.144 E4722.83398
G0 F12000 X-57.819 Y-9.999
G1 F2400 X-54.5 Y-9.999 E4722.97197
G0 F12000 X-57.818 Y-9.855
G1 F2400 X-54.499 Y-15.604 E4723.24796
G0 F12000 X-54.5 Y-14.999
G1 F2400 X-57.819 Y-14.999 E4723.38595
G0 F12000 X-54.499 Y-14.395
G1 F2400 X-57.818 Y-20.144 E4723.66194
G0 F12000 X-57.819 Y-19.999
G1 F2400 X-54.5 Y-19.999 E4723.79992
G0 F12000 X-57.818 Y-19.855
G1 F2400 X-53.982 Y-26.499 E4724.11888
G0 F12000 X-54 Y-25.998
G1 F2400 X-54 Y-38.459 E4724.63695
G0 F12000 X-54.5 Y-38.459
G1 F2400 X-54.5 Y-25.998 E4725.15502
G0 F12000 X-55 Y-25.998
G1 F2400 X-55 Y-38.459 E4725.67309
G0 F12000 X-55.5 Y-38.459
G1 F2400 X-55.5 Y-25.998 E4726.19116
G0 F12000 X-56 Y-25.998
G1 F2400 X-56 Y-38.459 E4726.70922
G0 F12000 X-56.5 Y-38.459
G1 F2400 X-56.5 Y-25.998 E4727.22729
G0 F12000 X-57 Y-25.998
G1 F2400 X-57 Y-38.459 E4727.74536
G0 F12000 X-58.642 Y-38.895
G0 X-58.642 Y-38.895
G1 F2400 X-58.636 Y-38.927 E4727.74583
G0 F12000 X-58.721 Y-38.846
G1 F2400 X-58.767 Y-38.865 E4727.74632
G0 F12000 X-58.826 Y-38.764
G1 F2400 X-58.852 Y-38.783 E4727.74664
G0 F12000 X-58.912 Y-38.683
G1 F2400 X-58.887 Y-38.63 E4727.7472
G0 F12000 X-53.5 Y-38.459
G0 X-53.5 Y-38.459
G1 F2400 X-53.5 Y-25.998 E4728.26527
G0 F12000 X-53 Y-25.998
G1 F2400 X-53 Y-38.459 E4728.78333
G0 F12000 X-52.5 Y-38.459
G1 F2400 X-52.5 Y-25.998 E4729.3014
G0 F12000 X-52 Y-25.998
G1 F2400 X-52 Y-38.459 E4729.81947
G0 F12000 X-51.5 Y-38.459
G1 F2400 X-51.5 Y-25.998 E4730.33754
G0 F12000 X-51 Y-25.998
G1 F2400 X-51 Y-38.459 E4730.85561
G0 F12000 X-50.5 Y-38.459
G1 F2400 X-50.5 Y-25.998 E4731.37367
G0 F12000 X-50 Y-25.998
G1 F2400 X-50 Y-38.458 E4731.8917
G0 F12000 X-49.5 Y-38.458
G1 F2400 X-49.5 Y-25.998 E4732.40973
G0 F12000 X-49 Y-25.998
G1 F2400 X-49 Y-38.458 E4732.92775
G0 F12000 X-48.5 Y-38.458
G1 F2400 X-48.5 Y-25.998 E4733.44578
G0 F12000 X-48 Y-25.998
G1 F2400 X-48 Y-38.458 E4733.96381
G0 F12000 X-47.5 Y-38.458
G1 F2400 X-47.5 Y-25.998 E4734.48183
G0 F12000 X-47 Y-25.998
G1 F2400 X-47 Y-38.458 E4734.99986
G0 F12000 X-46.5 Y-38.458
G1 F2400 X-46.5 Y-25.998 E4735.51789
G0 F12000 X-46 Y-25.998
G1 F2400 X-46 Y-38.458 E4736.03591
G0 F12000 X-45.5 Y-38.458
G1 F2400 X-45.5 Y-25.998 E4736.55394
G0 F12000 X-45 Y-25.998
G1 F2400 X-45 Y-38.458 E4737.07197
G0 F12000 X-44.5 Y-38.458
G1 F2400 X-44.5 Y-25.998 E4737.58999
G0 F12000 X-44 Y-25.998
G1 F2400 X-44 Y-38.458 E4738.10802
G0 F12000 X-43.5 Y-38.458
G1 F2400 X-43.5 Y-25.998 E4738.62605
G0 F12000 X-43 Y-25.998
G1 F2400 X-43 Y-38.458 E4739.14407
G0 F12000 X-42.5 Y-38.458
G1 F2400 X-42.5 Y-25.998 E4739.6621
G0 F12000 X-42 Y-25.998
G1 F2400 X-42 Y-38.458 E4740.18013
G0 F12000 X-41.5 Y-38.458
G1 F2400 X-41.5 Y-25.998 E4740.69815
G0 F12000 X-41 Y-25.998
G1 F2400 X-41 Y-38.458 E4741.21618
G0 F12000 X-40.5 Y-38.458
G1 F2400 X-40.5 Y-25.998 E4741.73421
G0 F12000 X-40 Y-25.998
G1 F2400 X-40 Y-38.458 E4742.25223
G0 F12000 X-39.5 Y-38.458
G1 F2400 X-39.5 Y-25.998 E4742.77026
G0 F12000 X-39 Y-25.998
G1 F2400 X-39 Y-38.458 E4743.28829
G0 F12000 X-38.5 Y-38.458
G1 F2400 X-38.5 Y-25.998 E4743.80631
G0 F12000 X-38 Y-25.998
G1 F2400 X-38 Y-38.458 E4744.32434
G0 F12000 X-37.5 Y-38.458
G1 F2400 X-37.5 Y-25.998 E4744.84237
G0 F12000 X-37 Y-25.998
G1 F2400 X-37 Y-38.458 E4745.36039
G0 F12000 X-36.5 Y-38.458
G1 F2400 X-36.5 Y-25.998 E4745.87842
G0 F12000 X-36 Y-25.998
G1 F2400 X-36 Y-38.458 E4746.39645
G0 F12000 X-35.5 Y-38.458
G1 F2400 X-35.5 Y-25.998 E4746.91447
G0 F12000 X-35 Y-25.998
G1 F2400 X-35 Y-38.458 E4747.4325
G0 F12000 X-34.5 Y-38.458
G1 F2400 X-34.5 Y-25.998 E4747.95053
G0 F12000 X-34 Y-25.998
G1 F2400 X-34 Y-38.458 E4748.46855
G0 F12000 X-33.5 Y-38.458
G1 F2400 X-33.5 Y-25.998 E4748.98658
G0 F12000 X-33 Y-25.998
G1 F2400 X-33 Y-38.457 E4749.50456
G0 F12000 X-32.5 Y-38.457
G1 F2400 X-32.5 Y-25.998 E4750.02255
G0 F12000 X-32 Y-25.998
G1 F2400 X-32 Y-38.457 E4750.54053
G0 F12000 X-31.5 Y-38.457
G1 F2400 X-31.5 Y-25.998 E4751.05852
G0 F12000 X-31 Y-25.998
G1 F2400 X-31 Y-38.457 E4751.5765
G0 F12000 X-30.5 Y-38.457
G1 F2400 X-30.5 Y-25.998 E4752.09449
G0 F12000 X-30 Y-25.998
G1 F2400 X-30 Y-38.457 E4752.61247
G0 F12000 X-29.5 Y-38.458
G1 F2400 X-29.5 Y-25.998 E4753.1305
G0 F12000 X-29 Y-25.998
G1 F2400 X-29 Y-38.458 E4753.64853
G0 F12000 X-28.5 Y-38.458
G1 F2400 X-28.5 Y-25.998 E4754.16655
G0 F12000 X-28 Y-25.998
G1 F2400 X-28 Y-38.458 E4754.68458
G0 F12000 X-27.5 Y-38.458
G1 F2400 X-27.5 Y-25.998 E4755.20261
G0 F12000 X-27 Y-25.998
G1 F2400 X-27 Y-38.458 E4755.72063
G0 F12000 X-26.5 Y-38.458
G1 F2400 X-26.5 Y-25.998 E4756.23866
G0 F12000 X-26 Y-25.998
G1 F2400 X-26 Y-38.458 E4756.75669
G0 F12000 X-25.5 Y-38.458
G1 F2400 X-25.5 Y-25.998 E4757.27471
G0 F12000 X-25 Y-25.998
G1 F2400 X-25 Y-38.458 E4757.79274
G0 F12000 X-24.5 Y-38.458
G1 F2400 X-24.5 Y-25.998 E4758.31077
G0 F12000 X-24 Y-25.998
G1 F2400 X-24 Y-38.458 E4758.82879
G0 F12000 X-23.5 Y-38.458
G1 F2400 X-23.5 Y-25.998 E4759.34682
G0 F12000 X-23 Y-25.998
G1 F2400 X-23 Y-38.458 E4759.86485
G0 F12000 X-22.5 Y-38.458
G1 F2400 X-22.5 Y-25.998 E4760.38287
G0 F12000 X-22 Y-25.998
G1 F2400 X-22 Y-38.458 E4760.9009
G0 F12000 X-21.5 Y-38.458
G1 F2400 X-21.5 Y-25.998 E4761.41893
G0 F12000 X-21 Y-25.998
G1 F2400 X-21 Y-38.458 E4761.93695
G0 F12000 X-20.5 Y-38.458
G1 F2400 X-20.5 Y-25.998 E4762.45498
G0 F12000 X-20 Y-25.998
G1 F2400 X-20 Y-38.458 E4762.97301
G0 F12000 X-19.5 Y-38.458
G1 F2400 X-19.5 Y-25.998 E4763.49103
G0 F12000 X-19 Y-25.997
