; Generated with MatterSlice 1.0
; filamentDiameter = 1.7
; extrusionWidth = 0.45
; firstLayerExtrusionWidth = 0.5625
; layerThickness = 0.1
; firstLayerThickness = 0.3
; automatic settings before start_gcode
G21 ; set units to millimeters
M107 ; fan off
M190 S60 ; wait for bed temperature to be reached
M104 T0 S220 ; start heating extruder 1
M109 T0 S220 ; wait for extruder 1
T0 ; set the active extruder to 0
; settings from start_gcode
G28
; automatic settings after start_gcode
T0 ; set the active extruder to 0
G90 ; use absolute coordinates
G92 E0 ; reset the expected extruder position
M82 ; use absolute distance for extrusion
; Layer count: 318
; Layer Change GCode
; LAYER:0
G4 P0
M107
G0 F12000 X60.854 Y-42.409 Z0.8
; TYPE:SKIRT
G1 Z0.3
G1 F6000 E0
G1 F900 X62.316 Y-41.045 E0.14852
G1 X62.972 Y-39.142 E0.29804
G1 X62.972 Y39.145 E6.11317
G1 X62.318 Y41.039 E6.26201
G1 X60.861 Y42.408 E6.41051
G1 X59.101 Y42.972 E6.54779
G1 X-59.101 Y42.972 E15.32779
G1 X-60.861 Y42.408 E15.46507
G1 X-62.318 Y41.039 E15.61358
G1 X-62.972 Y39.145 E15.76241
G1 X-62.972 Y-39.142 E21.57755
G1 X-62.316 Y-41.045 E21.72706
G1 X-60.854 Y-42.409 E21.87558
G1 X-59.101 Y-42.971 E22.01232
G1 X59.101 Y-42.971 E30.79233
G1 X60.854 Y-42.409 E30.92907
G0 F12000 X60.562 Y-41.912
G1 F900 X61.831 Y-40.73 E31.05788
G1 X62.41 Y-39.048 E31.19002
G1 X62.41 Y39.051 E36.99118
G1 X61.832 Y40.724 E37.12266
G1 X60.569 Y41.911 E37.25141
G1 X59.013 Y42.41 E37.37278
G1 X-59.013 Y42.41 E46.13971
G1 X-60.569 Y41.911 E46.26109
G1 X-61.832 Y40.724 E46.38983
G1 X-62.41 Y39.051 E46.52131
G1 X-62.41 Y-39.048 E52.32248
G1 X-61.831 Y-40.73 E52.45461
G1 X-60.562 Y-41.912 E52.58343
G1 X-59.013 Y-42.409 E52.70426
G1 X59.013 Y-42.409 E61.47119
G1 X60.562 Y-41.912 E61.59203
G1 F6000 E59.79203
G1 Z0.8
G0 F12000 X-58.455 Y38.848
; TYPE:WALL-OUTER
G1 Z0.3
G1 F6000 E61.59203
G1 F900 X-58.455 Y38.848 E61.59203
G1 X-58.717 Y38.764 E61.61247
G1 X-58.751 Y38.732 E61.61594
G1 X-58.848 Y38.451 E61.63802
G1 X-58.848 Y-38.451 E67.35027
G1 X-58.752 Y-38.73 E67.37219
G1 X-58.716 Y-38.763 E67.37582
G1 X-58.455 Y-38.847 E67.39618
G1 X58.455 Y-38.847 E76.08022
G1 X58.716 Y-38.763 E76.10058
G1 X58.752 Y-38.73 E76.10421
G1 X58.848 Y-38.451 E76.12613
G1 X58.848 Y38.451 E81.83838
G1 X58.751 Y38.732 E81.86046
G1 X58.717 Y38.764 E81.86393
G1 X58.455 Y38.848 E81.88437
G1 X-58.455 Y38.848 E90.5684
G0 F12000 X-58.286 Y38.286
; TYPE:WALL-INNER
G1 F900 X-58.286 Y38.286 E90.5684
G1 X-58.286 Y-38.285 E96.25607
G1 X58.286 Y-38.285 E104.91499
G1 X58.286 Y38.286 E110.60266
G1 X-58.286 Y38.286 E119.26159
G0 F12000 X-57.724 Y37.724
G1 F900 X-57.724 Y37.724 E119.26159
G1 X-57.724 Y-37.723 E124.86577
G1 X57.724 Y-37.723 E133.4412
G1 X57.724 Y37.724 E139.04538
G1 X-57.724 Y37.724 E147.62082
G0 F12000 X-57.412 Y37.092
; TYPE:BOTTOM-FILL
G1 F900 X57.412 Y37.092 E156.1499
G0 F12000 X57.412 Y36.53
G1 F900 X-57.412 Y36.53 E164.67899
G0 F12000 X-57.412 Y35.968
G1 F900 X57.412 Y35.968 E173.20808
G0 F12000 X57.412 Y35.406
G1 F900 X-57.412 Y35.406 E181.73716
G0 F12000 X-57.412 Y34.844
G1 F900 X57.412 Y34.844 E190.26625
G0 F12000 X57.412 Y34.282
G1 F900 X-57.412 Y34.282 E198.79533
G0 F12000 X-57.412 Y33.72
G1 F900 X57.412 Y33.72 E207.32442
G0 F12000 X57.412 Y33.158
G1 F900 X-57.412 Y33.158 E215.85351
G0 F12000 X-57.412 Y32.596
G1 F900 X57.412 Y32.595 E224.38259
G0 F12000 X57.412 Y32.033
G1 F900 X-57.412 Y32.034 E232.91168
G0 F12000 X-57.412 Y31.472
G1 F900 X57.412 Y31.471 E241.44077
G0 F12000 X57.412 Y30.909
G1 F900 X-57.412 Y30.91 E249.96985
G0 F12000 X-57.412 Y30.348
G1 F900 X57.412 Y30.347 E258.49894
G0 F12000 X57.412 Y29.785
G1 F900 X-57.412 Y29.786 E267.02803
G0 F12000 X-57.412 Y29.224
G1 F900 X57.412 Y29.223 E275.55711
G0 F12000 X57.412 Y28.661
G1 F900 X-57.412 Y28.662 E284.0862
G0 F12000 X-57.412 Y28.1
G1 F900 X57.412 Y28.099 E292.61529
G0 F12000 X57.412 Y27.537
G1 F900 X-57.412 Y27.538 E301.14437
G0 F12000 X-57.412 Y26.976
G1 F900 X57.412 Y26.975 E309.67346
G0 F12000 X57.412 Y26.413
G1 F900 X-57.412 Y26.414 E318.20255
G0 F12000 X-57.412 Y25.852
G1 F900 X57.412 Y25.851 E326.73163
G0 F12000 X57.412 Y25.289
G1 F900 X-57.412 Y25.29 E335.26072
G0 F12000 X-57.412 Y24.728
G1 F900 X57.412 Y24.727 E343.78981
G0 F12000 X57.412 Y24.165
G1 F900 X-57.412 Y24.166 E352.31889
G0 F12000 X-57.412 Y23.604
G1 F900 X57.412 Y23.603 E360.84798
G0 F12000 X57.412 Y23.041
G1 F900 X-57.412 Y23.042 E369.37706
G0 F12000 X-57.412 Y22.48
G1 F900 X57.412 Y22.479 E377.90615
G0 F12000 X57.412 Y21.917
G1 F900 X-57.412 Y21.918 E386.43524
G0 F12000 X-57.412 Y21.356
G1 F900 X57.412 Y21.355 E394.96432
G0 F12000 X57.412 Y20.793
G1 F900 X-57.412 Y20.794 E403.49341
G0 F12000 X-57.412 Y20.232
G1 F900 X57.412 Y20.231 E412.0225
G0 F12000 X57.412 Y19.669
G1 F900 X-57.412 Y19.67 E420.55158
G0 F12000 X-57.412 Y19.108
G1 F900 X57.412 Y19.107 E429.08067
G0 F12000 X57.412 Y18.545
G1 F900 X-57.412 Y18.546 E437.60976
G0 F12000 X-57.412 Y17.984
G1 F900 X57.412 Y17.983 E446.13884
G0 F12000 X57.412 Y17.421
G1 F900 X-57.412 Y17.422 E454.66793
G0 F12000 X-57.412 Y16.86
G1 F900 X57.412 Y16.859 E463.19702
G0 F12000 X57.412 Y16.297
G1 F900 X-57.412 Y16.298 E471.7261
G0 F12000 X-57.412 Y15.736
G1 F900 X57.412 Y15.735 E480.25519
G0 F12000 X57.412 Y15.173
G1 F900 X-57.412 Y15.174 E488.78428
G0 F12000 X-57.412 Y14.612
G1 F900 X57.412 Y14.611 E497.31336
G0 F12000 X57.412 Y14.049
G1 F900 X-57.412 Y14.05 E505.84245
G0 F12000 X-57.412 Y13.488
G1 F900 X57.412 Y13.487 E514.37153
G0 F12000 X57.412 Y12.925
G1 F900 X-57.412 Y12.926 E522.90062
G0 F12000 X-57.412 Y12.364
G1 F900 X57.412 Y12.363 E531.42971
G0 F12000 X57.412 Y11.801
G1 F900 X-57.412 Y11.802 E539.95879
G0 F12000 X-57.412 Y11.24
G1 F900 X57.412 Y11.239 E548.48788
G0 F12000 X57.412 Y10.677
G1 F900 X-57.412 Y10.678 E557.01697
G0 F12000 X-57.412 Y10.116
G1 F900 X57.412 Y10.115 E565.54605
G0 F12000 X57.412 Y9.553
G1 F900 X-57.412 Y9.554 E574.07514
G0 F12000 X-57.412 Y8.992
G1 F900 X57.412 Y8.991 E582.60423
G0 F12000 X57.412 Y8.429
G1 F900 X-57.412 Y8.43 E591.13331
G0 F12000 X-57.412 Y7.868
G1 F900 X57.412 Y7.867 E599.6624
G0 F12000 X57.412 Y7.305
G1 F900 X-57.412 Y7.306 E608.19149
G0 F12000 X-57.412 Y6.744
G1 F900 X57.412 Y6.743 E616.72057
G0 F12000 X57.412 Y6.181
G1 F900 X-57.412 Y6.182 E625.24966
G0 F12000 X-57.412 Y5.62
G1 F900 X57.412 Y5.619 E633.77875
G0 F12000 X57.412 Y5.057
G1 F900 X-57.412 Y5.058 E642.30783
G0 F12000 X-57.412 Y4.496
G1 F900 X57.412 Y4.495 E650.83692
G0 F12000 X57.412 Y3.933
G1 F900 X-57.412 Y3.934 E659.366
G0 F12000 X-57.412 Y3.372
G1 F900 X57.412 Y3.371 E667.89509
G0 F12000 X57.412 Y2.809
G1 F900 X-57.412 Y2.81 E676.42418
G0 F12000 X-57.412 Y2.248
G1 F900 X57.412 Y2.247 E684.95326
G0 F12000 X57.412 Y1.685
G1 F900 X-57.412 Y1.686 E693.48235
G0 F12000 X-57.412 Y1.124
G1 F900 X57.412 Y1.123 E702.01144
G0 F12000 X57.412 Y0.561
G1 F900 X-57.412 Y0.562 E710.54052
G0 F12000 X-57.412 Y0
G1 F900 X57.412 Y0 E719.06961
G0 F12000 X57.412 Y-0.562
G1 F900 X-57.412 Y-0.561 E727.5987
G0 F12000 X-57.412 Y-1.123
G1 F900 X57.412 Y-1.124 E736.12778
G0 F12000 X57.412 Y-1.686
G1 F900 X-57.412 Y-1.685 E744.65687
G0 F12000 X-57.412 Y-2.247
G1 F900 X57.412 Y-2.248 E753.18596
G0 F12000 X57.412 Y-2.81
G1 F900 X-57.412 Y-2.809 E761.71504
G0 F12000 X-57.412 Y-3.371
G1 F900 X57.412 Y-3.372 E770.24413
G0 F12000 X57.412 Y-3.934
G1 F900 X-57.412 Y-3.933 E778.77322
G0 F12000 X-57.412 Y-4.495
G1 F900 X57.412 Y-4.496 E787.3023
G0 F12000 X57.412 Y-5.058
G1 F900 X-57.412 Y-5.057 E795.83139
G0 F12000 X-57.412 Y-5.619
G1 F900 X57.412 Y-5.62 E804.36048
G0 F12000 X57.412 Y-6.182
G1 F900 X-57.412 Y-6.181 E812.88956
G0 F12000 X-57.412 Y-6.743
G1 F900 X57.412 Y-6.744 E821.41865
G0 F12000 X57.412 Y-7.306
G1 F900 X-57.412 Y-7.305 E829.94773
G0 F12000 X-57.412 Y-7.867
G1 F900 X57.412 Y-7.868 E838.47682
G0 F12000 X57.412 Y-8.43
G1 F900 X-57.412 Y-8.429 E847.00591
G0 F12000 X-57.412 Y-8.991
G1 F900 X57.412 Y-8.992 E855.53499
G0 F12000 X57.412 Y-9.554
G1 F900 X-57.412 Y-9.553 E864.06408
G0 F12000 X-57.412 Y-10.115
G1 F900 X57.412 Y-10.116 E872.59317
G0 F12000 X57.412 Y-10.678
G1 F900 X-57.412 Y-10.677 E881.12225
G0 F12000 X-57.412 Y-11.239
G1 F900 X57.412 Y-11.24 E889.65134
G0 F12000 X57.412 Y-11.802
G1 F900 X-57.412 Y-11.801 E898.18043
G0 F12000 X-57.412 Y-12.363
G1 F900 X57.412 Y-12.364 E906.70951
G0 F12000 X57.412 Y-12.926
G1 F900 X-57.412 Y-12.925 E915.2386
G0 F12000 X-57.412 Y-13.487
G1 F900 X57.412 Y-13.488 E923.76769
G0 F12000 X57.412 Y-14.05
G1 F900 X-57.412 Y-14.049 E932.29677
G0 F12000 X-57.412 Y-14.611
G1 F900 X57.412 Y-14.612 E940.82586
G0 F12000 X57.412 Y-15.174
G1 F900 X-57.412 Y-15.173 E949.35495
G0 F12000 X-57.412 Y-15.735
G1 F900 X57.412 Y-15.736 E957.88403
G0 F12000 X57.412 Y-16.298
G1 F900 X-57.412 Y-16.297 E966.41312
G0 F12000 X-57.412 Y-16.859
G1 F900 X57.412 Y-16.86 E974.9422
G0 F12000 X57.412 Y-17.422
G1 F900 X-57.412 Y-17.421 E983.47129
G0 F12000 X-57.412 Y-17.983
G1 F900 X57.412 Y-17.984 E992.00038
G0 F12000 X57.412 Y-18.546
G1 F900 X-57.412 Y-18.545 E1000.52946
G0 F12000 X-57.412 Y-19.107
G1 F900 X57.412 Y-19.108 E1009.05855
G0 F12000 X57.412 Y-19.67
G1 F900 X-57.412 Y-19.669 E1017.58764
G0 F12000 X-57.412 Y-20.231
G1 F900 X57.412 Y-20.232 E1026.11672
G0 F12000 X57.412 Y-20.794
G1 F900 X-57.412 Y-20.793 E1034.64581
G0 F12000 X-57.412 Y-21.355
G1 F900 X57.412 Y-21.356 E1043.1749
G0 F12000 X57.412 Y-21.918
G1 F900 X-57.412 Y-21.917 E1051.70398
G0 F12000 X-57.412 Y-22.479
G1 F900 X57.412 Y-22.48 E1060.23307
G0 F12000 X57.412 Y-23.042
G1 F900 X-57.412 Y-23.041 E1068.76216
G0 F12000 X-57.412 Y-23.603
G1 F900 X57.412 Y-23.604 E1077.29124
G0 F12000 X57.412 Y-24.166
G1 F900 X-57.412 Y-24.165 E1085.82033
G0 F12000 X-57.412 Y-24.727
G1 F900 X57.412 Y-24.728 E1094.34942
G0 F12000 X57.412 Y-25.29
G1 F900 X-57.412 Y-25.289 E1102.8785
G0 F12000 X-57.412 Y-25.851
G1 F900 X57.412 Y-25.852 E1111.40759
G0 F12000 X57.412 Y-26.414
G1 F900 X-57.412 Y-26.413 E1119.93667
G0 F12000 X-57.412 Y-26.975
G1 F900 X57.412 Y-26.976 E1128.46576
G0 F12000 X57.412 Y-27.538
G1 F900 X-57.412 Y-27.537 E1136.99485
G0 F12000 X-57.412 Y-28.099
G1 F900 X57.412 Y-28.1 E1145.52393
G0 F12000 X57.412 Y-28.662
G1 F900 X-57.412 Y-28.661 E1154.05302
G0 F12000 X-57.412 Y-29.223
G1 F900 X57.412 Y-29.224 E1162.58211
G0 F12000 X57.412 Y-29.786
G1 F900 X-57.412 Y-29.785 E1171.11119
G0 F12000 X-57.412 Y-30.347
G1 F900 X57.412 Y-30.348 E1179.64028
G0 F12000 X57.412 Y-30.91
G1 F900 X-57.412 Y-30.909 E1188.16937
G0 F12000 X-57.412 Y-31.471
G1 F900 X57.412 Y-31.472 E1196.69845
G0 F12000 X57.412 Y-32.034
G1 F900 X-57.412 Y-32.033 E1205.22754
G0 F12000 X-57.412 Y-32.595
G1 F900 X57.412 Y-32.596 E1213.75663
G0 F12000 X57.412 Y-33.158
G1 F900 X-57.412 Y-33.158 E1222.28571
G0 F12000 X-57.412 Y-33.72
G1 F900 X57.412 Y-33.72 E1230.8148
G0 F12000 X57.412 Y-34.282
G1 F900 X-57.412 Y-34.282 E1239.34389
G0 F12000 X-57.412 Y-34.844
G1 F900 X57.412 Y-34.844 E1247.87297
G0 F12000 X57.412 Y-35.406
G1 F900 X-57.412 Y-35.406 E1256.40206
G0 F12000 X-57.412 Y-35.968
G1 F900 X57.412 Y-35.968 E1264.93115
G0 F12000 X57.412 Y-36.53
G1 F900 X-57.412 Y-36.53 E1273.46023
G0 F12000 X-57.412 Y-37.092
G1 F900 X57.412 Y-37.092 E1281.98932
; Layer Change GCode
; LAYER:1
G0 F12000 X-58.458 Y38.895 Z0.4
G0 X-58.458 Y38.895
G0 X-58.479 Y39.22
G0 X-58.479 Y39.22
G0 X-58.32 Y38.32
; TYPE:WALL-INNER
G1 F2400 X-58.32 Y38.32 E1281.98932
G1 X-58.32 Y-38.319 E1283.50873
G1 X58.32 Y-38.319 E1285.82118
G1 X58.32 Y38.32 E1287.34059
G1 X-58.32 Y38.32 E1289.65304
G0 F12000 X-58.77 Y38.426
G1 F2400 X-58.77 Y38.426 E1289.65304
G1 X-58.77 Y-38.426 E1291.17667
G1 X-58.728 Y-38.619 E1291.18058
G1 X-58.67 Y-38.705 E1291.18264
G1 X-58.594 Y-38.743 E1291.18432
G1 X-58.444 Y-38.769 E1291.18734
G1 X58.444 Y-38.769 E1293.50471
G1 X58.594 Y-38.743 E1293.50773
G1 X58.67 Y-38.705 E1293.50941
G1 X58.728 Y-38.619 E1293.51147
G1 X58.77 Y-38.426 E1293.51538
G1 X58.77 Y38.426 E1295.03901
G1 X58.728 Y38.621 E1295.04297
G1 X58.671 Y38.706 E1295.045
G1 X58.594 Y38.744 E1295.0467
G1 X58.444 Y38.77 E1295.04972
G1 X-58.444 Y38.77 E1297.36709
G1 X-58.594 Y38.744 E1297.3701
G1 X-58.671 Y38.706 E1297.37181
G1 X-58.728 Y38.621 E1297.37384
G1 X-58.77 Y38.426 E1297.37779
G0 F12000 X-58.479 Y39.22
; TYPE:WALL-OUTER
G1 F1800 X-58.479 Y39.22 E1297.37779
G1 X-58.738 Y39.176 E1297.383
G1 X-58.991 Y39.036 E1297.38873
G1 X-59.15 Y38.799 E1297.39439
G1 X-59.22 Y38.475 E1297.40096
G1 X-59.22 Y-38.475 E1298.92653
G1 X-59.151 Y-38.797 E1298.93306
G1 X-58.961 Y-39.062 E1298.93953
G1 X-58.738 Y-39.175 E1298.94448
G1 X-58.479 Y-39.219 E1298.94969
G1 X58.479 Y-39.219 E1301.26845
G1 X58.738 Y-39.175 E1301.27366
G1 X58.989 Y-39.036 E1301.27934
G1 X59.151 Y-38.797 E1301.28507
G1 X59.22 Y-38.475 E1301.2916
G1 X59.22 Y38.475 E1302.81717
G1 X59.15 Y38.799 E1302.82374
G1 X58.961 Y39.063 E1302.83018
G1 X58.738 Y39.176 E1302.83514
G1 X58.479 Y39.22 E1302.84034
G1 X-58.479 Y39.22 E1305.1591
G0 F12000 X-58.458 Y38.895
G0 X-57.599 Y37.973
G0 X-57.599 Y37.973
; TYPE:FILL
G1 F2400 X-57.6 Y-37.972 E1306.66475
G0 F12000 X-57.15 Y-37.972
G1 F2400 X-57.149 Y37.973 E1308.1704
G0 F12000 X-56.699 Y37.973
G1 F2400 X-56.7 Y-37.972 E1309.67605
G0 F12000 X-56.25 Y-37.972
G1 F2400 X-56.249 Y37.973 E1311.1817
G0 F12000 X-55.799 Y37.973
G1 F2400 X-55.8 Y-37.972 E1312.68735
G0 F12000 X-55.35 Y-37.972
G1 F2400 X-55.349 Y37.973 E1314.193
G0 F12000 X-54.899 Y37.973
G1 F2400 X-54.9 Y-37.972 E1315.69865
G0 F12000 X-54.45 Y-37.972
G1 F2400 X-54.449 Y37.973 E1317.2043
G0 F12000 X-53.999 Y37.973
G1 F2400 X-54 Y-37.972 E1318.70995
G0 F12000 X-53.55 Y-37.972
G1 F2400 X-53.549 Y37.973 E1320.2156
G0 F12000 X-53.099 Y37.973
G1 F2400 X-53.1 Y-37.972 E1321.72125
G0 F12000 X-52.65 Y-37.972
G1 F2400 X-52.649 Y37.973 E1323.2269
G0 F12000 X-52.199 Y37.973
G1 F2400 X-52.2 Y-37.972 E1324.73255
G0 F12000 X-51.75 Y-37.972
G1 F2400 X-51.749 Y37.973 E1326.2382
G0 F12000 X-51.299 Y37.973
G1 F2400 X-51.3 Y-37.972 E1327.74385
G0 F12000 X-50.85 Y-37.972
G1 F2400 X-50.849 Y37.973 E1329.2495
G0 F12000 X-50.399 Y37.973
G1 F2400 X-50.4 Y-37.972 E1330.75515
G0 F12000 X-49.95 Y-37.972
G1 F2400 X-49.949 Y37.973 E1332.2608
G0 F12000 X-49.499 Y37.973
G1 F2400 X-49.5 Y-37.972 E1333.76645
G0 F12000 X-49.05 Y-37.972
G1 F2400 X-49.049 Y37.973 E1335.2721
G0 F12000 X-48.599 Y37.973
G1 F2400 X-48.6 Y-37.972 E1336.77775
G0 F12000 X-48.15 Y-37.972
G1 F2400 X-48.149 Y37.973 E1338.28339
G0 F12000 X-47.699 Y37.973
G1 F2400 X-47.7 Y-37.972 E1339.78904
G0 F12000 X-47.25 Y-37.972
G1 F2400 X-47.249 Y37.973 E1341.29469
G0 F12000 X-46.799 Y37.973
G1 F2400 X-46.8 Y-37.972 E1342.80034
G0 F12000 X-46.35 Y-37.972
G1 F2400 X-46.349 Y37.973 E1344.30599
G0 F12000 X-45.899 Y37.973
G1 F2400 X-45.9 Y-37.972 E1345.81164
G0 F12000 X-45.45 Y-37.972
G1 F2400 X-45.449 Y37.973 E1347.31729
G0 F12000 X-44.999 Y37.973
G1 F2400 X-45 Y-37.972 E1348.82294
G0 F12000 X-44.55 Y-37.972
G1 F2400 X-44.549 Y37.973 E1350.32859
G0 F12000 X-44.099 Y37.973
G1 F2400 X-44.1 Y-37.972 E1351.83424
G0 F12000 X-43.65 Y-37.972
G1 F2400 X-43.649 Y37.973 E1353.33989
G0 F12000 X-43.199 Y37.973
G1 F2400 X-43.2 Y-37.972 E1354.84554
G0 F12000 X-42.75 Y-37.972
G1 F2400 X-42.749 Y37.973 E1356.35119
G0 F12000 X-42.299 Y37.973
G1 F2400 X-42.3 Y-37.972 E1357.85684
G0 F12000 X-41.85 Y-37.972
G1 F2400 X-41.849 Y37.973 E1359.36249
G0 F12000 X-41.399 Y37.973
G1 F2400 X-41.4 Y-37.972 E1360.86814
G0 F12000 X-40.95 Y-37.972
G1 F2400 X-40.949 Y37.973 E1362.37379
G0 F12000 X-40.499 Y37.973
G1 F2400 X-40.5 Y-37.972 E1363.87944
G0 F12000 X-40.05 Y-37.972
G1 F2400 X-40.049 Y37.973 E1365.38509
G0 F12000 X-39.599 Y37.973
G1 F2400 X-39.6 Y-37.972 E1366.89074
G0 F12000 X-39.15 Y-37.972
G1 F2400 X-39.149 Y37.973 E1368.39639
G0 F12000 X-38.699 Y37.973
G1 F2400 X-38.7 Y-37.972 E1369.90204
G0 F12000 X-38.25 Y-37.972
G1 F2400 X-38.249 Y37.973 E1371.40769
G0 F12000 X-37.799 Y37.973
G1 F2400 X-37.8 Y-37.972 E1372.91334
G0 F12000 X-37.35 Y-37.972
G1 F2400 X-37.349 Y37.973 E1374.41899
G0 F12000 X-36.899 Y37.973
G1 F2400 X-36.9 Y-37.972 E1375.92464
G0 F12000 X-36.45 Y-37.972
G1 F2400 X-36.449 Y37.973 E1377.43029
G0 F12000 X-35.999 Y37.973
G1 F2400 X-36 Y-37.972 E1378.93594
G0 F12000 X-35.55 Y-37.972
G1 F2400 X-35.549 Y37.973 E1380.44159
G0 F12000 X-35.099 Y37.973
G1 F2400 X-35.1 Y-37.972 E1381.94724
G0 F12000 X-34.65 Y-37.972
G1 F2400 X-34.649 Y37.973 E1383.45289
G0 F12000 X-34.199 Y37.973
G1 F2400 X-34.2 Y-37.972 E1384.95854
G0 F12000 X-33.75 Y-37.972
G1 F2400 X-33.749 Y37.973 E1386.46419
G0 F12000 X-33.299 Y37.973
G1 F2400 X-33.3 Y-37.972 E1387.96984
G0 F12000 X-32.85 Y-37.972
G1 F2400 X-32.849 Y37.973 E1389.47549
G0 F12000 X-32.399 Y37.973
G1 F2400 X-32.4 Y-37.972 E1390.98114
G0 F12000 X-31.95 Y-37.972
G1 F2400 X-31.949 Y37.973 E1392.48679
G0 F12000 X-31.499 Y37.973
G1 F2400 X-31.5 Y-37.972 E1393.99244
G0 F12000 X-31.05 Y-37.972
G1 F2400 X-31.049 Y37.973 E1395.49809
G0 F12000 X-30.599 Y37.973
G1 F2400 X-30.6 Y-37.972 E1397.00374
G0 F12000 X-30.15 Y-37.972
G1 F2400 X-30.149 Y37.973 E1398.50939
G0 F12000 X-29.699 Y37.973
G1 F2400 X-29.7 Y-37.973 E1400.01506
G0 F12000 X-29.25 Y-37.973
G1 F2400 X-29.249 Y37.973 E1401.52073
G0 F12000 X-28.799 Y37.973
G1 F2400 X-28.8 Y-37.973 E1403.0264
G0 F12000 X-28.35 Y-37.973
G1 F2400 X-28.349 Y37.973 E1404.53207
G0 F12000 X-27.899 Y37.973
G1 F2400 X-27.9 Y-37.973 E1406.03774
G0 F12000 X-27.45 Y-37.973
G1 F2400 X-27.449 Y37.973 E1407.54341
G0 F12000 X-26.999 Y37.973
G1 F2400 X-27 Y-37.973 E1409.04908
G0 F12000 X-26.55 Y-37.973
G1 F2400 X-26.549 Y37.973 E1410.55474
G0 F12000 X-26.099 Y37.973
G1 F2400 X-26.1 Y-37.973 E1412.06041
G0 F12000 X-25.65 Y-37.973
G1 F2400 X-25.649 Y37.973 E1413.56608
G0 F12000 X-25.199 Y37.973
G1 F2400 X-25.2 Y-37.973 E1415.07175
G0 F12000 X-24.75 Y-37.973
G1 F2400 X-24.749 Y37.973 E1416.57742
G0 F12000 X-24.299 Y37.973
G1 F2400 X-24.3 Y-37.973 E1418.08309
G0 F12000 X-23.85 Y-37.973
G1 F2400 X-23.849 Y37.973 E1419.58876
G0 F12000 X-23.399 Y37.973
G1 F2400 X-23.4 Y-37.973 E1421.09443
G0 F12000 X-22.95 Y-37.973
G1 F2400 X-22.949 Y37.973 E1422.6001
G0 F12000 X-22.499 Y37.973
G1 F2400 X-22.5 Y-37.973 E1424.10577
G0 F12000 X-22.05 Y-37.973
G1 F2400 X-22.049 Y37.973 E1425.61144
G0 F12000 X-21.599 Y37.973
G1 F2400 X-21.6 Y-37.973 E1427.11711
G0 F12000 X-21.15 Y-37.973
G1 F2400 X-21.149 Y37.973 E1428.62278
G0 F12000 X-20.699 Y37.973
G1 F2400 X-20.7 Y-37.973 E1430.12845
G0 F12000 X-20.25 Y-37.973
G1 F2400 X-20.249 Y37.973 E1431.63412
G0 F12000 X-19.799 Y37.973
G1 F2400 X-19.8 Y-37.973 E1433.13979
G0 F12000 X-19.35 Y-37.973
G1 F2400 X-19.349 Y37.973 E1434.64546
G0 F12000 X-18.899 Y37.973
G1 F2400 X-18.9 Y-37.973 E1436.15113
G0 F12000 X-18.45 Y-37.973
G1 F2400 X-18.449 Y37.973 E1437.6568
G0 F12000 X-17.999 Y37.973
G1 F2400 X-18 Y-37.973 E1439.16247
G0 F12000 X-17.55 Y-37.973
G1 F2400 X-17.549 Y37.973 E1440.66814
G0 F12000 X-17.099 Y37.973
G1 F2400 X-17.1 Y-37.973 E1442.17381
G0 F12000 X-16.65 Y-37.973
G1 F2400 X-16.649 Y37.973 E1443.67948
G0 F12000 X-16.199 Y37.973
G1 F2400 X-16.2 Y-37.973 E1445.18515
G0 F12000 X-15.75 Y-37.973
G1 F2400 X-15.749 Y37.973 E1446.69082
G0 F12000 X-15.299 Y37.973
G1 F2400 X-15.3 Y-37.973 E1448.19649
G0 F12000 X-14.85 Y-37.973
G1 F2400 X-14.849 Y37.973 E1449.70216
G0 F12000 X-14.399 Y37.973
G1 F2400 X-14.4 Y-37.973 E1451.20783
G0 F12000 X-13.95 Y-37.973
G1 F2400 X-13.949 Y37.973 E1452.71349
G0 F12000 X-13.499 Y37.973
G1 F2400 X-13.5 Y-37.973 E1454.21916
G0 F12000 X-13.05 Y-37.973
G1 F2400 X-13.049 Y37.973 E1455.72483
G0 F12000 X-12.599 Y37.973
G1 F2400 X-12.6 Y-37.973 E1457.2305
G0 F12000 X-12.15 Y-37.973
G1 F2400 X-12.149 Y37.973 E1458.73617
G0 F12000 X-11.699 Y37.973
G1 F2400 X-11.7 Y-37.973 E1460.24184
G0 F12000 X-11.25 Y-37.973
G1 F2400 X-11.249 Y37.973 E1461.74751
G0 F12000 X-10.799 Y37.973
G1 F2400 X-10.8 Y-37.973 E1463.25318
G0 F12000 X-10.35 Y-37.973
G1 F2400 X-10.349 Y37.973 E1464.75885
G0 F12000 X-9.899 Y37.973
G1 F2400 X-9.9 Y-37.973 E1466.26452
G0 F12000 X-9.45 Y-37.973
G1 F2400 X-9.449 Y37.973 E1467.77019
G0 F12000 X-8.999 Y37.973
G1 F2400 X-9 Y-37.973 E1469.27586
G0 F12000 X-8.55 Y-37.973
G1 F2400 X-8.549 Y37.973 E1470.78153
G0 F12000 X-8.099 Y37.973
G1 F2400 X-8.1 Y-37.973 E1472.2872
G0 F12000 X-7.65 Y-37.973
G1 F2400 X-7.649 Y37.973 E1473.79287
G0 F12000 X-7.199 Y37.973
G1 F2400 X-7.2 Y-37.973 E1475.29854
G0 F12000 X-6.75 Y-37.973
G1 F2400 X-6.749 Y37.973 E1476.80421
G0 F12000 X-6.299 Y37.973
G1 F2400 X-6.3 Y-37.973 E1478.30988
G0 F12000 X-5.85 Y-37.973
G1 F2400 X-5.849 Y37.973 E1479.81555
G0 F12000 X-5.399 Y37.973
G1 F2400 X-5.4 Y-37.973 E1481.32122
G0 F12000 X-4.95 Y-37.973
G1 F2400 X-4.949 Y37.973 E1482.82689
G0 F12000 X-4.499 Y37.973
G1 F2400 X-4.5 Y-37.973 E1484.33256
G0 F12000 X-4.05 Y-37.973
G1 F2400 X-4.049 Y37.973 E1485.83823
G0 F12000 X-3.599 Y37.973
G1 F2400 X-3.6 Y-37.973 E1487.3439
G0 F12000 X-3.15 Y-37.973
G1 F2400 X-3.149 Y37.973 E1488.84957
G0 F12000 X-2.699 Y37.973
G1 F2400 X-2.7 Y-37.973 E1490.35524
G0 F12000 X-2.25 Y-37.973
G1 F2400 X-2.249 Y37.973 E1491.86091
G0 F12000 X-1.799 Y37.973
G1 F2400 X-1.8 Y-37.973 E1493.36658
G0 F12000 X-1.35 Y-37.973
G1 F2400 X-1.349 Y37.973 E1494.87224
G0 F12000 X-0.899 Y37.973
G1 F2400 X-0.9 Y-37.973 E1496.37791
G0 F12000 X-0.45 Y-37.973
G1 F2400 X-0.449 Y37.973 E1497.88358
G0 F12000 X0 Y37.974
G1 F2400 X0 Y-37.973 E1499.38927
G0 F12000 X0.449 Y-37.972
G1 F2400 X0.45 Y37.974 E1500.89494
G0 F12000 X0.9 Y37.974
G1 F2400 X0.899 Y-37.972 E1502.40061
G0 F12000 X1.349 Y-37.972
G1 F2400 X1.35 Y37.974 E1503.90628
G0 F12000 X1.8 Y37.974
G1 F2400 X1.799 Y-37.972 E1505.41195
G0 F12000 X2.249 Y-37.972
G1 F2400 X2.25 Y37.974 E1506.91762
G0 F12000 X2.7 Y37.974
G1 F2400 X2.699 Y-37.972 E1508.42329
G0 F12000 X3.149 Y-37.972
G1 F2400 X3.15 Y37.974 E1509.92896
G0 F12000 X3.6 Y37.974
G1 F2400 X3.599 Y-37.972 E1511.43463
G0 F12000 X4.049 Y-37.972
G1 F2400 X4.05 Y37.974 E1512.9403
G0 F12000 X4.5 Y37.974
G1 F2400 X4.499 Y-37.972 E1514.44597
G0 F12000 X4.949 Y-37.972
G1 F2400 X4.95 Y37.974 E1515.95164
G0 F12000 X5.4 Y37.974
G1 F2400 X5.399 Y-37.972 E1517.45731
G0 F12000 X5.849 Y-37.972
G1 F2400 X5.85 Y37.974 E1518.96298
G0 F12000 X6.3 Y37.974
G1 F2400 X6.299 Y-37.972 E1520.46865
G0 F12000 X6.749 Y-37.972
G1 F2400 X6.75 Y37.974 E1521.97432
G0 F12000 X7.2 Y37.974
G1 F2400 X7.199 Y-37.972 E1523.47999
G0 F12000 X7.649 Y-37.972
G1 F2400 X7.65 Y37.974 E1524.98566
G0 F12000 X8.1 Y37.974
G1 F2400 X8.099 Y-37.972 E1526.49133
G0 F12000 X8.549 Y-37.972
G1 F2400 X8.55 Y37.974 E1527.997
G0 F12000 X9 Y37.974
G1 F2400 X8.999 Y-37.972 E1529.50267
G0 F12000 X9.449 Y-37.972
G1 F2400 X9.45 Y37.974 E1531.00834
G0 F12000 X9.9 Y37.974
G1 F2400 X9.899 Y-37.972 E1532.51401
G0 F12000 X10.349 Y-37.972
G1 F2400 X10.35 Y37.974 E1534.01968
G0 F12000 X10.8 Y37.974
G1 F2400 X10.799 Y-37.972 E1535.52535
G0 F12000 X11.249 Y-37.972
G1 F2400 X11.25 Y37.974 E1537.03101
G0 F12000 X11.7 Y37.974
G1 F2400 X11.699 Y-37.972 E1538.53668
G0 F12000 X12.149 Y-37.972
G1 F2400 X12.15 Y37.974 E1540.04235
G0 F12000 X12.6 Y37.974
G1 F2400 X12.599 Y-37.972 E1541.54802
G0 F12000 X13.049 Y-37.972
G1 F2400 X13.05 Y37.974 E1543.05369
G0 F12000 X13.5 Y37.974
G1 F2400 X13.499 Y-37.972 E1544.55936
G0 F12000 X13.949 Y-37.972
G1 F2400 X13.95 Y37.974 E1546.06503
G0 F12000 X14.4 Y37.974
G1 F2400 X14.399 Y-37.972 E1547.5707
G0 F12000 X14.849 Y-37.972
G1 F2400 X14.85 Y37.974 E1549.07637
G0 F12000 X15.3 Y37.974
G1 F2400 X15.299 Y-37.972 E1550.58204
G0 F12000 X15.749 Y-37.972
G1 F2400 X15.75 Y37.974 E1552.08771
G0 F12000 X16.2 Y37.974
G1 F2400 X16.199 Y-37.972 E1553.59338
G0 F12000 X16.649 Y-37.972
G1 F2400 X16.65 Y37.974 E1555.09905
G0 F12000 X17.1 Y37.974
G1 F2400 X17.099 Y-37.972 E1556.60472
G0 F12000 X17.549 Y-37.972
G1 F2400 X17.55 Y37.974 E1558.11039
G0 F12000 X18 Y37.974
G1 F2400 X17.999 Y-37.972 E1559.61606
G0 F12000 X18.449 Y-37.972
G1 F2400 X18.45 Y37.974 E1561.12173
G0 F12000 X18.9 Y37.974
G1 F2400 X18.899 Y-37.972 E1562.6274
G0 F12000 X19.349 Y-37.972
G1 F2400 X19.35 Y37.974 E1564.13307
G0 F12000 X19.8 Y37.974
G1 F2400 X19.799 Y-37.972 E1565.63874
G0 F12000 X20.249 Y-37.972
G1 F2400 X20.25 Y37.974 E1567.14441
G0 F12000 X20.7 Y37.974
G1 F2400 X20.699 Y-37.972 E1568.65008
G0 F12000 X21.149 Y-37.972
G1 F2400 X21.15 Y37.974 E1570.15575
G0 F12000 X21.6 Y37.974
G1 F2400 X21.599 Y-37.972 E1571.66142
G0 F12000 X22.049 Y-37.972
G1 F2400 X22.05 Y37.974 E1573.16709
G0 F12000 X22.5 Y37.974
G1 F2400 X22.499 Y-37.972 E1574.67276
G0 F12000 X22.949 Y-37.972
G1 F2400 X22.95 Y37.974 E1576.17843
G0 F12000 X23.4 Y37.974
G1 F2400 X23.399 Y-37.972 E1577.6841
G0 F12000 X23.849 Y-37.972
G1 F2400 X23.85 Y37.974 E1579.18976
G0 F12000 X24.3 Y37.974
G1 F2400 X24.299 Y-37.972 E1580.69543
G0 F12000 X24.749 Y-37.972
G1 F2400 X24.75 Y37.974 E1582.2011
G0 F12000 X25.2 Y37.974
G1 F2400 X25.199 Y-37.972 E1583.70677
G0 F12000 X25.649 Y-37.972
G1 F2400 X25.65 Y37.974 E1585.21244
G0 F12000 X26.1 Y37.974
G1 F2400 X26.099 Y-37.972 E1586.71811
G0 F12000 X26.549 Y-37.972
G1 F2400 X26.55 Y37.974 E1588.22378
G0 F12000 X27 Y37.974
G1 F2400 X26.999 Y-37.972 E1589.72945
G0 F12000 X27.449 Y-37.972
G1 F2400 X27.45 Y37.974 E1591.23512
G0 F12000 X27.9 Y37.974
G1 F2400 X27.899 Y-37.972 E1592.74079
G0 F12000 X28.349 Y-37.972
G1 F2400 X28.35 Y37.974 E1594.24646
G0 F12000 X28.8 Y37.974
G1 F2400 X28.799 Y-37.972 E1595.75213
G0 F12000 X29.249 Y-37.972
G1 F2400 X29.25 Y37.974 E1597.2578
G0 F12000 X29.7 Y37.974
G1 F2400 X29.699 Y-37.972 E1598.76347
G0 F12000 X30.149 Y-37.972
G1 F2400 X30.15 Y37.973 E1600.26912
G0 F12000 X30.6 Y37.973
G1 F2400 X30.599 Y-37.972 E1601.77477
G0 F12000 X31.049 Y-37.972
G1 F2400 X31.05 Y37.973 E1603.28042
G0 F12000 X31.5 Y37.973
G1 F2400 X31.499 Y-37.972 E1604.78607
G0 F12000 X31.949 Y-37.972
G1 F2400 X31.95 Y37.973 E1606.29172
G0 F12000 X32.4 Y37.973
G1 F2400 X32.399 Y-37.972 E1607.79737
G0 F12000 X32.849 Y-37.972
G1 F2400 X32.85 Y37.973 E1609.30302
G0 F12000 X33.3 Y37.973
G1 F2400 X33.299 Y-37.972 E1610.80867
G0 F12000 X33.749 Y-37.972
G1 F2400 X33.75 Y37.973 E1612.31432
G0 F12000 X34.2 Y37.973
G1 F2400 X34.199 Y-37.972 E1613.81997
G0 F12000 X34.649 Y-37.972
G1 F2400 X34.65 Y37.973 E1615.32562
G0 F12000 X35.1 Y37.973
G1 F2400 X35.099 Y-37.972 E1616.83127
G0 F12000 X35.549 Y-37.972
G1 F2400 X35.55 Y37.973 E1618.33692
G0 F12000 X36 Y37.973
G1 F2400 X35.999 Y-37.972 E1619.84257
G0 F12000 X36.449 Y-37.972
G1 F2400 X36.45 Y37.973 E1621.34822
G0 F12000 X36.9 Y37.973
G1 F2400 X36.899 Y-37.972 E1622.85387
G0 F12000 X37.349 Y-37.972
G1 F2400 X37.35 Y37.973 E1624.35952
G0 F12000 X37.8 Y37.973
G1 F2400 X37.799 Y-37.972 E1625.86517
G0 F12000 X38.249 Y-37.972
G1 F2400 X38.25 Y37.973 E1627.37082
G0 F12000 X38.7 Y37.973
G1 F2400 X38.699 Y-37.972 E1628.87647
G0 F12000 X39.149 Y-37.972
G1 F2400 X39.15 Y37.973 E1630.38212
G0 F12000 X39.6 Y37.973
G1 F2400 X39.599 Y-37.972 E1631.88777
G0 F12000 X40.049 Y-37.972
G1 F2400 X40.05 Y37.973 E1633.39342
G0 F12000 X40.5 Y37.973
G1 F2400 X40.499 Y-37.972 E1634.89907
G0 F12000 X40.949 Y-37.972
G1 F2400 X40.95 Y37.973 E1636.40472
G0 F12000 X41.4 Y37.973
G1 F2400 X41.399 Y-37.972 E1637.91037
G0 F12000 X41.849 Y-37.972
G1 F2400 X41.85 Y37.973 E1639.41602
G0 F12000 X42.3 Y37.973
G1 F2400 X42.299 Y-37.972 E1640.92167
G0 F12000 X42.749 Y-37.972
G1 F2400 X42.75 Y37.973 E1642.42731
G0 F12000 X43.2 Y37.973
G1 F2400 X43.199 Y-37.972 E1643.93296
G0 F12000 X43.649 Y-37.972
G1 F2400 X43.65 Y37.973 E1645.43861
G0 F12000 X44.1 Y37.973
G1 F2400 X44.099 Y-37.972 E1646.94426
G0 F12000 X44.549 Y-37.972
G1 F2400 X44.55 Y37.973 E1648.44991
G0 F12000 X45 Y37.973
G1 F2400 X44.999 Y-37.972 E1649.95556
G0 F12000 X45.449 Y-37.972
G1 F2400 X45.45 Y37.973 E1651.46121
G0 F12000 X45.9 Y37.973
G1 F2400 X45.899 Y-37.972 E1652.96686
G0 F12000 X46.349 Y-37.972
G1 F2400 X46.35 Y37.973 E1654.47251
G0 F12000 X46.8 Y37.973
G1 F2400 X46.799 Y-37.972 E1655.97816
G0 F12000 X47.249 Y-37.972
G1 F2400 X47.25 Y37.973 E1657.48381
G0 F12000 X47.7 Y37.973
G1 F2400 X47.699 Y-37.972 E1658.98946
G0 F12000 X48.149 Y-37.972
G1 F2400 X48.15 Y37.973 E1660.49511
G0 F12000 X48.6 Y37.973
G1 F2400 X48.599 Y-37.972 E1662.00076
G0 F12000 X49.049 Y-37.972
G1 F2400 X49.05 Y37.973 E1663.50641
G0 F12000 X49.5 Y37.973
G1 F2400 X49.499 Y-37.972 E1665.01206
G0 F12000 X49.949 Y-37.972
G1 F2400 X49.95 Y37.973 E1666.51771
G0 F12000 X50.4 Y37.973
G1 F2400 X50.399 Y-37.972 E1668.02336
G0 F12000 X50.849 Y-37.972
G1 F2400 X50.85 Y37.973 E1669.52901
G0 F12000 X51.3 Y37.973
G1 F2400 X51.299 Y-37.972 E1671.03466
G0 F12000 X51.749 Y-37.972
G1 F2400 X51.75 Y37.973 E1672.54031
G0 F12000 X52.2 Y37.973
G1 F2400 X52.199 Y-37.972 E1674.04596
G0 F12000 X52.649 Y-37.972
G1 F2400 X52.65 Y37.973 E1675.55161
G0 F12000 X53.1 Y37.973
G1 F2400 X53.099 Y-37.972 E1677.05726
G0 F12000 X53.549 Y-37.972
G1 F2400 X53.55 Y37.973 E1678.56291
G0 F12000 X54 Y37.973
G1 F2400 X53.999 Y-37.972 E1680.06856
G0 F12000 X54.449 Y-37.972
G1 F2400 X54.45 Y37.973 E1681.57421
G0 F12000 X54.9 Y37.973
G1 F2400 X54.899 Y-37.972 E1683.07986
G0 F12000 X55.349 Y-37.972
G1 F2400 X55.35 Y37.973 E1684.58551
G0 F12000 X55.8 Y37.973
G1 F2400 X55.799 Y-37.972 E1686.09116
G0 F12000 X56.249 Y-37.972
G1 F2400 X56.25 Y37.973 E1687.59681
G0 F12000 X56.7 Y37.973
G1 F2400 X56.699 Y-37.972 E1689.10246
G0 F12000 X57.149 Y-37.972
G1 F2400 X57.15 Y37.973 E1690.60811
G0 F12000 X57.6 Y37.973
G1 F2400 X57.599 Y-37.972 E1692.11376
G0 F12000 X58.12 Y-37.8
; TYPE:BOTTOM-FILL
G1 F2400 X-58.12 Y-37.8 E1694.41828
G0 F12000 X-58.12 Y-37.35
G1 F2400 X-57.474 Y-37.125 E1694.43109
G1 X-58.12 Y-36.675 E1694.44389
G1 X-57.474 Y-36.225 E1694.45668
G1 X-58.12 Y-35.775 E1694.46948
G1 X-57.474 Y-35.325 E1694.48228
G1 X-58.12 Y-34.875 E1694.49508
G1 X-57.474 Y-34.425 E1694.50788
G1 X-58.12 Y-33.975 E1694.52068
G1 X-57.474 Y-33.525 E1694.53348
G1 X-58.12 Y-33.075 E1694.54628
G1 X-57.474 Y-32.624 E1694.55908
G1 X-58.12 Y-32.174 E1694.57188
G1 X-57.474 Y-31.724 E1694.58468
G1 X-58.12 Y-31.274 E1694.59748
G1 X-57.474 Y-30.824 E1694.61028
G1 X-58.12 Y-30.374 E1694.62308
G1 X-57.474 Y-29.924 E1694.63588
G1 X-58.12 Y-29.474 E1694.64868
G1 X-57.474 Y-29.024 E1694.66147
G1 X-58.12 Y-28.574 E1694.67427
G1 X-57.474 Y-28.124 E1694.68707
G1 X-58.12 Y-27.674 E1694.69987
G1 X-57.474 Y-27.224 E1694.71267
G1 X-58.12 Y-26.774 E1694.72547
G1 X-57.474 Y-26.324 E1694.73827
G1 X-58.12 Y-25.874 E1694.75107
G1 X-57.474 Y-25.424 E1694.76387
G1 X-58.12 Y-24.974 E1694.77666
G1 X-57.474 Y-24.524 E1694.78946
G1 X-58.12 Y-24.074 E1694.80226
G1 X-57.474 Y-23.624 E1694.81506
G1 X-58.12 Y-23.174 E1694.82786
G1 X-57.474 Y-22.724 E1694.84066
G1 X-58.12 Y-22.274 E1694.85346
G1 X-57.474 Y-21.824 E1694.86626
G1 X-58.12 Y-21.374 E1694.87905
G1 X-57.474 Y-20.924 E1694.89185
G1 X-58.12 Y-20.474 E1694.90465
G1 X-57.474 Y-20.024 E1694.91745
G1 X-58.12 Y-19.574 E1694.93025
G1 X-57.474 Y-19.124 E1694.94305
G1 X-58.12 Y-18.674 E1694.95585
G1 X-57.474 Y-18.224 E1694.96865
G1 X-58.12 Y-17.774 E1694.98145
G1 X-57.474 Y-17.324 E1694.99424
G1 X-58.12 Y-16.874 E1695.00704
G1 X-57.474 Y-16.424 E1695.01984
G1 X-58.12 Y-15.974 E1695.03264
G1 X-57.474 Y-15.524 E1695.04544
G1 X-58.12 Y-15.074 E1695.05824
G1 X-57.474 Y-14.624 E1695.07104
G1 X-58.12 Y-14.174 E1695.08384
G1 X-57.474 Y-13.724 E1695.09663
G1 X-58.12 Y-13.274 E1695.10943
G1 X-57.474 Y-12.824 E1695.12223
G1 X-58.12 Y-12.374 E1695.13503
G1 X-57.474 Y-11.924 E1695.14783
G1 X-58.12 Y-11.474 E1695.16063
G1 X-57.474 Y-11.024 E1695.17343
G1 X-58.12 Y-10.574 E1695.18623
G1 X-57.474 Y-10.124 E1695.19903
G1 X-58.12 Y-9.674 E1695.21182
G1 X-57.474 Y-9.224 E1695.22462
G1 X-58.12 Y-8.774 E1695.23742
G1 X-57.474 Y-8.324 E1695.25022
G1 X-58.12 Y-7.874 E1695.26302
G1 X-57.474 Y-7.424 E1695.27582
G1 X-58.12 Y-6.974 E1695.28862
G1 X-57.474 Y-6.524 E1695.30142
G1 X-58.12 Y-6.074 E1695.31421
G1 X-57.474 Y-5.624 E1695.32701
G1 X-58.12 Y-5.174 E1695.33981
G1 X-57.474 Y-4.724 E1695.35261
G1 X-58.12 Y-4.274 E1695.36541
G1 X-57.474 Y-3.824 E1695.37821
G1 X-58.12 Y-3.374 E1695.39101
G1 X-57.474 Y-2.924 E1695.40381
G1 X-58.12 Y-2.474 E1695.41661
G1 X-57.474 Y-2.024 E1695.4294
G1 X-58.12 Y-1.574 E1695.4422
G1 X-57.474 Y-1.124 E1695.455
G1 X-58.12 Y-0.674 E1695.4678
G1 X-57.474 Y-0.224 E1695.4806
G1 X-58.12 Y0.225 E1695.49339
G1 X-57.474 Y0.675 E1695.50619
G1 X-58.12 Y1.125 E1695.51899
G1 X-57.474 Y1.575 E1695.53179
G1 X-58.12 Y2.025 E1695.54458
G1 X-57.474 Y2.475 E1695.55738
G1 X-58.12 Y2.925 E1695.57018
G1 X-57.474 Y3.375 E1695.58298
G1 X-58.12 Y3.825 E1695.59578
G1 X-57.474 Y4.275 E1695.60858
G1 X-58.12 Y4.725 E1695.62138
G1 X-57.474 Y5.175 E1695.63418
G1 X-58.12 Y5.625 E1695.64698
G1 X-57.474 Y6.075 E1695.65977
G1 X-58.12 Y6.525 E1695.67257
G1 X-57.474 Y6.975 E1695.68537
G1 X-58.12 Y7.425 E1695.69817
G1 X-57.474 Y7.875 E1695.71097
G1 X-58.12 Y8.325 E1695.72377
G1 X-57.474 Y8.775 E1695.73657
G1 X-58.12 Y9.225 E1695.74937
G1 X-57.474 Y9.675 E1695.76216
G1 X-58.12 Y10.125 E1695.77496
G1 X-57.474 Y10.575 E1695.78776
G1 X-58.12 Y11.025 E1695.80056
G1 X-57.474 Y11.475 E1695.81336
G1 X-58.12 Y11.925 E1695.82616
G1 X-57.474 Y12.375 E1695.83896
G1 X-58.12 Y12.825 E1695.85176
G1 X-57.474 Y13.275 E1695.86456
G1 X-58.12 Y13.725 E1695.87735
G1 X-57.474 Y14.175 E1695.89015
G1 X-58.12 Y14.625 E1695.90295
G1 X-57.474 Y15.075 E1695.91575
G1 X-58.12 Y15.525 E1695.92855
G1 X-57.474 Y15.975 E1695.94135
G1 X-58.12 Y16.425 E1695.95415
G1 X-57.474 Y16.875 E1695.96695
G1 X-58.12 Y17.325 E1695.97974
G1 X-57.474 Y17.775 E1695.99254
G1 X-58.12 Y18.225 E1696.00534
G1 X-57.474 Y18.675 E1696.01814
G1 X-58.12 Y19.125 E1696.03094
G1 X-57.474 Y19.575 E1696.04374
G1 X-58.12 Y20.025 E1696.05654
G1 X-57.474 Y20.475 E1696.06934
G1 X-58.12 Y20.925 E1696.08214
G1 X-57.474 Y21.375 E1696.09493
G1 X-58.12 Y21.825 E1696.10773
G1 X-57.474 Y22.275 E1696.12053
G1 X-58.12 Y22.725 E1696.13333
G1 X-57.474 Y23.175 E1696.14613
G1 X-58.12 Y23.625 E1696.15893
G1 X-57.474 Y24.075 E1696.17173
G1 X-58.12 Y24.525 E1696.18453
G1 X-57.474 Y24.975 E1696.19732
G1 X-58.12 Y25.425 E1696.21012
G1 X-57.474 Y25.875 E1696.22292
G1 X-58.12 Y26.325 E1696.23572
G1 X-57.474 Y26.775 E1696.24852
G1 X-58.12 Y27.225 E1696.26132
G1 X-57.474 Y27.675 E1696.27412
G1 X-58.12 Y28.125 E1696.28692
G1 X-57.474 Y28.575 E1696.29971
G1 X-58.12 Y29.025 E1696.31251
G1 X-57.474 Y29.475 E1696.32531
G1 X-58.12 Y29.925 E1696.33811
G1 X-57.474 Y30.375 E1696.35091
G1 X-58.12 Y30.825 E1696.36371
G1 X-57.474 Y31.275 E1696.37651
G1 X-58.12 Y31.725 E1696.38931
G1 X-57.474 Y32.175 E1696.40211
G1 X-58.12 Y32.625 E1696.4149
G1 X-57.474 Y33.075 E1696.4277
G1 X-58.12 Y33.525 E1696.4405
G1 X-57.474 Y33.975 E1696.4533
G1 X-58.12 Y34.425 E1696.4661
G1 X-57.474 Y34.875 E1696.4789
G1 X-58.12 Y35.325 E1696.4917
G1 X-57.474 Y35.775 E1696.5045
G1 X-58.12 Y36.225 E1696.51729
G1 X-57.474 Y36.675 E1696.53009
G1 X-58.12 Y37.125 E1696.54289
G1 X-57.474 Y37.35 E1696.55645
G0 F12000 X-58.12 Y37.8
G1 F2400 X58.12 Y37.8 E1698.86097
G0 F12000 X58.12 Y37.35
G1 F2400 X57.474 Y37.125 E1698.87378
G1 X58.12 Y36.675 E1698.88658
G1 X57.474 Y36.225 E1698.89938
G1 X58.12 Y35.775 E1698.91218
G1 X57.474 Y35.325 E1698.92498
G1 X58.12 Y34.875 E1698.93778
G1 X57.474 Y34.425 E1698.95058
G1 X58.12 Y33.975 E1698.96337
G1 X57.474 Y33.525 E1698.97617
G1 X58.12 Y33.075 E1698.98897
G1 X57.474 Y32.624 E1699.00178
G1 X58.12 Y32.174 E1699.01458
G1 X57.474 Y31.724 E1699.02738
G1 X58.12 Y31.274 E1699.04018
G1 X57.474 Y30.824 E1699.05298
G1 X58.12 Y30.374 E1699.06577
G1 X57.474 Y29.924 E1699.07857
G1 X58.12 Y29.474 E1699.09137
G1 X57.474 Y29.024 E1699.10417
G1 X58.12 Y28.574 E1699.11697
G1 X57.474 Y28.124 E1699.12977
G1 X58.12 Y27.674 E1699.14257
G1 X57.474 Y27.224 E1699.15537
G1 X58.12 Y26.774 E1699.16816
G1 X57.474 Y26.324 E1699.18096
G1 X58.12 Y25.874 E1699.19376
G1 X57.474 Y25.424 E1699.20656
G1 X58.12 Y24.974 E1699.21936
G1 X57.474 Y24.524 E1699.23216
G1 X58.12 Y24.074 E1699.24496
G1 X57.474 Y23.624 E1699.25776
G1 X58.12 Y23.174 E1699.27056
G1 X57.474 Y22.724 E1699.28335
G1 X58.12 Y22.274 E1699.29615
G1 X57.474 Y21.824 E1699.30895
G1 X58.12 Y21.374 E1699.32175
G1 X57.474 Y20.924 E1699.33455
G1 X58.12 Y20.474 E1699.34735
G1 X57.474 Y20.024 E1699.36015
G1 X58.12 Y19.574 E1699.37295
G1 X57.474 Y19.124 E1699.38574
G1 X58.12 Y18.674 E1699.39854
G1 X57.474 Y18.224 E1699.41134
G1 X58.12 Y17.774 E1699.42414
G1 X57.474 Y17.324 E1699.43694
G1 X58.12 Y16.874 E1699.44974
G1 X57.474 Y16.424 E1699.46254
G1 X58.12 Y15.974 E1699.47534
G1 X57.474 Y15.524 E1699.48814
G1 X58.12 Y15.074 E1699.50093
G1 X57.474 Y14.624 E1699.51373
G1 X58.12 Y14.174 E1699.52653
G1 X57.474 Y13.724 E1699.53933
G1 X58.12 Y13.274 E1699.55213
G1 X57.474 Y12.824 E1699.56493
G1 X58.12 Y12.374 E1699.57773
G1 X57.474 Y11.924 E1699.59053
G1 X58.12 Y11.474 E1699.60332
G1 X57.474 Y11.024 E1699.61612
G1 X58.12 Y10.574 E1699.62892
G1 X57.474 Y10.124 E1699.64172
G1 X58.12 Y9.674 E1699.65452
G1 X57.474 Y9.224 E1699.66732
G1 X58.12 Y8.774 E1699.68012
G1 X57.474 Y8.324 E1699.69292
G1 X58.12 Y7.874 E1699.70572
G1 X57.474 Y7.424 E1699.71851
G1 X58.12 Y6.974 E1699.73131
G1 X57.474 Y6.524 E1699.74411
G1 X58.12 Y6.074 E1699.75691
G1 X57.474 Y5.624 E1699.76971
G1 X58.12 Y5.174 E1699.78251
G1 X57.474 Y4.724 E1699.79531
G1 X58.12 Y4.274 E1699.80811
G1 X57.474 Y3.824 E1699.8209
G1 X58.12 Y3.374 E1699.8337
G1 X57.474 Y2.924 E1699.8465
G1 X58.12 Y2.474 E1699.8593
G1 X57.474 Y2.024 E1699.8721
G1 X58.12 Y1.574 E1699.8849
G1 X57.474 Y1.124 E1699.8977
G1 X58.12 Y0.674 E1699.9105
G1 X57.474 Y0.224 E1699.9233
G1 X58.12 Y-0.225 E1699.93608
G1 X57.474 Y-0.675 E1699.94888
G1 X58.12 Y-1.125 E1699.96168
G1 X57.474 Y-1.575 E1699.97448
G1 X58.12 Y-2.025 E1699.98728
G1 X57.474 Y-2.475 E1700.00008
G1 X58.12 Y-2.925 E1700.01288
G1 X57.474 Y-3.375 E1700.02568
G1 X58.12 Y-3.825 E1700.03848
G1 X57.474 Y-4.275 E1700.05127
G1 X58.12 Y-4.725 E1700.06407
G1 X57.474 Y-5.175 E1700.07687
G1 X58.12 Y-5.625 E1700.08967
G1 X57.474 Y-6.075 E1700.10247
G1 X58.12 Y-6.525 E1700.11527
G1 X57.474 Y-6.975 E1700.12807
G1 X58.12 Y-7.425 E1700.14087
G1 X57.474 Y-7.875 E1700.15366
G1 X58.12 Y-8.325 E1700.16646
G1 X57.474 Y-8.775 E1700.17926
G1 X58.12 Y-9.225 E1700.19206
G1 X57.474 Y-9.675 E1700.20486
G1 X58.12 Y-10.125 E1700.21766
G1 X57.474 Y-10.575 E1700.23046
G1 X58.12 Y-11.025 E1700.24326
G1 X57.474 Y-11.475 E1700.25606
G1 X58.12 Y-11.925 E1700.26885
G1 X57.474 Y-12.375 E1700.28165
G1 X58.12 Y-12.825 E1700.29445
G1 X57.474 Y-13.275 E1700.30725
G1 X58.12 Y-13.725 E1700.32005
G1 X57.474 Y-14.175 E1700.33285
G1 X58.12 Y-14.625 E1700.34565
G1 X57.474 Y-15.075 E1700.35845
G1 X58.12 Y-15.525 E1700.37124
G1 X57.474 Y-15.975 E1700.38404
G1 X58.12 Y-16.425 E1700.39684
G1 X57.474 Y-16.875 E1700.40964
G1 X58.12 Y-17.325 E1700.42244
G1 X57.474 Y-17.775 E1700.43524
G1 X58.12 Y-18.225 E1700.44804
G1 X57.474 Y-18.675 E1700.46084
G1 X58.12 Y-19.125 E1700.47364
G1 X57.474 Y-19.575 E1700.48643
G1 X58.12 Y-20.025 E1700.49923
G1 X57.474 Y-20.475 E1700.51203
G1 X58.12 Y-20.925 E1700.52483
G1 X57.474 Y-21.375 E1700.53763
G1 X58.12 Y-21.825 E1700.55043
G1 X57.474 Y-22.275 E1700.56323
G1 X58.12 Y-22.725 E1700.57603
G1 X57.474 Y-23.175 E1700.58882
G1 X58.12 Y-23.625 E1700.60162
G1 X57.474 Y-24.075 E1700.61442
G1 X58.12 Y-24.525 E1700.62722
G1 X57.474 Y-24.975 E1700.64002
G1 X58.12 Y-25.425 E1700.65282
G1 X57.474 Y-25.875 E1700.66562
G1 X58.12 Y-26.325 E1700.67842
G1 X57.474 Y-26.775 E1700.69122
G1 X58.12 Y-27.225 E1700.70401
G1 X57.474 Y-27.675 E1700.71681
G1 X58.12 Y-28.125 E1700.72961
G1 X57.474 Y-28.575 E1700.74241
G1 X58.12 Y-29.025 E1700.75521
G1 X57.474 Y-29.475 E1700.76801
G1 X58.12 Y-29.925 E1700.78081
G1 X57.474 Y-30.375 E1700.79361
G1 X58.12 Y-30.825 E1700.8064
G1 X57.474 Y-31.275 E1700.8192
G1 X58.12 Y-31.725 E1700.832
G1 X57.474 Y-32.175 E1700.8448
G1 X58.12 Y-32.625 E1700.8576
G1 X57.474 Y-33.075 E1700.8704
G1 X58.12 Y-33.525 E1700.8832
G1 X57.474 Y-33.975 E1700.896
G1 X58.12 Y-34.425 E1700.9088
G1 X57.474 Y-34.875 E1700.92159
G1 X58.12 Y-35.325 E1700.93439
G1 X57.474 Y-35.775 E1700.94719
G1 X58.12 Y-36.225 E1700.95999
G1 X57.474 Y-36.675 E1700.97279
G1 X58.12 Y-37.125 E1700.98559
G1 X57.474 Y-37.35 E1700.99915
; Layer Change GCode
; LAYER:2
G0 F12000 X58.458 Y38.917 Z0.5
G0 X58.463 Y39.317
G0 X58.461 Y39.018
G0 X58.461 Y39.018
G0 X58.482 Y39.343
G0 X58.482 Y39.343
G0 X58.434 Y38.437
; TYPE:WALL-INNER
G1 F2400 X58.434 Y38.437 E1700.99915
G1 X-58.434 Y38.435 E1703.31612
G1 X-58.433 Y-38.437 E1704.84015
G1 X-58.421 Y-38.443 E1704.84041
G1 X58.434 Y-38.435 E1707.15713
G1 X58.434 Y38.437 E1708.68115
G0 F12000 X58.451 Y38.893
G1 F2400 X58.451 Y38.893 E1708.68115
G1 X-58.567 Y38.878 E1711.0011
G1 X-58.74 Y38.792 E1711.00493
G1 X-58.855 Y38.625 E1711.00895
G1 X-58.893 Y38.435 E1711.01279
G1 X-58.893 Y-38.434 E1712.53676
G1 X-58.855 Y-38.623 E1712.54058
G1 X-58.746 Y-38.785 E1712.54445
G1 X-58.552 Y-38.879 E1712.54873
G1 X-58.451 Y-38.893 E1712.55075
G1 X58.567 Y-38.878 E1714.87069
G1 X58.746 Y-38.785 E1714.87469
G1 X58.855 Y-38.623 E1714.87856
G1 X58.893 Y-38.434 E1714.88238
G1 X58.893 Y38.435 E1716.40635
G1 X58.855 Y38.625 E1716.41019
G1 X58.747 Y38.785 E1716.41402
G1 X58.554 Y38.878 E1716.41827
G1 X58.451 Y38.893 E1716.42033
G0 F12000 X58.482 Y39.343
; TYPE:WALL-OUTER
G1 F1800 X58.482 Y39.343 E1716.42033
G1 X-58.563 Y39.335 E1718.74081
G1 X-58.711 Y39.31 E1718.74379
G1 X-58.984 Y39.173 E1718.74984
G1 X-59.081 Y39.096 E1718.7523
G1 X-59.279 Y38.801 E1718.75934
G1 X-59.343 Y38.476 E1718.76591
G1 X-59.343 Y-38.475 E1720.2915
G1 X-59.279 Y-38.799 E1720.29805
G1 X-59.079 Y-39.096 E1720.30515
G1 X-58.984 Y-39.172 E1720.30756
G1 X-58.686 Y-39.314 E1720.3141
G1 X-58.482 Y-39.343 E1720.31819
G1 X58.563 Y-39.335 E1722.63867
G1 X58.711 Y-39.31 E1722.64164
G1 X58.983 Y-39.172 E1722.64769
G1 X59.079 Y-39.096 E1722.65012
G1 X59.279 Y-38.799 E1722.65722
G1 X59.343 Y-38.475 E1722.66377
G1 X59.343 Y38.476 E1724.18936
G1 X59.279 Y38.801 E1724.19593
G1 X59.081 Y39.096 E1724.20297
G1 X58.984 Y39.173 E1724.20543
G1 X58.686 Y39.314 E1724.21196
G1 X58.482 Y39.343 E1724.21605
G0 F12000 X58.541 Y38.635
; TYPE:FILL
G1 F2400 X58.551 Y38.6 E1724.21671
G1 X58.55 Y38.539 E1724.21724
G0 F12000 X58.234 Y37.8
G1 F2400 X-58.234 Y37.8 E1726.52628
G0 F12000 X-58.234 Y37.35
G1 F2400 X58.234 Y37.35 E1728.83532
G0 F12000 X58.234 Y36.9
G1 F2400 X-58.234 Y36.9 E1731.14436
G0 F12000 X-58.234 Y36.45
G1 F2400 X58.234 Y36.45 E1733.4534
G0 F12000 X58.234 Y36
G1 F2400 X-58.234 Y36 E1735.76244
G0 F12000 X-58.234 Y35.55
G1 F2400 X58.234 Y35.55 E1738.07148
G0 F12000 X58.234 Y35.1
G1 F2400 X-58.234 Y35.1 E1740.38052
G0 F12000 X-58.234 Y34.65
G1 F2400 X58.234 Y34.65 E1742.68956
G0 F12000 X58.234 Y34.2
G1 F2400 X-58.234 Y34.2 E1744.9986
G0 F12000 X-58.234 Y33.75
G1 F2400 X58.234 Y33.75 E1747.30764
G0 F12000 X58.234 Y33.3
G1 F2400 X-58.234 Y33.3 E1749.61668
G0 F12000 X-58.234 Y32.85
G1 F2400 X58.234 Y32.85 E1751.92572
G0 F12000 X58.234 Y32.399
G1 F2400 X-58.234 Y32.4 E1754.23476
G0 F12000 X-58.234 Y31.95
G1 F2400 X58.234 Y31.949 E1756.5438
G0 F12000 X58.234 Y31.499
G1 F2400 X-58.234 Y31.5 E1758.85284
G0 F12000 X-58.234 Y31.05
G1 F2400 X58.234 Y31.049 E1761.16188
G0 F12000 X58.234 Y30.599
G1 F2400 X-58.234 Y30.6 E1763.47092
G0 F12000 X-58.234 Y30.15
G1 F2400 X58.234 Y30.149 E1765.77996
G0 F12000 X58.234 Y29.699
G1 F2400 X-58.234 Y29.7 E1768.08899
G0 F12000 X-58.234 Y29.25
G1 F2400 X58.234 Y29.249 E1770.39803
G0 F12000 X58.234 Y28.799
G1 F2400 X-58.234 Y28.8 E1772.70707
G0 F12000 X-58.234 Y28.35
G1 F2400 X58.234 Y28.349 E1775.01611
G0 F12000 X58.234 Y27.899
G1 F2400 X-58.234 Y27.9 E1777.32515
G0 F12000 X-58.234 Y27.45
G1 F2400 X58.234 Y27.449 E1779.63419
G0 F12000 X58.234 Y26.999
G1 F2400 X-58.234 Y27 E1781.94323
G0 F12000 X-58.234 Y26.55
G1 F2400 X58.234 Y26.549 E1784.25227
G0 F12000 X58.234 Y26.099
G1 F2400 X-58.234 Y26.1 E1786.56131
G0 F12000 X-58.234 Y25.65
G1 F2400 X58.234 Y25.649 E1788.87035
G0 F12000 X58.234 Y25.199
G1 F2400 X-58.234 Y25.2 E1791.17939
G0 F12000 X-58.234 Y24.75
G1 F2400 X58.234 Y24.749 E1793.48843
G0 F12000 X58.234 Y24.299
G1 F2400 X-58.234 Y24.3 E1795.79747
G0 F12000 X-58.234 Y23.85
G1 F2400 X58.234 Y23.849 E1798.10651
G0 F12000 X58.234 Y23.399
G1 F2400 X-58.234 Y23.4 E1800.41555
G0 F12000 X-58.234 Y22.95
G1 F2400 X58.234 Y22.949 E1802.72459
G0 F12000 X58.234 Y22.499
G1 F2400 X-58.234 Y22.5 E1805.03363
G0 F12000 X-58.234 Y22.05
G1 F2400 X58.234 Y22.049 E1807.34267
G0 F12000 X58.234 Y21.599
G1 F2400 X-58.234 Y21.6 E1809.65171
G0 F12000 X-58.234 Y21.15
G1 F2400 X58.234 Y21.149 E1811.96075
G0 F12000 X58.234 Y20.699
G1 F2400 X-58.234 Y20.7 E1814.26979
G0 F12000 X-58.234 Y20.25
G1 F2400 X58.234 Y20.249 E1816.57883
G0 F12000 X58.234 Y19.799
G1 F2400 X-58.234 Y19.8 E1818.88787
G0 F12000 X-58.234 Y19.35
G1 F2400 X58.234 Y19.349 E1821.19691
G0 F12000 X58.234 Y18.899
G1 F2400 X-58.234 Y18.9 E1823.50595
G0 F12000 X-58.234 Y18.45
G1 F2400 X58.234 Y18.449 E1825.81499
G0 F12000 X58.234 Y17.999
G1 F2400 X-58.234 Y18 E1828.12403
G0 F12000 X-58.234 Y17.55
G1 F2400 X58.234 Y17.549 E1830.43307
G0 F12000 X58.234 Y17.099
G1 F2400 X-58.234 Y17.1 E1832.74211
G0 F12000 X-58.234 Y16.65
G1 F2400 X58.234 Y16.649 E1835.05115
G0 F12000 X58.234 Y16.199
G1 F2400 X-58.234 Y16.2 E1837.36019
G0 F12000 X-58.234 Y15.75
G1 F2400 X58.234 Y15.749 E1839.66923
G0 F12000 X58.234 Y15.299
G1 F2400 X-58.234 Y15.3 E1841.97827
G0 F12000 X-58.234 Y14.85
G1 F2400 X58.234 Y14.849 E1844.28731
G0 F12000 X58.234 Y14.399
G1 F2400 X-58.234 Y14.4 E1846.59635
G0 F12000 X-58.234 Y13.95
G1 F2400 X58.234 Y13.949 E1848.90539
G0 F12000 X58.234 Y13.499
G1 F2400 X-58.234 Y13.5 E1851.21443
G0 F12000 X-58.234 Y13.05
G1 F2400 X58.234 Y13.049 E1853.52347
G0 F12000 X58.234 Y12.599
G1 F2400 X-58.234 Y12.6 E1855.83251
G0 F12000 X-58.234 Y12.15
G1 F2400 X58.234 Y12.149 E1858.14154
G0 F12000 X58.234 Y11.699
G1 F2400 X-58.234 Y11.7 E1860.45058
G0 F12000 X-58.234 Y11.25
G1 F2400 X58.234 Y11.249 E1862.75962
G0 F12000 X58.234 Y10.799
G1 F2400 X-58.234 Y10.8 E1865.06866
G0 F12000 X-58.234 Y10.35
G1 F2400 X58.234 Y10.349 E1867.3777
G0 F12000 X58.234 Y9.899
G1 F2400 X-58.234 Y9.9 E1869.68674
G0 F12000 X-58.234 Y9.45
G1 F2400 X58.234 Y9.449 E1871.99578
G0 F12000 X58.234 Y8.999
G1 F2400 X-58.234 Y9 E1874.30482
G0 F12000 X-58.234 Y8.55
G1 F2400 X58.234 Y8.549 E1876.61386
G0 F12000 X58.234 Y8.099
G1 F2400 X-58.234 Y8.1 E1878.9229
G0 F12000 X-58.234 Y7.65
G1 F2400 X58.234 Y7.649 E1881.23194
G0 F12000 X58.234 Y7.199
G1 F2400 X-58.234 Y7.2 E1883.54098
G0 F12000 X-58.234 Y6.75
G1 F2400 X58.234 Y6.749 E1885.85002
G0 F12000 X58.234 Y6.299
G1 F2400 X-58.234 Y6.3 E1888.15906
G0 F12000 X-58.234 Y5.85
G1 F2400 X58.234 Y5.849 E1890.4681
G0 F12000 X58.234 Y5.399
G1 F2400 X-58.234 Y5.4 E1892.77714
G0 F12000 X-58.234 Y4.95
G1 F2400 X58.234 Y4.949 E1895.08618
G0 F12000 X58.234 Y4.499
G1 F2400 X-58.234 Y4.5 E1897.39522
G0 F12000 X-58.234 Y4.05
G1 F2400 X58.234 Y4.049 E1899.70426
G0 F12000 X58.234 Y3.599
G1 F2400 X-58.234 Y3.6 E1902.0133
G0 F12000 X-58.234 Y3.15
G1 F2400 X58.234 Y3.149 E1904.32234
G0 F12000 X58.234 Y2.699
G1 F2400 X-58.234 Y2.7 E1906.63138
G0 F12000 X-58.234 Y2.25
G1 F2400 X58.234 Y2.249 E1908.94042
G0 F12000 X58.234 Y1.799
G1 F2400 X-58.234 Y1.8 E1911.24946
G0 F12000 X-58.234 Y1.35
G1 F2400 X58.234 Y1.349 E1913.5585
G0 F12000 X58.234 Y0.899
G1 F2400 X-58.234 Y0.9 E1915.86754
G0 F12000 X-58.234 Y0.45
G1 F2400 X58.234 Y0.449 E1918.17658
G0 F12000 X58.234 Y0
G1 F2400 X-58.234 Y0 E1920.48562
G0 F12000 X-58.233 Y-0.449
G1 F2400 X58.234 Y-0.45 E1922.79464
G0 F12000 X58.234 Y-0.9
G1 F2400 X-58.233 Y-0.899 E1925.10366
G0 F12000 X-58.233 Y-1.349
G1 F2400 X58.234 Y-1.35 E1927.41268
G0 F12000 X58.234 Y-1.8
G1 F2400 X-58.233 Y-1.799 E1929.7217
G0 F12000 X-58.233 Y-2.249
G1 F2400 X58.234 Y-2.25 E1932.03072
G0 F12000 X58.234 Y-2.7
G1 F2400 X-58.233 Y-2.699 E1934.33974
G0 F12000 X-58.233 Y-3.149
G1 F2400 X58.234 Y-3.15 E1936.64876
G0 F12000 X58.234 Y-3.6
G1 F2400 X-58.233 Y-3.599 E1938.95778
G0 F12000 X-58.233 Y-4.049
G1 F2400 X58.234 Y-4.05 E1941.2668
G0 F12000 X58.234 Y-4.5
G1 F2400 X-58.233 Y-4.499 E1943.57582
G0 F12000 X-58.233 Y-4.949
G1 F2400 X58.234 Y-4.95 E1945.88484
G0 F12000 X58.234 Y-5.4
G1 F2400 X-58.233 Y-5.399 E1948.19386
G0 F12000 X-58.233 Y-5.849
G1 F2400 X58.234 Y-5.85 E1950.50288
G0 F12000 X58.234 Y-6.3
G1 F2400 X-58.233 Y-6.299 E1952.8119
G0 F12000 X-58.233 Y-6.749
G1 F2400 X58.234 Y-6.75 E1955.12092
G0 F12000 X58.234 Y-7.2
G1 F2400 X-58.233 Y-7.199 E1957.42994
G0 F12000 X-58.233 Y-7.649
G1 F2400 X58.234 Y-7.65 E1959.73896
G0 F12000 X58.234 Y-8.1
G1 F2400 X-58.233 Y-8.099 E1962.04798
G0 F12000 X-58.233 Y-8.549
G1 F2400 X58.234 Y-8.55 E1964.357
G0 F12000 X58.234 Y-9
G1 F2400 X-58.233 Y-8.999 E1966.66602
G0 F12000 X-58.233 Y-9.449
G1 F2400 X58.234 Y-9.45 E1968.97504
G0 F12000 X58.234 Y-9.9
G1 F2400 X-58.233 Y-9.899 E1971.28406
G0 F12000 X-58.233 Y-10.349
G1 F2400 X58.234 Y-10.35 E1973.59308
G0 F12000 X58.234 Y-10.8
G1 F2400 X-58.233 Y-10.799 E1975.9021
G0 F12000 X-58.233 Y-11.249
G1 F2400 X58.234 Y-11.25 E1978.21112
G0 F12000 X58.234 Y-11.7
G1 F2400 X-58.233 Y-11.699 E1980.52014
G0 F12000 X-58.233 Y-12.149
G1 F2400 X58.234 Y-12.15 E1982.82916
G0 F12000 X58.234 Y-12.6
G1 F2400 X-58.233 Y-12.599 E1985.13818
G0 F12000 X-58.233 Y-13.049
G1 F2400 X58.234 Y-13.05 E1987.4472
G0 F12000 X58.234 Y-13.5
G1 F2400 X-58.233 Y-13.499 E1989.75622
G0 F12000 X-58.233 Y-13.949
G1 F2400 X58.234 Y-13.95 E1992.06524
G0 F12000 X58.234 Y-14.4
G1 F2400 X-58.233 Y-14.399 E1994.37426
G0 F12000 X-58.233 Y-14.849
G1 F2400 X58.234 Y-14.85 E1996.68327
G0 F12000 X58.234 Y-15.3
G1 F2400 X-58.233 Y-15.299 E1998.99229
G0 F12000 X-58.233 Y-15.749
G1 F2400 X58.234 Y-15.75 E2001.30131
G0 F12000 X58.234 Y-16.2
G1 F2400 X-58.233 Y-16.199 E2003.61033
G0 F12000 X-58.233 Y-16.649
G1 F2400 X58.234 Y-16.65 E2005.91935
G0 F12000 X58.234 Y-17.1
G1 F2400 X-58.233 Y-17.099 E2008.22837
G0 F12000 X-58.233 Y-17.549
G1 F2400 X58.234 Y-17.55 E2010.53739
G0 F12000 X58.234 Y-18
G1 F2400 X-58.233 Y-17.999 E2012.84641
G0 F12000 X-58.233 Y-18.449
G1 F2400 X58.234 Y-18.45 E2015.15543
G0 F12000 X58.234 Y-18.9
G1 F2400 X-58.233 Y-18.899 E2017.46445
G0 F12000 X-58.233 Y-19.349
G1 F2400 X58.234 Y-19.35 E2019.77347
G0 F12000 X58.234 Y-19.8
G1 F2400 X-58.233 Y-19.799 E2022.08249
G0 F12000 X-58.233 Y-20.249
G1 F2400 X58.234 Y-20.25 E2024.39151
G0 F12000 X58.234 Y-20.7
G1 F2400 X-58.233 Y-20.699 E2026.70053
G0 F12000 X-58.233 Y-21.149
G1 F2400 X58.234 Y-21.15 E2029.00955
G0 F12000 X58.234 Y-21.6
G1 F2400 X-58.233 Y-21.599 E2031.31857
G0 F12000 X-58.233 Y-22.049
G1 F2400 X58.234 Y-22.05 E2033.62759
G0 F12000 X58.234 Y-22.5
G1 F2400 X-58.233 Y-22.499 E2035.93661
G0 F12000 X-58.233 Y-22.949
G1 F2400 X58.234 Y-22.95 E2038.24563
G0 F12000 X58.234 Y-23.4
G1 F2400 X-58.233 Y-23.399 E2040.55465
G0 F12000 X-58.233 Y-23.849
G1 F2400 X58.234 Y-23.85 E2042.86367
G0 F12000 X58.234 Y-24.3
G1 F2400 X-58.233 Y-24.299 E2045.17269
G0 F12000 X-58.233 Y-24.749
G1 F2400 X58.234 Y-24.75 E2047.48171
G0 F12000 X58.234 Y-25.2
G1 F2400 X-58.233 Y-25.199 E2049.79073
G0 F12000 X-58.233 Y-25.649
G1 F2400 X58.234 Y-25.65 E2052.09975
G0 F12000 X58.234 Y-26.1
G1 F2400 X-58.233 Y-26.099 E2054.40877
G0 F12000 X-58.233 Y-26.549
G1 F2400 X58.234 Y-26.55 E2056.71779
G0 F12000 X58.234 Y-27
G1 F2400 X-58.233 Y-26.999 E2059.02681
G0 F12000 X-58.233 Y-27.449
G1 F2400 X58.234 Y-27.45 E2061.33583
G0 F12000 X58.234 Y-27.9
G1 F2400 X-58.233 Y-27.899 E2063.64485
G0 F12000 X-58.233 Y-28.349
G1 F2400 X58.234 Y-28.35 E2065.95387
G0 F12000 X58.234 Y-28.8
G1 F2400 X-58.233 Y-28.799 E2068.26289
G0 F12000 X-58.233 Y-29.249
G1 F2400 X58.234 Y-29.25 E2070.57191
G0 F12000 X58.234 Y-29.7
G1 F2400 X-58.233 Y-29.699 E2072.88093
G0 F12000 X-58.233 Y-30.149
G1 F2400 X58.234 Y-30.15 E2075.18995
G0 F12000 X58.234 Y-30.6
G1 F2400 X-58.233 Y-30.599 E2077.49897
G0 F12000 X-58.233 Y-31.049
G1 F2400 X58.234 Y-31.05 E2079.80799
G0 F12000 X58.234 Y-31.5
G1 F2400 X-58.233 Y-31.499 E2082.11701
G0 F12000 X-58.233 Y-31.949
G1 F2400 X58.234 Y-31.95 E2084.42603
G0 F12000 X58.234 Y-32.4
G1 F2400 X-58.233 Y-32.399 E2086.73505
G0 F12000 X-58.233 Y-32.85
G1 F2400 X58.234 Y-32.85 E2089.04407
G0 F12000 X58.234 Y-33.3
G1 F2400 X-58.233 Y-33.3 E2091.35309
G0 F12000 X-58.233 Y-33.75
G1 F2400 X58.234 Y-33.75 E2093.66211
G0 F12000 X58.234 Y-34.2
G1 F2400 X-58.233 Y-34.2 E2095.97113
G0 F12000 X-58.233 Y-34.65
G1 F2400 X58.234 Y-34.65 E2098.28015
G0 F12000 X58.234 Y-35.1
G1 F2400 X-58.233 Y-35.1 E2100.58917
G0 F12000 X-58.233 Y-35.55
G1 F2400 X58.234 Y-35.55 E2102.89819
G0 F12000 X58.234 Y-36
G1 F2400 X-58.233 Y-36 E2105.20721
G0 F12000 X-58.233 Y-36.45
G1 F2400 X58.234 Y-36.45 E2107.51623
G0 F12000 X58.234 Y-36.9
G1 F2400 X-58.233 Y-36.9 E2109.82525
G0 F12000 X-58.233 Y-37.35
G1 F2400 X58.234 Y-37.35 E2112.13427
G0 F12000 X58.234 Y-37.8
G1 F2400 X-58.233 Y-37.8 E2114.44329
G0 F12000 X-58.55 Y-38.539
G1 F2400 X-58.551 Y-38.599 E2114.44446
G1 X-58.54 Y-38.635 E2114.44465
G0 F12000 X-58.584 Y38.535
G0 X-58.584 Y38.535
G1 F2400 X-58.673 Y38.8 E2114.44568
G1 X-58.749 Y39.039 E2114.44836
G0 F12000 X58.584 Y-38.535
G0 X58.584 Y-38.535
G1 F2400 X58.673 Y-38.799 E2114.44937
G1 X58.748 Y-39.038 E2114.45209
; Layer Change GCode
; LAYER:3
G4 P0
M106 S153
G0 F12000 X-58.474 Y39.095 Z0.6
G0 X-58.474 Y39.095
G0 X-58.487 Y39.421
G0 X-58.487 Y39.421
G0 X-58.486 Y38.517
; TYPE:WALL-INNER
G1 F2400 X-58.486 Y38.517 E2114.45209
G1 X-58.505 Y38.502 E2114.45257
G1 X-58.521 Y38.408 E2114.45446
G1 X-58.521 Y-38.407 E2115.97736
G1 X-58.506 Y-38.501 E2115.97925
G1 X-58.444 Y-38.521 E2115.98054
G1 X58.444 Y-38.521 E2118.29791
G1 X58.506 Y-38.501 E2118.2992
G1 X58.521 Y-38.407 E2118.30108
G1 X58.521 Y38.408 E2119.82398
G1 X58.496 Y38.515 E2119.82616
G1 X-58.486 Y38.517 E2122.14539
G0 F12000 X-58.47 Y38.971
G1 F2400 X-58.47 Y38.971 E2122.14539
G1 X-58.606 Y38.957 E2122.1481
G1 X-58.689 Y38.929 E2122.14984
G1 X-58.858 Y38.799 E2122.15407
G1 X-58.935 Y38.661 E2122.1572
G1 X-58.971 Y38.445 E2122.16154
G1 X-58.971 Y-38.444 E2123.68591
G1 X-58.935 Y-38.66 E2123.69025
G1 X-58.857 Y-38.798 E2123.69339
G1 X-58.686 Y-38.929 E2123.69766
G1 X-58.606 Y-38.957 E2123.69934
G1 X-58.47 Y-38.971 E2123.70205
G1 X58.47 Y-38.971 E2126.02045
G1 X58.606 Y-38.957 E2126.02316
G1 X58.686 Y-38.929 E2126.02484
G1 X58.857 Y-38.798 E2126.02911
G1 X58.935 Y-38.66 E2126.03225
G1 X58.971 Y-38.444 E2126.03659
G1 X58.971 Y38.445 E2127.56096
G1 X58.935 Y38.661 E2127.5653
G1 X58.855 Y38.804 E2127.56855
G1 X58.699 Y38.929 E2127.57251
G1 X58.467 Y38.971 E2127.57719
G1 X-58.47 Y38.971 E2129.89552
G0 F12000 X-58.487 Y39.421
; TYPE:WALL-OUTER
G1 F1800 X-58.487 Y39.421 E2129.89552
G1 X-58.705 Y39.399 E2129.89987
G1 X-58.906 Y39.33 E2129.90408
G1 X-59.205 Y39.1 E2129.91156
G1 X-59.366 Y38.813 E2129.91808
G1 X-59.421 Y38.481 E2129.92476
G1 X-59.421 Y-38.48 E2131.45055
G1 X-59.366 Y-38.812 E2131.45722
G1 X-59.204 Y-39.1 E2131.46377
G1 X-58.905 Y-39.33 E2131.47125
G1 X-58.705 Y-39.399 E2131.47544
G1 X-58.487 Y-39.421 E2131.47979
G1 X58.487 Y-39.421 E2133.79886
G1 X58.705 Y-39.399 E2133.8032
G1 X58.905 Y-39.33 E2133.8074
G1 X59.204 Y-39.1 E2133.81488
G1 X59.366 Y-38.812 E2133.82143
G1 X59.421 Y-38.48 E2133.8281
G1 X59.421 Y38.481 E2135.35389
G1 X59.366 Y38.813 E2135.36056
G1 X59.205 Y39.1 E2135.36709
G1 X58.926 Y39.323 E2135.37417
G1 X58.874 Y39.349 E2135.37532
G1 X58.662 Y39.402 E2135.37965
G1 X58.485 Y39.421 E2135.38318
G1 X-58.487 Y39.421 E2137.70222
G0 F12000 X-58.621 Y38.692
; TYPE:FILL
G1 F2400 X-58.61 Y38.676 E2137.70307
G1 X-58.639 Y38.66 E2137.70326
G0 F12000 X-58.049 Y38.316
G1 F2400 X-58.05 Y-38.32 E2139.22261
G0 F12000 X-57.6 Y-38.32
G1 F2400 X-57.599 Y38.316 E2140.74196
G0 F12000 X-57.149 Y38.316
G1 F2400 X-57.15 Y-38.32 E2142.2613
G0 F12000 X-56.7 Y-38.32
G1 F2400 X-56.699 Y38.316 E2143.78065
G0 F12000 X-56.249 Y38.316
G1 F2400 X-56.25 Y-38.32 E2145.3
G0 F12000 X-55.8 Y-38.32
G1 F2400 X-55.799 Y38.316 E2146.81935
G0 F12000 X-55.349 Y38.316
G1 F2400 X-55.35 Y-38.32 E2148.3387
G0 F12000 X-54.9 Y-38.32
G1 F2400 X-54.899 Y38.316 E2149.85805
G0 F12000 X-54.449 Y38.316
G1 F2400 X-54.45 Y-38.32 E2151.3774
G0 F12000 X-54 Y-38.32
G1 F2400 X-53.999 Y38.316 E2152.89675
G0 F12000 X-53.549 Y38.316
G1 F2400 X-53.55 Y-38.32 E2154.4161
G0 F12000 X-53.1 Y-38.32
G1 F2400 X-53.099 Y38.316 E2155.93545
G0 F12000 X-52.649 Y38.316
G1 F2400 X-52.65 Y-38.32 E2157.4548
G0 F12000 X-52.2 Y-38.32
G1 F2400 X-52.199 Y38.316 E2158.97415
G0 F12000 X-51.749 Y38.316
G1 F2400 X-51.75 Y-38.32 E2160.4935
G0 F12000 X-51.3 Y-38.32
G1 F2400 X-51.299 Y38.316 E2162.01285
G0 F12000 X-50.849 Y38.316
G1 F2400 X-50.85 Y-38.32 E2163.53219
G0 F12000 X-50.4 Y-38.32
G1 F2400 X-50.399 Y38.316 E2165.05154
G0 F12000 X-49.949 Y38.316
G1 F2400 X-49.95 Y-38.32 E2166.57089
G0 F12000 X-49.5 Y-38.32
G1 F2400 X-49.499 Y38.316 E2168.09024
G0 F12000 X-49.049 Y38.316
G1 F2400 X-49.05 Y-38.32 E2169.60959
G0 F12000 X-48.6 Y-38.32
G1 F2400 X-48.599 Y38.316 E2171.12894
G0 F12000 X-48.149 Y38.316
G1 F2400 X-48.15 Y-38.32 E2172.64829
G0 F12000 X-47.7 Y-38.32
G1 F2400 X-47.699 Y38.316 E2174.16764
G0 F12000 X-47.249 Y38.316
G1 F2400 X-47.25 Y-38.32 E2175.68699
G0 F12000 X-46.8 Y-38.32
G1 F2400 X-46.799 Y38.316 E2177.20634
G0 F12000 X-46.349 Y38.316
G1 F2400 X-46.35 Y-38.32 E2178.72569
G0 F12000 X-45.9 Y-38.32
G1 F2400 X-45.899 Y38.316 E2180.24504
G0 F12000 X-45.449 Y38.316
G1 F2400 X-45.45 Y-38.32 E2181.76439
G0 F12000 X-45 Y-38.32
G1 F2400 X-44.999 Y38.316 E2183.28373
G0 F12000 X-44.549 Y38.316
G1 F2400 X-44.55 Y-38.32 E2184.80308
G0 F12000 X-44.1 Y-38.32
G1 F2400 X-44.099 Y38.316 E2186.32243
G0 F12000 X-43.649 Y38.316
G1 F2400 X-43.65 Y-38.32 E2187.84178
G0 F12000 X-43.2 Y-38.32
G1 F2400 X-43.199 Y38.316 E2189.36113
G0 F12000 X-42.749 Y38.316
G1 F2400 X-42.75 Y-38.32 E2190.88048
G0 F12000 X-42.3 Y-38.32
G1 F2400 X-42.299 Y38.316 E2192.39983
G0 F12000 X-41.849 Y38.316
G1 F2400 X-41.85 Y-38.32 E2193.91918
G0 F12000 X-41.4 Y-38.32
G1 F2400 X-41.399 Y38.316 E2195.43853
G0 F12000 X-40.949 Y38.316
G1 F2400 X-40.95 Y-38.32 E2196.95788
G0 F12000 X-40.5 Y-38.32
G1 F2400 X-40.499 Y38.316 E2198.47723
G0 F12000 X-40.049 Y38.316
G1 F2400 X-40.05 Y-38.32 E2199.99658
G0 F12000 X-39.6 Y-38.32
G1 F2400 X-39.599 Y38.316 E2201.51593
G0 F12000 X-39.149 Y38.316
G1 F2400 X-39.15 Y-38.32 E2203.03528
G0 F12000 X-38.7 Y-38.32
G1 F2400 X-38.699 Y38.316 E2204.55462
G0 F12000 X-38.249 Y38.316
G1 F2400 X-38.25 Y-38.32 E2206.07397
G0 F12000 X-37.8 Y-38.32
G1 F2400 X-37.799 Y38.316 E2207.59332
G0 F12000 X-37.349 Y38.316
G1 F2400 X-37.35 Y-38.32 E2209.11267
G0 F12000 X-36.9 Y-38.32
G1 F2400 X-36.899 Y38.316 E2210.63202
G0 F12000 X-36.449 Y38.316
G1 F2400 X-36.45 Y-38.32 E2212.15137
G0 F12000 X-36 Y-38.32
G1 F2400 X-35.999 Y38.316 E2213.67072
G0 F12000 X-35.549 Y38.316
G1 F2400 X-35.55 Y-38.32 E2215.19007
G0 F12000 X-35.1 Y-38.32
G1 F2400 X-35.099 Y38.316 E2216.70942
G0 F12000 X-34.649 Y38.316
G1 F2400 X-34.65 Y-38.32 E2218.22877
G0 F12000 X-34.2 Y-38.32
G1 F2400 X-34.199 Y38.316 E2219.74812
G0 F12000 X-33.749 Y38.316
G1 F2400 X-33.75 Y-38.32 E2221.26747
G0 F12000 X-33.3 Y-38.32
G1 F2400 X-33.299 Y38.316 E2222.78682
G0 F12000 X-32.849 Y38.316
G1 F2400 X-32.85 Y-38.32 E2224.30616
G0 F12000 X-32.4 Y-38.32
G1 F2400 X-32.399 Y38.316 E2225.82551
G0 F12000 X-31.949 Y38.316
G1 F2400 X-31.95 Y-38.32 E2227.34486
G0 F12000 X-31.5 Y-38.32
G1 F2400 X-31.499 Y38.316 E2228.86421
G0 F12000 X-31.049 Y38.316
G1 F2400 X-31.05 Y-38.32 E2230.38356
G0 F12000 X-30.6 Y-38.32
G1 F2400 X-30.599 Y38.316 E2231.90291
G0 F12000 X-30.149 Y38.316
G1 F2400 X-30.15 Y-38.32 E2233.42226
G0 F12000 X-29.7 Y-38.321
G1 F2400 X-29.699 Y38.316 E2234.94163
G0 F12000 X-29.249 Y38.316
G1 F2400 X-29.25 Y-38.321 E2236.461
G0 F12000 X-28.8 Y-38.321
G1 F2400 X-28.799 Y38.316 E2237.98037
G0 F12000 X-28.349 Y38.316
G1 F2400 X-28.35 Y-38.321 E2239.49974
G0 F12000 X-27.9 Y-38.321
G1 F2400 X-27.899 Y38.316 E2241.01911
G0 F12000 X-27.449 Y38.316
G1 F2400 X-27.45 Y-38.321 E2242.53847
G0 F12000 X-27 Y-38.321
G1 F2400 X-26.999 Y38.316 E2244.05784
G0 F12000 X-26.549 Y38.316
G1 F2400 X-26.55 Y-38.321 E2245.57721
G0 F12000 X-26.1 Y-38.321
G1 F2400 X-26.099 Y38.316 E2247.09658
G0 F12000 X-25.649 Y38.316
G1 F2400 X-25.65 Y-38.321 E2248.61595
G0 F12000 X-25.2 Y-38.321
G1 F2400 X-25.199 Y38.316 E2250.13532
G0 F12000 X-24.749 Y38.316
G1 F2400 X-24.75 Y-38.321 E2251.65469
G0 F12000 X-24.3 Y-38.321
G1 F2400 X-24.299 Y38.316 E2253.17406
G0 F12000 X-23.849 Y38.316
G1 F2400 X-23.85 Y-38.321 E2254.69343
G0 F12000 X-23.4 Y-38.321
G1 F2400 X-23.399 Y38.316 E2256.2128
G0 F12000 X-22.949 Y38.316
G1 F2400 X-22.95 Y-38.321 E2257.73217
G0 F12000 X-22.5 Y-38.321
G1 F2400 X-22.499 Y38.316 E2259.25153
G0 F12000 X-22.049 Y38.316
G1 F2400 X-22.05 Y-38.321 E2260.7709
G0 F12000 X-21.6 Y-38.321
G1 F2400 X-21.599 Y38.316 E2262.29027
G0 F12000 X-21.149 Y38.316
G1 F2400 X-21.15 Y-38.321 E2263.80964
G0 F12000 X-20.7 Y-38.321
G1 F2400 X-20.699 Y38.316 E2265.32901
G0 F12000 X-20.249 Y38.316
G1 F2400 X-20.25 Y-38.321 E2266.84838
G0 F12000 X-19.8 Y-38.321
G1 F2400 X-19.799 Y38.316 E2268.36775
G0 F12000 X-19.349 Y38.316
G1 F2400 X-19.35 Y-38.321 E2269.88712
G0 F12000 X-18.9 Y-38.321
G1 F2400 X-18.899 Y38.316 E2271.40649
G0 F12000 X-18.449 Y38.316
G1 F2400 X-18.45 Y-38.321 E2272.92586
G0 F12000 X-18 Y-38.321
G1 F2400 X-17.999 Y38.316 E2274.44523
G0 F12000 X-17.549 Y38.316
G1 F2400 X-17.55 Y-38.321 E2275.96459
G0 F12000 X-17.1 Y-38.321
G1 F2400 X-17.099 Y38.316 E2277.48396
G0 F12000 X-16.649 Y38.316
G1 F2400 X-16.65 Y-38.321 E2279.00333
G0 F12000 X-16.2 Y-38.321
G1 F2400 X-16.199 Y38.316 E2280.5227
G0 F12000 X-15.749 Y38.316
G1 F2400 X-15.75 Y-38.321 E2282.04207
G0 F12000 X-15.3 Y-38.321
G1 F2400 X-15.299 Y38.316 E2283.56144
G0 F12000 X-14.849 Y38.316
G1 F2400 X-14.85 Y-38.321 E2285.08081
G0 F12000 X-14.4 Y-38.321
G1 F2400 X-14.399 Y38.316 E2286.60018
G0 F12000 X-13.949 Y38.316
G1 F2400 X-13.95 Y-38.321 E2288.11955
G0 F12000 X-13.5 Y-38.321
G1 F2400 X-13.499 Y38.316 E2289.63892
G0 F12000 X-13.049 Y38.316
G1 F2400 X-13.05 Y-38.321 E2291.15829
G0 F12000 X-12.6 Y-38.321
G1 F2400 X-12.599 Y38.316 E2292.67765
G0 F12000 X-12.149 Y38.316
G1 F2400 X-12.15 Y-38.321 E2294.19702
G0 F12000 X-11.7 Y-38.321
G1 F2400 X-11.699 Y38.316 E2295.71639
G0 F12000 X-11.249 Y38.316
G1 F2400 X-11.25 Y-38.321 E2297.23576
G0 F12000 X-10.8 Y-38.321
G1 F2400 X-10.799 Y38.316 E2298.75513
G0 F12000 X-10.349 Y38.316
G1 F2400 X-10.35 Y-38.321 E2300.2745
G0 F12000 X-9.9 Y-38.321
G1 F2400 X-9.899 Y38.316 E2301.79387
G0 F12000 X-9.449 Y38.316
G1 F2400 X-9.45 Y-38.321 E2303.31324
G0 F12000 X-9 Y-38.321
G1 F2400 X-8.999 Y38.316 E2304.83261
G0 F12000 X-8.549 Y38.316
G1 F2400 X-8.55 Y-38.321 E2306.35198
G0 F12000 X-8.1 Y-38.321
G1 F2400 X-8.099 Y38.316 E2307.87135
G0 F12000 X-7.649 Y38.316
G1 F2400 X-7.65 Y-38.321 E2309.39071
G0 F12000 X-7.2 Y-38.321
G1 F2400 X-7.199 Y38.316 E2310.91008
G0 F12000 X-6.749 Y38.316
G1 F2400 X-6.75 Y-38.321 E2312.42945
G0 F12000 X-6.3 Y-38.321
G1 F2400 X-6.299 Y38.316 E2313.94882
G0 F12000 X-5.849 Y38.316
G1 F2400 X-5.85 Y-38.321 E2315.46819
G0 F12000 X-5.4 Y-38.321
G1 F2400 X-5.399 Y38.316 E2316.98756
G0 F12000 X-4.949 Y38.316
G1 F2400 X-4.95 Y-38.321 E2318.50693
G0 F12000 X-4.5 Y-38.321
G1 F2400 X-4.499 Y38.316 E2320.0263
G0 F12000 X-4.049 Y38.316
G1 F2400 X-4.05 Y-38.321 E2321.54567
G0 F12000 X-3.6 Y-38.321
G1 F2400 X-3.599 Y38.316 E2323.06504
G0 F12000 X-3.149 Y38.316
G1 F2400 X-3.15 Y-38.321 E2324.58441
G0 F12000 X-2.7 Y-38.321
G1 F2400 X-2.699 Y38.316 E2326.10377
G0 F12000 X-2.249 Y38.316
G1 F2400 X-2.25 Y-38.321 E2327.62314
G0 F12000 X-1.8 Y-38.321
G1 F2400 X-1.799 Y38.316 E2329.14251
G0 F12000 X-1.349 Y38.316
G1 F2400 X-1.35 Y-38.321 E2330.66188
G0 F12000 X-0.9 Y-38.321
G1 F2400 X-0.899 Y38.316 E2332.18125
G0 F12000 X-0.449 Y38.316
G1 F2400 X-0.45 Y-38.321 E2333.70062
G0 F12000 X0 Y-38.321
G1 F2400 X0 Y38.315 E2335.21997
G0 F12000 X0.45 Y38.315
G1 F2400 X0.449 Y-38.32 E2336.7393
G0 F12000 X0.899 Y-38.32
G1 F2400 X0.9 Y38.315 E2338.25863
G0 F12000 X1.35 Y38.315
G1 F2400 X1.349 Y-38.32 E2339.77796
G0 F12000 X1.799 Y-38.32
G1 F2400 X1.8 Y38.315 E2341.29729
G0 F12000 X2.25 Y38.315
G1 F2400 X2.249 Y-38.32 E2342.81662
G0 F12000 X2.699 Y-38.32
G1 F2400 X2.7 Y38.315 E2344.33595
G0 F12000 X3.15 Y38.315
G1 F2400 X3.149 Y-38.32 E2345.85528
G0 F12000 X3.599 Y-38.32
G1 F2400 X3.6 Y38.315 E2347.3746
G0 F12000 X4.05 Y38.315
G1 F2400 X4.049 Y-38.32 E2348.89393
G0 F12000 X4.499 Y-38.32
G1 F2400 X4.5 Y38.315 E2350.41326
G0 F12000 X4.95 Y38.315
G1 F2400 X4.949 Y-38.32 E2351.93259
G0 F12000 X5.399 Y-38.32
G1 F2400 X5.4 Y38.315 E2353.45192
G0 F12000 X5.85 Y38.315
G1 F2400 X5.849 Y-38.32 E2354.97125
G0 F12000 X6.299 Y-38.32
G1 F2400 X6.3 Y38.315 E2356.49058
G0 F12000 X6.75 Y38.315
G1 F2400 X6.749 Y-38.32 E2358.00991
G0 F12000 X7.199 Y-38.32
G1 F2400 X7.2 Y38.315 E2359.52924
G0 F12000 X7.65 Y38.315
G1 F2400 X7.649 Y-38.32 E2361.04857
G0 F12000 X8.099 Y-38.32
G1 F2400 X8.1 Y38.315 E2362.5679
G0 F12000 X8.55 Y38.315
G1 F2400 X8.549 Y-38.32 E2364.08723
G0 F12000 X8.999 Y-38.32
G1 F2400 X9 Y38.315 E2365.60656
G0 F12000 X9.45 Y38.315
G1 F2400 X9.449 Y-38.32 E2367.12589
G0 F12000 X9.899 Y-38.32
G1 F2400 X9.9 Y38.315 E2368.64522
G0 F12000 X10.35 Y38.315
G1 F2400 X10.349 Y-38.32 E2370.16455
G0 F12000 X10.799 Y-38.32
G1 F2400 X10.8 Y38.315 E2371.68388
G0 F12000 X11.25 Y38.315
G1 F2400 X11.249 Y-38.32 E2373.2032
G0 F12000 X11.699 Y-38.32
G1 F2400 X11.7 Y38.315 E2374.72253
G0 F12000 X12.15 Y38.315
G1 F2400 X12.149 Y-38.32 E2376.24186
G0 F12000 X12.599 Y-38.32
G1 F2400 X12.6 Y38.315 E2377.76119
G0 F12000 X13.05 Y38.315
G1 F2400 X13.049 Y-38.32 E2379.28052
G0 F12000 X13.499 Y-38.32
G1 F2400 X13.5 Y38.315 E2380.79985
G0 F12000 X13.95 Y38.315
G1 F2400 X13.949 Y-38.32 E2382.31918
G0 F12000 X14.399 Y-38.32
G1 F2400 X14.4 Y38.315 E2383.83851
G0 F12000 X14.85 Y38.315
G1 F2400 X14.849 Y-38.32 E2385.35784
G0 F12000 X15.299 Y-38.32
G1 F2400 X15.3 Y38.315 E2386.87717
G0 F12000 X15.75 Y38.315
G1 F2400 X15.749 Y-38.32 E2388.3965
G0 F12000 X16.199 Y-38.32
G1 F2400 X16.2 Y38.315 E2389.91583
G0 F12000 X16.65 Y38.315
G1 F2400 X16.649 Y-38.32 E2391.43516
G0 F12000 X17.099 Y-38.32
G1 F2400 X17.1 Y38.315 E2392.95449
G0 F12000 X17.55 Y38.315
G1 F2400 X17.549 Y-38.32 E2394.47382
G0 F12000 X17.999 Y-38.32
G1 F2400 X18 Y38.315 E2395.99315
G0 F12000 X18.45 Y38.315
G1 F2400 X18.449 Y-38.32 E2397.51248
G0 F12000 X18.899 Y-38.32
G1 F2400 X18.9 Y38.315 E2399.03181
G0 F12000 X19.35 Y38.315
G1 F2400 X19.349 Y-38.32 E2400.55113
G0 F12000 X19.799 Y-38.32
G1 F2400 X19.8 Y38.315 E2402.07046
G0 F12000 X20.25 Y38.315
G1 F2400 X20.249 Y-38.32 E2403.58979
G0 F12000 X20.699 Y-38.32
G1 F2400 X20.7 Y38.315 E2405.10912
G0 F12000 X21.15 Y38.315
G1 F2400 X21.149 Y-38.32 E2406.62845
G0 F12000 X21.599 Y-38.32
G1 F2400 X21.6 Y38.315 E2408.14778
G0 F12000 X22.05 Y38.315
G1 F2400 X22.049 Y-38.32 E2409.66711
G0 F12000 X22.499 Y-38.32
G1 F2400 X22.5 Y38.315 E2411.18644
G0 F12000 X22.95 Y38.315
G1 F2400 X22.949 Y-38.32 E2412.70577
G0 F12000 X23.399 Y-38.32
G1 F2400 X23.4 Y38.315 E2414.2251
G0 F12000 X23.85 Y38.315
G1 F2400 X23.849 Y-38.32 E2415.74443
G0 F12000 X24.299 Y-38.32
G1 F2400 X24.3 Y38.315 E2417.26376
G0 F12000 X24.75 Y38.315
G1 F2400 X24.749 Y-38.32 E2418.78309
G0 F12000 X25.199 Y-38.32
G1 F2400 X25.2 Y38.315 E2420.30242
G0 F12000 X25.65 Y38.315
G1 F2400 X25.649 Y-38.32 E2421.82175
G0 F12000 X26.099 Y-38.32
G1 F2400 X26.1 Y38.315 E2423.34108
G0 F12000 X26.55 Y38.315
G1 F2400 X26.549 Y-38.32 E2424.86041
G0 F12000 X26.999 Y-38.32
G1 F2400 X27 Y38.315 E2426.37974
G0 F12000 X27.45 Y38.315
G1 F2400 X27.449 Y-38.32 E2427.89906
G0 F12000 X27.899 Y-38.32
G1 F2400 X27.9 Y38.315 E2429.41839
G0 F12000 X28.35 Y38.315
G1 F2400 X28.349 Y-38.32 E2430.93772
G0 F12000 X28.799 Y-38.32
G1 F2400 X28.8 Y38.315 E2432.45705
G0 F12000 X29.25 Y38.315
G1 F2400 X29.249 Y-38.32 E2433.97638
G0 F12000 X29.699 Y-38.32
G1 F2400 X29.7 Y38.315 E2435.49571
G0 F12000 X30.15 Y38.314
G1 F2400 X30.149 Y-38.32 E2437.01502
G0 F12000 X30.599 Y-38.32
G1 F2400 X30.6 Y38.314 E2438.53433
G0 F12000 X31.05 Y38.314
G1 F2400 X31.049 Y-38.32 E2440.05364
G0 F12000 X31.499 Y-38.32
G1 F2400 X31.5 Y38.314 E2441.57295
G0 F12000 X31.95 Y38.314
G1 F2400 X31.949 Y-38.32 E2443.09226
G0 F12000 X32.399 Y-38.32
G1 F2400 X32.4 Y38.314 E2444.61157
G0 F12000 X32.85 Y38.314
G1 F2400 X32.849 Y-38.32 E2446.13088
G0 F12000 X33.299 Y-38.32
G1 F2400 X33.3 Y38.314 E2447.65019
G0 F12000 X33.75 Y38.314
G1 F2400 X33.749 Y-38.32 E2449.1695
G0 F12000 X34.199 Y-38.32
G1 F2400 X34.2 Y38.314 E2450.68881
G0 F12000 X34.65 Y38.314
G1 F2400 X34.649 Y-38.32 E2452.20812
G0 F12000 X35.099 Y-38.32
G1 F2400 X35.1 Y38.314 E2453.72743
G0 F12000 X35.55 Y38.314
G1 F2400 X35.549 Y-38.32 E2455.24674
G0 F12000 X35.999 Y-38.32
G1 F2400 X36 Y38.314 E2456.76605
G0 F12000 X36.45 Y38.314
G1 F2400 X36.449 Y-38.32 E2458.28536
G0 F12000 X36.899 Y-38.32
G1 F2400 X36.9 Y38.314 E2459.80467
G0 F12000 X37.35 Y38.314
G1 F2400 X37.349 Y-38.32 E2461.32398
G0 F12000 X37.799 Y-38.32
G1 F2400 X37.8 Y38.314 E2462.84328
G0 F12000 X38.25 Y38.314
G1 F2400 X38.249 Y-38.32 E2464.36259
G0 F12000 X38.699 Y-38.32
G1 F2400 X38.7 Y38.314 E2465.8819
G0 F12000 X39.15 Y38.314
G1 F2400 X39.149 Y-38.32 E2467.40121
G0 F12000 X39.599 Y-38.32
G1 F2400 X39.6 Y38.314 E2468.92052
G0 F12000 X40.05 Y38.314
G1 F2400 X40.049 Y-38.32 E2470.43983
G0 F12000 X40.499 Y-38.32
G1 F2400 X40.5 Y38.314 E2471.95914
G0 F12000 X40.95 Y38.314
G1 F2400 X40.949 Y-38.32 E2473.47845
G0 F12000 X41.399 Y-38.32
G1 F2400 X41.4 Y38.314 E2474.99776
G0 F12000 X41.85 Y38.314
G1 F2400 X41.849 Y-38.32 E2476.51707
G0 F12000 X42.299 Y-38.32
G1 F2400 X42.3 Y38.314 E2478.03638
G0 F12000 X42.75 Y38.314
G1 F2400 X42.749 Y-38.32 E2479.55569
G0 F12000 X43.199 Y-38.32
G1 F2400 X43.2 Y38.314 E2481.075
G0 F12000 X43.65 Y38.314
G1 F2400 X43.649 Y-38.32 E2482.59431
G0 F12000 X44.099 Y-38.32
G1 F2400 X44.1 Y38.314 E2484.11362
G0 F12000 X44.55 Y38.314
G1 F2400 X44.549 Y-38.32 E2485.63293
G0 F12000 X44.999 Y-38.32
G1 F2400 X45 Y38.314 E2487.15224
G0 F12000 X45.45 Y38.314
G1 F2400 X45.449 Y-38.32 E2488.67155
G0 F12000 X45.899 Y-38.32
G1 F2400 X45.9 Y38.314 E2490.19086
G0 F12000 X46.35 Y38.314
G1 F2400 X46.349 Y-38.32 E2491.71017
G0 F12000 X46.799 Y-38.32
G1 F2400 X46.8 Y38.314 E2493.22948
G0 F12000 X47.25 Y38.314
G1 F2400 X47.249 Y-38.32 E2494.74879
G0 F12000 X47.699 Y-38.32
G1 F2400 X47.7 Y38.314 E2496.2681
G0 F12000 X48.15 Y38.314
G1 F2400 X48.149 Y-38.32 E2497.78741
G0 F12000 X48.599 Y-38.32
G1 F2400 X48.6 Y38.314 E2499.30672
G0 F12000 X49.05 Y38.314
G1 F2400 X49.049 Y-38.32 E2500.82602
G0 F12000 X49.499 Y-38.32
G1 F2400 X49.5 Y38.314 E2502.34533
G0 F12000 X49.95 Y38.314
G1 F2400 X49.949 Y-38.32 E2503.86464
G0 F12000 X50.399 Y-38.32
G1 F2400 X50.4 Y38.314 E2505.38395
G0 F12000 X50.85 Y38.314
G1 F2400 X50.849 Y-38.32 E2506.90326
G0 F12000 X51.299 Y-38.32
G1 F2400 X51.3 Y38.314 E2508.42257
G0 F12000 X51.75 Y38.314
G1 F2400 X51.749 Y-38.32 E2509.94188
G0 F12000 X52.199 Y-38.32
G1 F2400 X52.2 Y38.314 E2511.46119
G0 F12000 X52.65 Y38.314
G1 F2400 X52.649 Y-38.32 E2512.9805
G0 F12000 X53.099 Y-38.32
G1 F2400 X53.1 Y38.314 E2514.49981
G0 F12000 X53.55 Y38.314
G1 F2400 X53.549 Y-38.32 E2516.01912
G0 F12000 X53.999 Y-38.32
G1 F2400 X54 Y38.314 E2517.53843
G0 F12000 X54.45 Y38.314
G1 F2400 X54.449 Y-38.32 E2519.05774
G0 F12000 X54.899 Y-38.32
G1 F2400 X54.9 Y38.314 E2520.57705
G0 F12000 X55.35 Y38.314
G1 F2400 X55.349 Y-38.32 E2522.09636
G0 F12000 X55.799 Y-38.32
G1 F2400 X55.8 Y38.314 E2523.61567
G0 F12000 X56.25 Y38.314
G1 F2400 X56.249 Y-38.32 E2525.13498
G0 F12000 X56.699 Y-38.32
G1 F2400 X56.7 Y38.314 E2526.65429
G0 F12000 X57.15 Y38.314
G1 F2400 X57.149 Y-38.32 E2528.1736
G0 F12000 X57.599 Y-38.32
G1 F2400 X57.6 Y38.314 E2529.69291
G0 F12000 X58.05 Y38.314
G1 F2400 X58.049 Y-38.32 E2531.21222
G0 F12000 X58.601 Y-38.586
G1 F2400 X58.639 Y-38.659 E2531.21302
G1 X58.631 Y-38.688 E2531.21319
G0 F12000 X58.62 Y-38.692
G1 F2400 X58.588 Y-38.664 E2531.21348
G0 F12000 X58.644 Y38.582
G0 X58.644 Y38.582
G1 F2400 X58.644 Y38.656 E2531.2149
G1 X58.674 Y38.923 E2531.21547
G1 X58.639 Y39.164 E2531.2174
G0 F12000 X-58.652 Y-38.581
G0 X-58.652 Y-38.581
G1 F2400 X-58.644 Y-38.657 E2531.21888
G1 X-58.631 Y-38.688 E2531.21907
; Layer Change GCode
; LAYER:4
G0 F12000 X58.462 Y39.173 Z0.7
G0 X58.462 Y39.173
G0 X58.485 Y39.498
G0 X58.485 Y39.498
G0 X58.439 Y38.598
; TYPE:WALL-INNER
G1 F2400 X58.439 Y38.598 E2531.21907
G1 X-58.531 Y38.583 E2533.53806
G1 X-58.577 Y38.529 E2533.53947
G1 X-58.598 Y38.404 E2533.54198
G1 X-58.598 Y-38.404 E2535.06474
G1 X-58.577 Y-38.529 E2535.06725
G1 X-58.544 Y-38.579 E2535.06844
G1 X-58.439 Y-38.598 E2535.07056
G1 X58.546 Y-38.579 E2537.38985
G1 X58.577 Y-38.529 E2537.39101
G1 X58.598 Y-38.404 E2537.39353
G1 X58.598 Y38.404 E2538.91629
G1 X58.577 Y38.529 E2538.9188
G1 X58.536 Y38.582 E2538.92013
G1 X58.439 Y38.598 E2538.92208
G0 F12000 X58.467 Y39.048
G1 F2400 X58.467 Y39.048 E2538.92208
G1 X-58.594 Y39.035 E2541.24287
G1 X-58.748 Y38.989 E2541.24606
G1 X-58.922 Y38.84 E2541.2506
G1 X-59.009 Y38.672 E2541.25435
G1 X-59.048 Y38.442 E2541.25898
G1 X-59.048 Y-38.442 E2542.78324
G1 X-59.009 Y-38.674 E2542.78791
G1 X-58.89 Y-38.879 E2542.79261
G1 X-58.775 Y-38.971 E2542.79552
G1 X-58.596 Y-39.034 E2542.79929
G1 X-58.467 Y-39.048 E2542.80186
G1 X58.594 Y-39.035 E2545.12266
G1 X58.763 Y-38.982 E2545.12617
G1 X58.918 Y-38.85 E2545.1302
G1 X59.009 Y-38.674 E2545.13413
G1 X59.048 Y-38.442 E2545.1388
G1 X59.048 Y38.442 E2546.66306
G1 X59.009 Y38.672 E2546.66769
G1 X58.888 Y38.882 E2546.67249
G1 X58.778 Y38.97 E2546.67528
G1 X58.596 Y39.034 E2546.67911
G1 X58.467 Y39.048 E2546.68168
G0 F12000 X58.485 Y39.498
; TYPE:WALL-OUTER
G1 F1800 X58.485 Y39.498 E2546.68168
G1 X-58.584 Y39.488 E2549.00264
G1 X-58.682 Y39.477 E2549.00459
G1 X-58.909 Y39.41 E2549.00928
G1 X-58.999 Y39.368 E2549.01125
G1 X-59.286 Y39.118 E2549.0188
G1 X-59.442 Y38.816 E2549.02554
G1 X-59.498 Y38.481 E2549.03227
G1 X-59.498 Y-38.48 E2550.55806
G1 X-59.442 Y-38.816 E2550.56482
G1 X-59.286 Y-39.117 E2550.57154
G1 X-59.196 Y-39.211 E2550.57412
G1 X-59.006 Y-39.363 E2550.57894
G1 X-58.683 Y-39.477 E2550.58573
G1 X-58.485 Y-39.498 E2550.58968
G1 X58.584 Y-39.488 E2552.91064
G1 X58.682 Y-39.477 E2552.91259
G1 X58.909 Y-39.41 E2552.91728
G1 X59.002 Y-39.366 E2552.91932
G1 X59.196 Y-39.211 E2552.92425
G1 X59.286 Y-39.117 E2552.92683
G1 X59.442 Y-38.816 E2552.93355
G1 X59.498 Y-38.48 E2552.9403
G1 X59.498 Y38.481 E2554.46609
G1 X59.442 Y38.816 E2554.47283
G1 X59.286 Y39.118 E2554.47957
G1 X59.197 Y39.211 E2554.48212
G1 X59.006 Y39.363 E2554.48696
G1 X58.683 Y39.477 E2554.49375
G1 X58.485 Y39.498 E2554.4977
G0 F12000 X58.68 Y39.22
; TYPE:FILL
G1 F2400 X58.817 Y39.168 E2554.49823
G1 X58.831 Y38.925 E2554.4989
G1 X58.733 Y38.677 E2554.49986
G1 X58.666 Y38.684 E2554.50109
G1 X58.606 Y38.793 E2554.50172
G0 F12000 X58.398 Y38.25
G1 F2400 X-58.398 Y38.25 E2556.81726
G0 F12000 X-58.398 Y37.8
G1 F2400 X58.398 Y37.8 E2559.1328
G0 F12000 X58.398 Y37.35
G1 F2400 X-58.398 Y37.35 E2561.44835
G0 F12000 X-58.398 Y36.9
G1 F2400 X58.398 Y36.9 E2563.76389
G0 F12000 X58.398 Y36.45
G1 F2400 X-58.398 Y36.45 E2566.07943
G0 F12000 X-58.398 Y36
G1 F2400 X58.398 Y36 E2568.39497
G0 F12000 X58.398 Y35.55
G1 F2400 X-58.398 Y35.55 E2570.71052
G0 F12000 X-58.398 Y35.1
G1 F2400 X58.398 Y35.1 E2573.02606
G0 F12000 X58.398 Y34.65
G1 F2400 X-58.398 Y34.65 E2575.3416
G0 F12000 X-58.398 Y34.2
G1 F2400 X58.398 Y34.2 E2577.65714
G0 F12000 X58.398 Y33.75
G1 F2400 X-58.398 Y33.75 E2579.97269
G0 F12000 X-58.398 Y33.3
G1 F2400 X58.398 Y33.3 E2582.28823
G0 F12000 X58.398 Y32.85
G1 F2400 X-58.398 Y32.85 E2584.60377
G0 F12000 X-58.398 Y32.4
G1 F2400 X58.398 Y32.399 E2586.91931
G0 F12000 X58.398 Y31.949
G1 F2400 X-58.398 Y31.95 E2589.23486
G0 F12000 X-58.398 Y31.5
G1 F2400 X58.398 Y31.499 E2591.5504
G0 F12000 X58.398 Y31.049
G1 F2400 X-58.398 Y31.05 E2593.86594
G0 F12000 X-58.398 Y30.6
G1 F2400 X58.398 Y30.599 E2596.18148
G0 F12000 X58.398 Y30.149
G1 F2400 X-58.398 Y30.15 E2598.49703
G0 F12000 X-58.398 Y29.7
G1 F2400 X58.398 Y29.699 E2600.81257
G0 F12000 X58.398 Y29.249
G1 F2400 X-58.398 Y29.25 E2603.12811
G0 F12000 X-58.398 Y28.8
G1 F2400 X58.398 Y28.799 E2605.44365
G0 F12000 X58.398 Y28.349
G1 F2400 X-58.398 Y28.35 E2607.7592
G0 F12000 X-58.398 Y27.9
G1 F2400 X58.398 Y27.899 E2610.07474
G0 F12000 X58.398 Y27.449
G1 F2400 X-58.398 Y27.45 E2612.39028
G0 F12000 X-58.398 Y27
G1 F2400 X58.398 Y26.999 E2614.70582
G0 F12000 X58.398 Y26.549
G1 F2400 X-58.398 Y26.55 E2617.02137
G0 F12000 X-58.398 Y26.1
G1 F2400 X58.398 Y26.099 E2619.33691
G0 F12000 X58.398 Y25.649
G1 F2400 X-58.398 Y25.65 E2621.65245
G0 F12000 X-58.398 Y25.2
G1 F2400 X58.398 Y25.199 E2623.96799
G0 F12000 X58.398 Y24.749
G1 F2400 X-58.398 Y24.75 E2626.28354
G0 F12000 X-58.398 Y24.3
G1 F2400 X58.398 Y24.299 E2628.59908
G0 F12000 X58.398 Y23.849
G1 F2400 X-58.398 Y23.85 E2630.91462
G0 F12000 X-58.398 Y23.4
G1 F2400 X58.398 Y23.399 E2633.23016
G0 F12000 X58.398 Y22.949
G1 F2400 X-58.398 Y22.95 E2635.54571
G0 F12000 X-58.398 Y22.5
G1 F2400 X58.398 Y22.499 E2637.86125
G0 F12000 X58.398 Y22.049
G1 F2400 X-58.398 Y22.05 E2640.17679
G0 F12000 X-58.398 Y21.6
G1 F2400 X58.398 Y21.599 E2642.49233
G0 F12000 X58.398 Y21.149
G1 F2400 X-58.398 Y21.15 E2644.80788
G0 F12000 X-58.398 Y20.7
G1 F2400 X58.398 Y20.699 E2647.12342
G0 F12000 X58.398 Y20.249
G1 F2400 X-58.398 Y20.25 E2649.43896
G0 F12000 X-58.398 Y19.8
G1 F2400 X58.398 Y19.799 E2651.7545
G0 F12000 X58.398 Y19.349
G1 F2400 X-58.398 Y19.35 E2654.07005
G0 F12000 X-58.398 Y18.9
G1 F2400 X58.398 Y18.899 E2656.38559
G0 F12000 X58.398 Y18.449
G1 F2400 X-58.398 Y18.45 E2658.70113
G0 F12000 X-58.398 Y18
G1 F2400 X58.398 Y17.999 E2661.01667
G0 F12000 X58.398 Y17.549
G1 F2400 X-58.398 Y17.55 E2663.33222
G0 F12000 X-58.398 Y17.1
G1 F2400 X58.398 Y17.099 E2665.64776
G0 F12000 X58.398 Y16.649
G1 F2400 X-58.398 Y16.65 E2667.9633
G0 F12000 X-58.398 Y16.2
G1 F2400 X58.398 Y16.199 E2670.27885
G0 F12000 X58.398 Y15.749
G1 F2400 X-58.398 Y15.75 E2672.59439
G0 F12000 X-58.398 Y15.3
G1 F2400 X58.398 Y15.299 E2674.90993
G0 F12000 X58.398 Y14.849
G1 F2400 X-58.398 Y14.85 E2677.22547
G0 F12000 X-58.398 Y14.4
G1 F2400 X58.398 Y14.399 E2679.54102
G0 F12000 X58.398 Y13.949
G1 F2400 X-58.398 Y13.95 E2681.85656
G0 F12000 X-58.398 Y13.5
G1 F2400 X58.398 Y13.499 E2684.1721
G0 F12000 X58.398 Y13.049
G1 F2400 X-58.398 Y13.05 E2686.48764
G0 F12000 X-58.398 Y12.6
G1 F2400 X58.398 Y12.599 E2688.80319
G0 F12000 X58.398 Y12.149
G1 F2400 X-58.398 Y12.15 E2691.11873
G0 F12000 X-58.398 Y11.7
G1 F2400 X58.398 Y11.699 E2693.43427
G0 F12000 X58.398 Y11.249
G1 F2400 X-58.398 Y11.25 E2695.74981
G0 F12000 X-58.398 Y10.8
G1 F2400 X58.398 Y10.799 E2698.06536
G0 F12000 X58.398 Y10.349
G1 F2400 X-58.398 Y10.35 E2700.3809
G0 F12000 X-58.398 Y9.9
G1 F2400 X58.398 Y9.899 E2702.69644
G0 F12000 X58.398 Y9.449
G1 F2400 X-58.398 Y9.45 E2705.01198
G0 F12000 X-58.398 Y9
G1 F2400 X58.398 Y8.999 E2707.32753
G0 F12000 X58.398 Y8.549
G1 F2400 X-58.398 Y8.55 E2709.64307
G0 F12000 X-58.398 Y8.1
G1 F2400 X58.398 Y8.099 E2711.95861
G0 F12000 X58.398 Y7.649
G1 F2400 X-58.398 Y7.65 E2714.27415
G0 F12000 X-58.398 Y7.2
G1 F2400 X58.398 Y7.199 E2716.5897
G0 F12000 X58.398 Y6.749
G1 F2400 X-58.398 Y6.75 E2718.90524
G0 F12000 X-58.398 Y6.3
G1 F2400 X58.398 Y6.299 E2721.22078
G0 F12000 X58.398 Y5.849
G1 F2400 X-58.398 Y5.85 E2723.53632
G0 F12000 X-58.398 Y5.4
G1 F2400 X58.398 Y5.399 E2725.85187
G0 F12000 X58.398 Y4.949
G1 F2400 X-58.398 Y4.95 E2728.16741
G0 F12000 X-58.398 Y4.5
G1 F2400 X58.398 Y4.499 E2730.48295
G0 F12000 X58.398 Y4.049
G1 F2400 X-58.398 Y4.05 E2732.79849
G0 F12000 X-58.398 Y3.6
G1 F2400 X58.398 Y3.599 E2735.11404
G0 F12000 X58.398 Y3.149
G1 F2400 X-58.398 Y3.15 E2737.42958
G0 F12000 X-58.398 Y2.7
G1 F2400 X58.398 Y2.699 E2739.74512
G0 F12000 X58.398 Y2.249
G1 F2400 X-58.398 Y2.25 E2742.06066
G0 F12000 X-58.398 Y1.8
G1 F2400 X58.398 Y1.799 E2744.37621
G0 F12000 X58.398 Y1.349
G1 F2400 X-58.398 Y1.35 E2746.69175
G0 F12000 X-58.398 Y0.9
G1 F2400 X58.398 Y0.899 E2749.00729
G0 F12000 X58.398 Y0.449
G1 F2400 X-58.398 Y0.45 E2751.32283
G0 F12000 X-58.398 Y0
G1 F2400 X58.398 Y0 E2753.63838
G0 F12000 X58.398 Y-0.45
G1 F2400 X-58.398 Y-0.449 E2755.95392
G0 F12000 X-58.398 Y-0.899
G1 F2400 X58.398 Y-0.9 E2758.26946
G0 F12000 X58.398 Y-1.35
G1 F2400 X-58.398 Y-1.349 E2760.585
G0 F12000 X-58.398 Y-1.799
G1 F2400 X58.398 Y-1.8 E2762.90055
G0 F12000 X58.398 Y-2.25
G1 F2400 X-58.398 Y-2.249 E2765.21609
G0 F12000 X-58.398 Y-2.699
G1 F2400 X58.398 Y-2.7 E2767.53163
G0 F12000 X58.398 Y-3.15
G1 F2400 X-58.398 Y-3.149 E2769.84717
G0 F12000 X-58.398 Y-3.599
G1 F2400 X58.398 Y-3.6 E2772.16272
G0 F12000 X58.398 Y-4.05
G1 F2400 X-58.398 Y-4.049 E2774.47826
G0 F12000 X-58.398 Y-4.499
G1 F2400 X58.398 Y-4.5 E2776.7938
G0 F12000 X58.398 Y-4.95
G1 F2400 X-58.398 Y-4.949 E2779.10934
G0 F12000 X-58.398 Y-5.399
G1 F2400 X58.398 Y-5.4 E2781.42489
G0 F12000 X58.398 Y-5.85
G1 F2400 X-58.398 Y-5.849 E2783.74043
G0 F12000 X-58.398 Y-6.299
G1 F2400 X58.398 Y-6.3 E2786.05597
G0 F12000 X58.398 Y-6.75
G1 F2400 X-58.398 Y-6.749 E2788.37151
G0 F12000 X-58.398 Y-7.199
G1 F2400 X58.398 Y-7.2 E2790.68706
G0 F12000 X58.398 Y-7.65
G1 F2400 X-58.398 Y-7.649 E2793.0026
G0 F12000 X-58.398 Y-8.099
G1 F2400 X58.398 Y-8.1 E2795.31814
G0 F12000 X58.398 Y-8.55
G1 F2400 X-58.398 Y-8.549 E2797.63368
G0 F12000 X-58.398 Y-8.999
G1 F2400 X58.398 Y-9 E2799.94923
G0 F12000 X58.398 Y-9.45
G1 F2400 X-58.398 Y-9.449 E2802.26477
G0 F12000 X-58.398 Y-9.899
G1 F2400 X58.398 Y-9.9 E2804.58031
G0 F12000 X58.398 Y-10.35
G1 F2400 X-58.398 Y-10.349 E2806.89585
G0 F12000 X-58.398 Y-10.799
G1 F2400 X58.398 Y-10.8 E2809.2114
G0 F12000 X58.398 Y-11.25
G1 F2400 X-58.398 Y-11.249 E2811.52694
G0 F12000 X-58.398 Y-11.699
G1 F2400 X58.398 Y-11.7 E2813.84248
G0 F12000 X58.398 Y-12.15
G1 F2400 X-58.398 Y-12.149 E2816.15802
G0 F12000 X-58.398 Y-12.599
G1 F2400 X58.398 Y-12.6 E2818.47357
G0 F12000 X58.398 Y-13.05
G1 F2400 X-58.398 Y-13.049 E2820.78911
G0 F12000 X-58.398 Y-13.499
G1 F2400 X58.398 Y-13.5 E2823.10465
G0 F12000 X58.398 Y-13.95
G1 F2400 X-58.398 Y-13.949 E2825.42019
G0 F12000 X-58.398 Y-14.399
G1 F2400 X58.398 Y-14.4 E2827.73574
G0 F12000 X58.398 Y-14.85
G1 F2400 X-58.398 Y-14.849 E2830.05128
G0 F12000 X-58.398 Y-15.299
G1 F2400 X58.398 Y-15.3 E2832.36682
G0 F12000 X58.398 Y-15.75
G1 F2400 X-58.398 Y-15.749 E2834.68236
G0 F12000 X-58.398 Y-16.199
G1 F2400 X58.398 Y-16.2 E2836.99791
G0 F12000 X58.398 Y-16.65
G1 F2400 X-58.398 Y-16.649 E2839.31345
G0 F12000 X-58.398 Y-17.099
G1 F2400 X58.398 Y-17.1 E2841.62899
G0 F12000 X58.398 Y-17.55
G1 F2400 X-58.398 Y-17.549 E2843.94453
G0 F12000 X-58.398 Y-17.999
G1 F2400 X58.398 Y-18 E2846.26008
G0 F12000 X58.398 Y-18.45
G1 F2400 X-58.398 Y-18.449 E2848.57562
G0 F12000 X-58.398 Y-18.899
G1 F2400 X58.398 Y-18.9 E2850.89116
G0 F12000 X58.398 Y-19.35
G1 F2400 X-58.398 Y-19.349 E2853.2067
G0 F12000 X-58.398 Y-19.799
G1 F2400 X58.398 Y-19.8 E2855.52225
G0 F12000 X58.398 Y-20.25
G1 F2400 X-58.398 Y-20.249 E2857.83779
G0 F12000 X-58.398 Y-20.699
G1 F2400 X58.398 Y-20.7 E2860.15333
G0 F12000 X58.398 Y-21.15
G1 F2400 X-58.398 Y-21.149 E2862.46887
G0 F12000 X-58.398 Y-21.599
G1 F2400 X58.398 Y-21.6 E2864.78442
G0 F12000 X58.398 Y-22.05
G1 F2400 X-58.398 Y-22.049 E2867.09996
G0 F12000 X-58.398 Y-22.499
G1 F2400 X58.398 Y-22.5 E2869.4155
G0 F12000 X58.398 Y-22.95
G1 F2400 X-58.398 Y-22.949 E2871.73104
G0 F12000 X-58.398 Y-23.399
G1 F2400 X58.398 Y-23.4 E2874.04659
G0 F12000 X58.398 Y-23.85
G1 F2400 X-58.398 Y-23.849 E2876.36213
G0 F12000 X-58.398 Y-24.299
G1 F2400 X58.398 Y-24.3 E2878.67767
G0 F12000 X58.398 Y-24.75
G1 F2400 X-58.398 Y-24.749 E2880.99321
G0 F12000 X-58.398 Y-25.199
G1 F2400 X58.398 Y-25.2 E2883.30876
G0 F12000 X58.398 Y-25.65
G1 F2400 X-58.398 Y-25.649 E2885.6243
G0 F12000 X-58.398 Y-26.099
G1 F2400 X58.398 Y-26.1 E2887.93984
G0 F12000 X58.398 Y-26.55
G1 F2400 X-58.398 Y-26.549 E2890.25538
G0 F12000 X-58.398 Y-26.999
G1 F2400 X58.398 Y-27 E2892.57093
G0 F12000 X58.398 Y-27.45
G1 F2400 X-58.398 Y-27.449 E2894.88647
G0 F12000 X-58.398 Y-27.899
G1 F2400 X58.398 Y-27.9 E2897.20201
G0 F12000 X58.398 Y-28.35
G1 F2400 X-58.398 Y-28.349 E2899.51755
G0 F12000 X-58.398 Y-28.799
G1 F2400 X58.398 Y-28.8 E2901.8331
G0 F12000 X58.398 Y-29.25
G1 F2400 X-58.398 Y-29.249 E2904.14864
G0 F12000 X-58.398 Y-29.699
G1 F2400 X58.398 Y-29.7 E2906.46418
G0 F12000 X58.398 Y-30.15
G1 F2400 X-58.398 Y-30.149 E2908.77972
G0 F12000 X-58.398 Y-30.599
G1 F2400 X58.398 Y-30.6 E2911.09527
G0 F12000 X58.398 Y-31.05
G1 F2400 X-58.398 Y-31.049 E2913.41081
G0 F12000 X-58.398 Y-31.499
G1 F2400 X58.398 Y-31.5 E2915.72635
G0 F12000 X58.398 Y-31.95
G1 F2400 X-58.398 Y-31.949 E2918.04189
G0 F12000 X-58.398 Y-32.399
G1 F2400 X58.398 Y-32.4 E2920.35744
G0 F12000 X58.398 Y-32.85
G1 F2400 X-58.398 Y-32.85 E2922.67298
G0 F12000 X-58.398 Y-33.3
G1 F2400 X58.398 Y-33.3 E2924.98852
G0 F12000 X58.398 Y-33.75
G1 F2400 X-58.398 Y-33.75 E2927.30406
G0 F12000 X-58.398 Y-34.2
G1 F2400 X58.398 Y-34.2 E2929.61961
G0 F12000 X58.398 Y-34.65
G1 F2400 X-58.398 Y-34.65 E2931.93515
G0 F12000 X-58.398 Y-35.1
G1 F2400 X58.398 Y-35.1 E2934.25069
G0 F12000 X58.398 Y-35.55
G1 F2400 X-58.398 Y-35.55 E2936.56623
G0 F12000 X-58.398 Y-36
G1 F2400 X58.398 Y-36 E2938.88178
G0 F12000 X58.398 Y-36.45
G1 F2400 X-58.398 Y-36.45 E2941.19732
G0 F12000 X-58.398 Y-36.9
G1 F2400 X58.398 Y-36.9 E2943.51286
G0 F12000 X58.398 Y-37.35
G1 F2400 X-58.398 Y-37.35 E2945.8284
G0 F12000 X-58.398 Y-37.8
G1 F2400 X58.398 Y-37.8 E2948.14395
G0 F12000 X58.398 Y-38.25
G1 F2400 X-58.398 Y-38.25 E2950.45949
G0 F12000 X-58.74 Y-38.599
G1 F2400 X-58.733 Y-38.677 E2950.46074
G1 X-58.65 Y-38.769 E2950.4617
G1 X-58.636 Y-38.994 E2950.46223
G1 X-58.817 Y-39.168 E2950.46276
G1 X-58.966 Y-39.106 E2950.46416
G0 F12000 X-58.731 Y38.604
G0 X-58.731 Y38.604
G1 F2400 X-58.719 Y38.677 E2950.46533
G1 X-58.668 Y38.748 E2950.46614
G1 X-58.659 Y39.01 E2950.46745
G1 X-58.734 Y39.228 E2950.46948
G0 F12000 X58.6 Y-38.798
G0 X58.6 Y-38.798
G1 F2400 X58.666 Y-38.757 E2950.4705
G1 X58.717 Y-38.683 E2950.47144
G1 X58.851 Y-38.848 E2950.47265
G1 X58.848 Y-39.168 E2950.47296
G1 X58.727 Y-39.22 E2950.47412
; Layer Change GCode
; LAYER:5
G0 F12000 X-58.469 Y39.249 Z0.8
G0 X-58.469 Y39.249
G0 X-58.486 Y39.574
G0 X-58.486 Y39.574
G0 X-58.499 Y38.665
; TYPE:WALL-INNER
G1 F2400 X-58.499 Y38.665 E2950.47412
G1 X-58.581 Y38.632 E2950.47587
G1 X-58.615 Y38.597 E2950.47684
G1 X-58.657 Y38.511 E2950.47874
G1 X-58.674 Y38.409 E2950.48079
G1 X-58.672 Y-38.42 E2952.00396
G1 X-58.654 Y-38.529 E2952.00615
G1 X-58.582 Y-38.631 E2952.00863
G1 X-58.45 Y-38.674 E2952.01138
G1 X58.43 Y-38.674 E2954.32859
G1 X58.579 Y-38.633 E2954.33165
G1 X58.617 Y-38.593 E2954.33274
G1 X58.657 Y-38.512 E2954.33454
G1 X58.674 Y-38.409 E2954.33661
G1 X58.672 Y38.421 E2955.8598
G1 X58.654 Y38.528 E2955.86195
G1 X58.584 Y38.63 E2955.8644
G1 X58.45 Y38.674 E2955.8672
G1 X-58.499 Y38.665 E2958.18578
G0 F12000 X-58.691 Y39.078
G1 F2400 X-58.691 Y39.078 E2958.18578
G1 X-58.847 Y39.004 E2958.1892
G1 X-58.988 Y38.859 E2958.19321
G1 X-59.09 Y38.65 E2958.19782
G1 X-59.124 Y38.446 E2958.20192
G1 X-59.122 Y-38.458 E2959.72658
G1 X-59.086 Y-38.674 E2959.73092
G1 X-58.994 Y-38.852 E2959.7349
G1 X-58.849 Y-39.003 E2959.73905
G1 X-58.69 Y-39.078 E2959.74253
G1 X-58.567 Y-39.115 E2959.74508
G1 X58.458 Y-39.124 E2962.06516
G1 X58.691 Y-39.078 E2962.06987
G1 X58.845 Y-39.005 E2962.07325
G1 X58.989 Y-38.856 E2962.07736
G1 X59.091 Y-38.649 E2962.08193
G1 X59.124 Y-38.446 E2962.08601
G1 X59.122 Y38.458 E2963.61067
G1 X59.086 Y38.672 E2963.61497
G1 X58.993 Y38.853 E2963.61901
G1 X58.85 Y39.002 E2963.6231
G1 X58.692 Y39.077 E2963.62657
G1 X58.567 Y39.115 E2963.62916
G1 X-58.458 Y39.124 E2965.94924
G1 X-58.691 Y39.078 E2965.95395
G0 F12000 X-58.486 Y39.574
; TYPE:WALL-OUTER
G1 F1800 X-58.486 Y39.574 E2965.95395
G1 X-58.688 Y39.548 E2965.95799
G1 X-58.857 Y39.498 E2965.96148
G1 X-59.112 Y39.377 E2965.96708
G1 X-59.362 Y39.119 E2965.9742
G1 X-59.523 Y38.79 E2965.98146
G1 X-59.574 Y38.482 E2965.98765
G1 X-59.572 Y-38.495 E2967.51376
G1 X-59.519 Y-38.816 E2967.52021
G1 X-59.363 Y-39.117 E2967.52693
G1 X-59.116 Y-39.375 E2967.53402
G1 X-58.857 Y-39.498 E2967.5397
G1 X-58.656 Y-39.557 E2967.54385
G1 X-58.494 Y-39.574 E2967.54708
G1 X58.486 Y-39.574 E2969.86627
G1 X58.688 Y-39.548 E2969.87031
G1 X58.857 Y-39.498 E2969.8738
G1 X59.112 Y-39.377 E2969.8794
G1 X59.362 Y-39.118 E2969.88654
G1 X59.524 Y-38.789 E2969.89381
G1 X59.574 Y-38.482 E2969.89997
G1 X59.572 Y38.496 E2971.4261
G1 X59.519 Y38.816 E2971.43253
G1 X59.364 Y39.116 E2971.43923
G1 X59.118 Y39.372 E2971.44627
G1 X58.854 Y39.499 E2971.45208
G1 X58.656 Y39.557 E2971.45617
G1 X58.494 Y39.574 E2971.4594
G1 X-58.486 Y39.574 E2973.77859
G0 F12000 X-58.63 Y38.851
; TYPE:FILL
G1 F2400 X-58.641 Y38.827 E2973.77937
G1 X-58.716 Y38.788 E2973.78017
G1 X-58.773 Y38.673 E2973.78116
G1 X-58.838 Y38.653 E2973.78164
G0 F12000 X-58.049 Y38.464
G1 F2400 X-58.05 Y-38.473 E2975.30696
G0 F12000 X-57.6 Y-38.473
G1 F2400 X-57.599 Y38.464 E2976.83228
G0 F12000 X-57.149 Y38.464
G1 F2400 X-57.15 Y-38.473 E2978.35759
G0 F12000 X-56.7 Y-38.473
G1 F2400 X-56.699 Y38.464 E2979.88291
G0 F12000 X-56.249 Y38.464
G1 F2400 X-56.25 Y-38.473 E2981.40823
G0 F12000 X-55.8 Y-38.473
G1 F2400 X-55.799 Y38.464 E2982.93354
G0 F12000 X-55.349 Y38.464
G1 F2400 X-55.35 Y-38.473 E2984.45886
G0 F12000 X-54.9 Y-38.473
G1 F2400 X-54.899 Y38.464 E2985.98418
G0 F12000 X-54.449 Y38.464
G1 F2400 X-54.45 Y-38.473 E2987.50949
G0 F12000 X-54 Y-38.473
G1 F2400 X-53.999 Y38.464 E2989.03481
G0 F12000 X-53.549 Y38.464
G1 F2400 X-53.55 Y-38.473 E2990.56013
G0 F12000 X-53.1 Y-38.473
G1 F2400 X-53.099 Y38.464 E2992.08544
G0 F12000 X-52.649 Y38.464
G1 F2400 X-52.65 Y-38.473 E2993.61076
G0 F12000 X-52.2 Y-38.473
G1 F2400 X-52.199 Y38.465 E2995.1361
G0 F12000 X-51.749 Y38.465
G1 F2400 X-51.75 Y-38.473 E2996.66143
G0 F12000 X-51.3 Y-38.473
G1 F2400 X-51.299 Y38.465 E2998.18677
G0 F12000 X-50.849 Y38.465
G1 F2400 X-50.85 Y-38.473 E2999.71211
G0 F12000 X-50.4 Y-38.473
G1 F2400 X-50.399 Y38.465 E3001.23744
G0 F12000 X-49.949 Y38.465
G1 F2400 X-49.95 Y-38.473 E3002.76278
G0 F12000 X-49.5 Y-38.473
G1 F2400 X-49.499 Y38.465 E3004.28812
G0 F12000 X-49.049 Y38.465
G1 F2400 X-49.05 Y-38.473 E3005.81345
G0 F12000 X-48.6 Y-38.473
G1 F2400 X-48.599 Y38.465 E3007.33879
G0 F12000 X-48.149 Y38.465
G1 F2400 X-48.15 Y-38.473 E3008.86413
G0 F12000 X-47.7 Y-38.473
G1 F2400 X-47.699 Y38.465 E3010.38946
G0 F12000 X-47.249 Y38.465
G1 F2400 X-47.25 Y-38.473 E3011.9148
G0 F12000 X-46.8 Y-38.473
G1 F2400 X-46.799 Y38.465 E3013.44014
G0 F12000 X-46.349 Y38.465
G1 F2400 X-46.35 Y-38.473 E3014.96547
G0 F12000 X-45.9 Y-38.473
G1 F2400 X-45.899 Y38.465 E3016.49081
G0 F12000 X-45.449 Y38.465
G1 F2400 X-45.45 Y-38.473 E3018.01615
G0 F12000 X-45 Y-38.473
G1 F2400 X-44.999 Y38.465 E3019.54148
G0 F12000 X-44.549 Y38.465
G1 F2400 X-44.55 Y-38.473 E3021.06682
G0 F12000 X-44.1 Y-38.473
G1 F2400 X-44.099 Y38.465 E3022.59216
G0 F12000 X-43.649 Y38.465
G1 F2400 X-43.65 Y-38.473 E3024.11749
G0 F12000 X-43.2 Y-38.473
G1 F2400 X-43.199 Y38.465 E3025.64283
G0 F12000 X-42.749 Y38.465
G1 F2400 X-42.75 Y-38.473 E3027.16816
G0 F12000 X-42.3 Y-38.473
G1 F2400 X-42.299 Y38.465 E3028.6935
G0 F12000 X-41.849 Y38.465
G1 F2400 X-41.85 Y-38.473 E3030.21884
G0 F12000 X-41.4 Y-38.473
G1 F2400 X-41.399 Y38.465 E3031.74417
G0 F12000 X-40.949 Y38.465
G1 F2400 X-40.95 Y-38.473 E3033.26951
G0 F12000 X-40.5 Y-38.473
G1 F2400 X-40.499 Y38.466 E3034.79487
G0 F12000 X-40.049 Y38.466
G1 F2400 X-40.05 Y-38.473 E3036.32022
G0 F12000 X-39.6 Y-38.473
G1 F2400 X-39.599 Y38.466 E3037.84558
G0 F12000 X-39.149 Y38.466
G1 F2400 X-39.15 Y-38.473 E3039.37094
G0 F12000 X-38.7 Y-38.473
G1 F2400 X-38.699 Y38.466 E3040.89629
G0 F12000 X-38.249 Y38.466
G1 F2400 X-38.25 Y-38.473 E3042.42165
G0 F12000 X-37.8 Y-38.473
G1 F2400 X-37.799 Y38.466 E3043.94701
G0 F12000 X-37.349 Y38.466
G1 F2400 X-37.35 Y-38.473 E3045.47236
G0 F12000 X-36.9 Y-38.473
G1 F2400 X-36.899 Y38.466 E3046.99772
G0 F12000 X-36.449 Y38.466
G1 F2400 X-36.45 Y-38.473 E3048.52308
G0 F12000 X-36 Y-38.473
G1 F2400 X-35.999 Y38.466 E3050.04843
G0 F12000 X-35.549 Y38.466
G1 F2400 X-35.55 Y-38.473 E3051.57379
G0 F12000 X-35.1 Y-38.473
G1 F2400 X-35.099 Y38.466 E3053.09914
G0 F12000 X-34.649 Y38.466
G1 F2400 X-34.65 Y-38.473 E3054.6245
G0 F12000 X-34.2 Y-38.473
G1 F2400 X-34.199 Y38.466 E3056.14986
G0 F12000 X-33.749 Y38.466
G1 F2400 X-33.75 Y-38.473 E3057.67521
G0 F12000 X-33.3 Y-38.473
G1 F2400 X-33.299 Y38.466 E3059.20057
G0 F12000 X-32.849 Y38.466
G1 F2400 X-32.85 Y-38.473 E3060.72593
G0 F12000 X-32.4 Y-38.473
G1 F2400 X-32.399 Y38.466 E3062.25128
G0 F12000 X-31.949 Y38.466
G1 F2400 X-31.95 Y-38.473 E3063.77664
G0 F12000 X-31.5 Y-38.473
G1 F2400 X-31.499 Y38.466 E3065.302
G0 F12000 X-31.049 Y38.466
G1 F2400 X-31.05 Y-38.473 E3066.82735
G0 F12000 X-30.6 Y-38.473
G1 F2400 X-30.599 Y38.466 E3068.35271
G0 F12000 X-30.149 Y38.466
G1 F2400 X-30.15 Y-38.473 E3069.87806
G0 F12000 X-29.7 Y-38.474
G1 F2400 X-29.699 Y38.466 E3071.40344
G0 F12000 X-29.249 Y38.466
G1 F2400 X-29.25 Y-38.474 E3072.92882
G0 F12000 X-28.8 Y-38.474
G1 F2400 X-28.799 Y38.467 E3074.45421
G0 F12000 X-28.349 Y38.467
G1 F2400 X-28.35 Y-38.474 E3075.97961
G0 F12000 X-27.9 Y-38.474
G1 F2400 X-27.899 Y38.467 E3077.50501
G0 F12000 X-27.449 Y38.467
G1 F2400 X-27.45 Y-38.474 E3079.0304
G0 F12000 X-27 Y-38.474
G1 F2400 X-26.999 Y38.467 E3080.5558
G0 F12000 X-26.549 Y38.467
G1 F2400 X-26.55 Y-38.474 E3082.08119
G0 F12000 X-26.1 Y-38.474
G1 F2400 X-26.099 Y38.467 E3083.60659
G0 F12000 X-25.649 Y38.467
G1 F2400 X-25.65 Y-38.474 E3085.13199
G0 F12000 X-25.2 Y-38.474
G1 F2400 X-25.199 Y38.467 E3086.65738
G0 F12000 X-24.749 Y38.467
G1 F2400 X-24.75 Y-38.474 E3088.18278
G0 F12000 X-24.3 Y-38.474
G1 F2400 X-24.299 Y38.467 E3089.70817
G0 F12000 X-23.849 Y38.467
G1 F2400 X-23.85 Y-38.474 E3091.23357
G0 F12000 X-23.4 Y-38.474
G1 F2400 X-23.399 Y38.467 E3092.75897
G0 F12000 X-22.949 Y38.467
G1 F2400 X-22.95 Y-38.474 E3094.28436
G0 F12000 X-22.5 Y-38.474
G1 F2400 X-22.499 Y38.467 E3095.80976
G0 F12000 X-22.049 Y38.467
G1 F2400 X-22.05 Y-38.474 E3097.33515
G0 F12000 X-21.6 Y-38.474
G1 F2400 X-21.599 Y38.467 E3098.86055
G0 F12000 X-21.149 Y38.467
G1 F2400 X-21.15 Y-38.474 E3100.38595
G0 F12000 X-20.7 Y-38.474
G1 F2400 X-20.699 Y38.467 E3101.91134
G0 F12000 X-20.249 Y38.467
G1 F2400 X-20.25 Y-38.474 E3103.43674
G0 F12000 X-19.8 Y-38.474
G1 F2400 X-19.799 Y38.467 E3104.96213
G0 F12000 X-19.349 Y38.467
G1 F2400 X-19.35 Y-38.474 E3106.48753
G0 F12000 X-18.9 Y-38.474
G1 F2400 X-18.899 Y38.467 E3108.01293
G0 F12000 X-18.449 Y38.467
G1 F2400 X-18.45 Y-38.474 E3109.53832
G0 F12000 X-18 Y-38.474
G1 F2400 X-17.999 Y38.467 E3111.06372
G0 F12000 X-17.549 Y38.467
G1 F2400 X-17.55 Y-38.474 E3112.58911
G0 F12000 X-17.1 Y-38.474
G1 F2400 X-17.099 Y38.468 E3114.11453
G0 F12000 X-16.649 Y38.468
G1 F2400 X-16.65 Y-38.474 E3115.63995
G0 F12000 X-16.2 Y-38.474
G1 F2400 X-16.199 Y38.468 E3117.16536
G0 F12000 X-15.749 Y38.468
G1 F2400 X-15.75 Y-38.474 E3118.69078
G0 F12000 X-15.3 Y-38.474
G1 F2400 X-15.299 Y38.468 E3120.21619
G0 F12000 X-14.849 Y38.468
G1 F2400 X-14.85 Y-38.474 E3121.74161
G0 F12000 X-14.4 Y-38.474
G1 F2400 X-14.399 Y38.468 E3123.26703
G0 F12000 X-13.949 Y38.468
G1 F2400 X-13.95 Y-38.474 E3124.79244
G0 F12000 X-13.5 Y-38.474
G1 F2400 X-13.499 Y38.468 E3126.31786
G0 F12000 X-13.049 Y38.468
G1 F2400 X-13.05 Y-38.474 E3127.84327
G0 F12000 X-12.6 Y-38.474
G1 F2400 X-12.599 Y38.468 E3129.36869
G0 F12000 X-12.149 Y38.468
G1 F2400 X-12.15 Y-38.474 E3130.8941
G0 F12000 X-11.7 Y-38.474
G1 F2400 X-11.699 Y38.468 E3132.41952
G0 F12000 X-11.249 Y38.468
G1 F2400 X-11.25 Y-38.474 E3133.94494
G0 F12000 X-10.8 Y-38.474
G1 F2400 X-10.799 Y38.468 E3135.47035
G0 F12000 X-10.349 Y38.468
G1 F2400 X-10.35 Y-38.474 E3136.99577
G0 F12000 X-9.9 Y-38.474
G1 F2400 X-9.899 Y38.468 E3138.52118
G0 F12000 X-9.449 Y38.468
G1 F2400 X-9.45 Y-38.474 E3140.0466
G0 F12000 X-9 Y-38.474
G1 F2400 X-8.999 Y38.468 E3141.57202
G0 F12000 X-8.549 Y38.468
G1 F2400 X-8.55 Y-38.474 E3143.09743
G0 F12000 X-8.1 Y-38.474
G1 F2400 X-8.099 Y38.468 E3144.62285
G0 F12000 X-7.649 Y38.468
G1 F2400 X-7.65 Y-38.474 E3146.14826
G0 F12000 X-7.2 Y-38.474
G1 F2400 X-7.199 Y38.468 E3147.67368
G0 F12000 X-6.749 Y38.468
G1 F2400 X-6.75 Y-38.474 E3149.1991
G0 F12000 X-6.3 Y-38.474
G1 F2400 X-6.299 Y38.468 E3150.72451
G0 F12000 X-5.849 Y38.468
G1 F2400 X-5.85 Y-38.474 E3152.24993
G0 F12000 X-5.4 Y-38.474
G1 F2400 X-5.399 Y38.469 E3153.77536
G0 F12000 X-4.949 Y38.469
G1 F2400 X-4.95 Y-38.474 E3155.3008
G0 F12000 X-4.5 Y-38.474
G1 F2400 X-4.499 Y38.469 E3156.82623
G0 F12000 X-4.049 Y38.469
G1 F2400 X-4.05 Y-38.474 E3158.35167
G0 F12000 X-3.6 Y-38.474
G1 F2400 X-3.599 Y38.469 E3159.87711
G0 F12000 X-3.149 Y38.469
G1 F2400 X-3.15 Y-38.474 E3161.40254
G0 F12000 X-2.7 Y-38.474
G1 F2400 X-2.699 Y38.469 E3162.92798
G0 F12000 X-2.249 Y38.469
G1 F2400 X-2.25 Y-38.474 E3164.45341
G0 F12000 X-1.8 Y-38.474
G1 F2400 X-1.799 Y38.469 E3165.97885
G0 F12000 X-1.349 Y38.469
G1 F2400 X-1.35 Y-38.474 E3167.50428
G0 F12000 X-0.9 Y-38.474
G1 F2400 X-0.899 Y38.469 E3169.02972
G0 F12000 X-0.449 Y38.469
G1 F2400 X-0.45 Y-38.474 E3170.55516
G0 F12000 X0 Y-38.474
G1 F2400 X0 Y38.469 E3172.08059
G0 F12000 X0.45 Y38.469
G1 F2400 X0.449 Y-38.473 E3173.60601
G0 F12000 X0.899 Y-38.473
G1 F2400 X0.9 Y38.469 E3175.13142
G0 F12000 X1.35 Y38.469
G1 F2400 X1.349 Y-38.473 E3176.65684
G0 F12000 X1.799 Y-38.473
G1 F2400 X1.8 Y38.469 E3178.18225
G0 F12000 X2.25 Y38.469
G1 F2400 X2.249 Y-38.473 E3179.70767
G0 F12000 X2.699 Y-38.473
G1 F2400 X2.7 Y38.469 E3181.23309
G0 F12000 X3.15 Y38.469
G1 F2400 X3.149 Y-38.473 E3182.7585
G0 F12000 X3.599 Y-38.473
G1 F2400 X3.6 Y38.469 E3184.28392
G0 F12000 X4.05 Y38.469
G1 F2400 X4.049 Y-38.473 E3185.80933
G0 F12000 X4.499 Y-38.473
G1 F2400 X4.5 Y38.469 E3187.33475
G0 F12000 X4.95 Y38.469
G1 F2400 X4.949 Y-38.473 E3188.86017
G0 F12000 X5.399 Y-38.473
G1 F2400 X5.4 Y38.469 E3190.38558
G0 F12000 X5.85 Y38.47
G1 F2400 X5.849 Y-38.473 E3191.91102
G0 F12000 X6.299 Y-38.473
G1 F2400 X6.3 Y38.47 E3193.43645
G0 F12000 X6.75 Y38.47
G1 F2400 X6.749 Y-38.473 E3194.96189
G0 F12000 X7.199 Y-38.473
G1 F2400 X7.2 Y38.47 E3196.48732
G0 F12000 X7.65 Y38.47
G1 F2400 X7.649 Y-38.473 E3198.01276
G0 F12000 X8.099 Y-38.473
G1 F2400 X8.1 Y38.47 E3199.5382
G0 F12000 X8.55 Y38.47
G1 F2400 X8.549 Y-38.473 E3201.06363
G0 F12000 X8.999 Y-38.473
G1 F2400 X9 Y38.47 E3202.58907
G0 F12000 X9.45 Y38.47
G1 F2400 X9.449 Y-38.473 E3204.1145
G0 F12000 X9.899 Y-38.473
G1 F2400 X9.9 Y38.47 E3205.63994
G0 F12000 X10.35 Y38.47
G1 F2400 X10.349 Y-38.473 E3207.16537
G0 F12000 X10.799 Y-38.473
G1 F2400 X10.8 Y38.47 E3208.69081
G0 F12000 X11.25 Y38.47
G1 F2400 X11.249 Y-38.473 E3210.21625
G0 F12000 X11.699 Y-38.473
G1 F2400 X11.7 Y38.47 E3211.74168
G0 F12000 X12.15 Y38.47
G1 F2400 X12.149 Y-38.473 E3213.26712
G0 F12000 X12.599 Y-38.473
G1 F2400 X12.6 Y38.47 E3214.79255
G0 F12000 X13.05 Y38.47
G1 F2400 X13.049 Y-38.473 E3216.31799
G0 F12000 X13.499 Y-38.473
G1 F2400 X13.5 Y38.47 E3217.84342
G0 F12000 X13.95 Y38.47
G1 F2400 X13.949 Y-38.473 E3219.36886
G0 F12000 X14.399 Y-38.473
G1 F2400 X14.4 Y38.47 E3220.8943
G0 F12000 X14.85 Y38.47
G1 F2400 X14.849 Y-38.473 E3222.41973
G0 F12000 X15.299 Y-38.473
G1 F2400 X15.3 Y38.47 E3223.94517
G0 F12000 X15.75 Y38.47
G1 F2400 X15.749 Y-38.473 E3225.4706
G0 F12000 X16.199 Y-38.473
G1 F2400 X16.2 Y38.47 E3226.99604
G0 F12000 X16.65 Y38.47
G1 F2400 X16.649 Y-38.473 E3228.52147
G0 F12000 X17.099 Y-38.473
G1 F2400 X17.1 Y38.47 E3230.04691
G0 F12000 X17.55 Y38.471
G1 F2400 X17.549 Y-38.473 E3231.57237
G0 F12000 X17.999 Y-38.473
G1 F2400 X18 Y38.471 E3233.09782
G0 F12000 X18.45 Y38.471
G1 F2400 X18.449 Y-38.473 E3234.62328
G0 F12000 X18.899 Y-38.473
G1 F2400 X18.9 Y38.471 E3236.14873
G0 F12000 X19.35 Y38.471
G1 F2400 X19.349 Y-38.473 E3237.67419
G0 F12000 X19.799 Y-38.473
G1 F2400 X19.8 Y38.471 E3239.19964
G0 F12000 X20.25 Y38.471
G1 F2400 X20.249 Y-38.473 E3240.7251
G0 F12000 X20.699 Y-38.473
G1 F2400 X20.7 Y38.471 E3242.25055
G0 F12000 X21.15 Y38.471
G1 F2400 X21.149 Y-38.473 E3243.77601
G0 F12000 X21.599 Y-38.473
G1 F2400 X21.6 Y38.471 E3245.30146
G0 F12000 X22.05 Y38.471
G1 F2400 X22.049 Y-38.473 E3246.82692
G0 F12000 X22.499 Y-38.473
G1 F2400 X22.5 Y38.471 E3248.35238
G0 F12000 X22.95 Y38.471
G1 F2400 X22.949 Y-38.473 E3249.87783
G0 F12000 X23.399 Y-38.473
G1 F2400 X23.4 Y38.471 E3251.40329
G0 F12000 X23.85 Y38.471
G1 F2400 X23.849 Y-38.473 E3252.92874
G0 F12000 X24.299 Y-38.473
G1 F2400 X24.3 Y38.471 E3254.4542
G0 F12000 X24.75 Y38.471
G1 F2400 X24.749 Y-38.473 E3255.97965
G0 F12000 X25.199 Y-38.473
G1 F2400 X25.2 Y38.471 E3257.50511
G0 F12000 X25.65 Y38.471
G1 F2400 X25.649 Y-38.473 E3259.03056
G0 F12000 X26.099 Y-38.473
G1 F2400 X26.1 Y38.471 E3260.55602
G0 F12000 X26.55 Y38.471
G1 F2400 X26.549 Y-38.473 E3262.08148
G0 F12000 X26.999 Y-38.473
G1 F2400 X27 Y38.471 E3263.60693
G0 F12000 X27.45 Y38.471
G1 F2400 X27.449 Y-38.473 E3265.13239
G0 F12000 X27.899 Y-38.473
