; Generated with MatterSlice 1.0
; filamentDiameter = 1.7
; extrusionWidth = 0.45
; firstLayerExtrusionWidth = 0.5625
; layerThickness = 0.1
; firstLayerThickness = 0.3
; automatic settings before start_gcode
G21 ; set units to millimeters
M107 ; fan off
M190 S65 ; wait for bed temperature to be reached
M104 T0 S220 ; start heating extruder 1
M109 T0 S220 ; wait for extruder 1
T0 ; set the active extruder to 0
; settings from start_gcode
G28
; automatic settings after start_gcode
T0 ; set the active extruder to 0
G90 ; use absolute coordinates
G92 E0 ; reset the expected extruder position
M82 ; use absolute distance for extrusion
; Layer count: 318
; Layer Change GCode
; LAYER:0
G4 P0
M107
G0 F12000 X60.854 Y-42.409 Z0.8
; TYPE:SKIRT
G1 Z0.3
G1 F6000 E0
G1 F900 X62.316 Y-41.045 E0.14852
G1 X62.972 Y-39.142 E0.29804
G1 X62.972 Y39.145 E6.11317
G1 X62.318 Y41.039 E6.26201
G1 X60.861 Y42.408 E6.41051
G1 X59.101 Y42.972 E6.54779
G1 X-59.1 Y42.972 E15.32772
G1 X-60.853 Y42.41 E15.46446
G1 X-62.319 Y41.043 E15.61335
G1 X-62.939 Y39.234 E15.75539
G1 X-64.599 Y6.398 E18.19756
G1 X-64.589 Y-9.41 E19.37177
G1 X-62.936 Y-39.241 E21.591
G1 X-62.317 Y-41.05 E21.73302
G1 X-60.845 Y-42.412 E21.88199
G1 X-59.1 Y-42.971 E22.0181
G1 X59.101 Y-42.971 E30.79802
G1 X60.854 Y-42.409 E30.93476
G0 F12000 X60.562 Y-41.912
G1 F900 X61.831 Y-40.73 E31.06358
G1 X62.41 Y-39.048 E31.19571
G1 X62.41 Y39.051 E36.99688
G1 X61.832 Y40.724 E37.12836
G1 X60.569 Y41.911 E37.2571
G1 X59.013 Y42.41 E37.37848
G1 X-59.012 Y42.41 E46.14534
G1 X-60.562 Y41.913 E46.26624
G1 X-61.833 Y40.728 E46.39532
G1 X-62.381 Y39.127 E46.52102
G1 X-64.037 Y6.384 E48.95626
G1 X-64.027 Y-9.394 E50.12825
G1 X-62.379 Y-39.132 E52.34056
G1 X-61.832 Y-40.733 E52.46624
G1 X-60.555 Y-41.914 E52.59544
G1 X-59.012 Y-42.409 E52.7158
G1 X59.013 Y-42.409 E61.48266
G1 X60.562 Y-41.912 E61.6035
G1 F6000 E59.8035
G1 Z0.8
G0 F12000 X-58.454 Y38.848
; TYPE:WALL-OUTER
G1 Z0.3
G1 F6000 E61.6035
G1 F900 X-58.454 Y38.848 E61.6035
G1 X-58.716 Y38.764 E61.62393
G1 X-58.752 Y38.731 E61.62756
G1 X-58.847 Y38.453 E61.64938
G1 X-58.847 Y-38.452 E67.36186
G1 X-58.752 Y-38.73 E67.38368
G1 X-58.717 Y-38.763 E67.38725
G1 X-58.454 Y-38.847 E67.40776
G1 X58.455 Y-38.847 E76.09172
G1 X58.716 Y-38.763 E76.11209
G1 X58.752 Y-38.73 E76.11572
G1 X58.848 Y-38.451 E76.13763
G1 X58.848 Y38.451 E81.84989
G1 X58.751 Y38.732 E81.87197
G1 X58.717 Y38.764 E81.87544
G1 X58.455 Y38.848 E81.89587
G1 X-58.454 Y38.848 E90.57983
G0 F12000 X-58.285 Y38.286
; TYPE:WALL-INNER
G1 F900 X-58.285 Y38.286 E90.57983
G1 X-58.285 Y-38.285 E96.2675
G1 X58.286 Y-38.285 E104.92635
G1 X58.286 Y38.286 E110.61402
G1 X-58.285 Y38.286 E119.27287
G0 F12000 X-57.723 Y37.724
G1 F900 X-57.723 Y37.724 E119.27287
G1 X-57.723 Y-37.723 E124.87705
G1 X57.724 Y-37.723 E133.45241
G1 X57.724 Y37.724 E139.05659
G1 X-57.723 Y37.724 E147.63195
G0 F12000 X-57.411 Y37.092
; TYPE:BOTTOM-FILL
G1 F900 X57.412 Y37.092 E156.16096
G0 F12000 X57.412 Y36.53
G1 F900 X-57.411 Y36.53 E164.68998
G0 F12000 X-57.411 Y35.968
G1 F900 X57.412 Y35.968 E173.21899
G0 F12000 X57.412 Y35.406
G1 F900 X-57.411 Y35.406 E181.748
G0 F12000 X-57.411 Y34.844
G1 F900 X57.412 Y34.844 E190.27701
G0 F12000 X57.412 Y34.282
G1 F900 X-57.411 Y34.282 E198.80602
G0 F12000 X-57.411 Y33.72
G1 F900 X57.412 Y33.72 E207.33504
G0 F12000 X57.412 Y33.158
G1 F900 X-57.411 Y33.158 E215.86405
G0 F12000 X-57.411 Y32.596
G1 F900 X57.412 Y32.595 E224.39306
G0 F12000 X57.412 Y32.033
G1 F900 X-57.411 Y32.034 E232.92207
G0 F12000 X-57.411 Y31.472
G1 F900 X57.412 Y31.471 E241.45109
G0 F12000 X57.412 Y30.909
G1 F900 X-57.411 Y30.91 E249.9801
G0 F12000 X-57.411 Y30.348
G1 F900 X57.412 Y30.347 E258.50911
G0 F12000 X57.412 Y29.785
G1 F900 X-57.411 Y29.786 E267.03812
G0 F12000 X-57.411 Y29.224
G1 F900 X57.412 Y29.223 E275.56713
G0 F12000 X57.412 Y28.661
G1 F900 X-57.411 Y28.662 E284.09615
G0 F12000 X-57.411 Y28.1
G1 F900 X57.412 Y28.099 E292.62516
G0 F12000 X57.412 Y27.537
G1 F900 X-57.411 Y27.538 E301.15417
G0 F12000 X-57.411 Y26.976
G1 F900 X57.412 Y26.975 E309.68318
G0 F12000 X57.412 Y26.413
G1 F900 X-57.411 Y26.414 E318.2122
G0 F12000 X-57.411 Y25.852
G1 F900 X57.412 Y25.851 E326.74121
G0 F12000 X57.412 Y25.289
G1 F900 X-57.411 Y25.29 E335.27022
G0 F12000 X-57.411 Y24.728
G1 F900 X57.412 Y24.727 E343.79923
G0 F12000 X57.412 Y24.165
G1 F900 X-57.411 Y24.166 E352.32824
G0 F12000 X-57.411 Y23.604
G1 F900 X57.412 Y23.603 E360.85726
G0 F12000 X57.412 Y23.041
G1 F900 X-57.411 Y23.042 E369.38627
G0 F12000 X-57.411 Y22.48
G1 F900 X57.412 Y22.479 E377.91528
G0 F12000 X57.412 Y21.917
G1 F900 X-57.411 Y21.918 E386.44429
G0 F12000 X-57.411 Y21.356
G1 F900 X57.412 Y21.355 E394.9733
G0 F12000 X57.412 Y20.793
G1 F900 X-57.411 Y20.794 E403.50232
G0 F12000 X-57.411 Y20.232
G1 F900 X57.412 Y20.231 E412.03133
G0 F12000 X57.412 Y19.669
G1 F900 X-57.411 Y19.67 E420.56034
G0 F12000 X-57.411 Y19.108
G1 F900 X57.412 Y19.107 E429.08935
G0 F12000 X57.412 Y18.545
G1 F900 X-57.411 Y18.546 E437.61837
G0 F12000 X-57.411 Y17.984
G1 F900 X57.412 Y17.983 E446.14738
G0 F12000 X57.412 Y17.421
G1 F900 X-57.411 Y17.422 E454.67639
G0 F12000 X-57.411 Y16.86
G1 F900 X57.412 Y16.859 E463.2054
G0 F12000 X57.412 Y16.297
G1 F900 X-57.411 Y16.298 E471.73441
G0 F12000 X-57.411 Y15.736
G1 F900 X57.412 Y15.735 E480.26343
G0 F12000 X57.412 Y15.173
G1 F900 X-57.411 Y15.174 E488.79244
G0 F12000 X-57.411 Y14.612
G1 F900 X57.412 Y14.611 E497.32145
G0 F12000 X57.412 Y14.049
G1 F900 X-57.411 Y14.05 E505.85046
G0 F12000 X-57.411 Y13.488
G1 F900 X57.412 Y13.487 E514.37948
G0 F12000 X57.412 Y12.925
G1 F900 X-57.411 Y12.926 E522.90849
G0 F12000 X-57.411 Y12.364
G1 F900 X57.412 Y12.363 E531.4375
G0 F12000 X57.412 Y11.801
G1 F900 X-57.411 Y11.802 E539.96651
G0 F12000 X-57.411 Y11.24
G1 F900 X57.412 Y11.239 E548.49552
G0 F12000 X57.412 Y10.677
G1 F900 X-57.411 Y10.678 E557.02454
G0 F12000 X-57.411 Y10.116
G1 F900 X57.412 Y10.115 E565.55355
G0 F12000 X57.412 Y9.553
G1 F900 X-57.411 Y9.554 E574.08256
G0 F12000 X-57.411 Y8.992
G1 F900 X57.412 Y8.991 E582.61157
G0 F12000 X57.412 Y8.429
G1 F900 X-57.411 Y8.43 E591.14059
G0 F12000 X-57.411 Y7.868
G1 F900 X57.412 Y7.867 E599.6696
G0 F12000 X57.412 Y7.305
G1 F900 X-57.411 Y7.306 E608.19861
G0 F12000 X-57.411 Y6.744
G1 F900 X57.412 Y6.743 E616.72762
G0 F12000 X57.412 Y6.181
G1 F900 X-57.411 Y6.182 E625.25663
G0 F12000 X-57.411 Y5.62
G1 F900 X57.412 Y5.619 E633.78565
G0 F12000 X57.412 Y5.057
G1 F900 X-57.411 Y5.058 E642.31466
G0 F12000 X-57.411 Y4.496
G1 F900 X57.412 Y4.495 E650.84367
G0 F12000 X57.412 Y3.933
G1 F900 X-57.411 Y3.934 E659.37268
G0 F12000 X-57.411 Y3.372
G1 F900 X57.412 Y3.371 E667.9017
G0 F12000 X57.412 Y2.809
G1 F900 X-57.411 Y2.81 E676.43071
G0 F12000 X-57.411 Y2.248
G1 F900 X57.412 Y2.247 E684.95972
G0 F12000 X57.412 Y1.685
G1 F900 X-57.411 Y1.686 E693.48873
G0 F12000 X-57.411 Y1.124
G1 F900 X57.412 Y1.123 E702.01774
G0 F12000 X57.412 Y0.561
G1 F900 X-57.411 Y0.562 E710.54676
G0 F12000 X-57.411 Y0
G1 F900 X57.412 Y0 E719.07577
G0 F12000 X57.412 Y-0.562
G1 F900 X-57.411 Y-0.561 E727.60478
G0 F12000 X-57.411 Y-1.123
G1 F900 X57.412 Y-1.124 E736.13379
G0 F12000 X57.412 Y-1.686
G1 F900 X-57.411 Y-1.685 E744.66281
G0 F12000 X-57.411 Y-2.247
G1 F900 X57.412 Y-2.248 E753.19182
G0 F12000 X57.412 Y-2.81
G1 F900 X-57.411 Y-2.809 E761.72083
G0 F12000 X-57.411 Y-3.371
G1 F900 X57.412 Y-3.372 E770.24984
G0 F12000 X57.412 Y-3.934
G1 F900 X-57.411 Y-3.933 E778.77885
G0 F12000 X-57.411 Y-4.495
G1 F900 X57.412 Y-4.496 E787.30787
G0 F12000 X57.412 Y-5.058
G1 F900 X-57.411 Y-5.057 E795.83688
G0 F12000 X-57.411 Y-5.619
G1 F900 X57.412 Y-5.62 E804.36589
G0 F12000 X57.412 Y-6.182
G1 F900 X-57.411 Y-6.181 E812.8949
G0 F12000 X-57.411 Y-6.743
G1 F900 X57.412 Y-6.744 E821.42392
G0 F12000 X57.412 Y-7.306
G1 F900 X-57.411 Y-7.305 E829.95293
G0 F12000 X-57.411 Y-7.867
G1 F900 X57.412 Y-7.868 E838.48194
G0 F12000 X57.412 Y-8.43
G1 F900 X-57.411 Y-8.429 E847.01095
G0 F12000 X-57.411 Y-8.991
G1 F900 X57.412 Y-8.992 E855.53996
G0 F12000 X57.412 Y-9.554
G1 F900 X-57.411 Y-9.553 E864.06898
G0 F12000 X-57.411 Y-10.115
G1 F900 X57.412 Y-10.116 E872.59799
G0 F12000 X57.412 Y-10.678
G1 F900 X-57.411 Y-10.677 E881.127
G0 F12000 X-57.411 Y-11.239
G1 F900 X57.412 Y-11.24 E889.65601
G0 F12000 X57.412 Y-11.802
G1 F900 X-57.411 Y-11.801 E898.18502
G0 F12000 X-57.411 Y-12.363
G1 F900 X57.412 Y-12.364 E906.71404
G0 F12000 X57.412 Y-12.926
G1 F900 X-57.411 Y-12.925 E915.24305
G0 F12000 X-57.411 Y-13.487
G1 F900 X57.412 Y-13.488 E923.77206
G0 F12000 X57.412 Y-14.05
G1 F900 X-57.411 Y-14.049 E932.30107
G0 F12000 X-57.411 Y-14.611
G1 F900 X57.412 Y-14.612 E940.83009
G0 F12000 X57.412 Y-15.174
G1 F900 X-57.411 Y-15.173 E949.3591
G0 F12000 X-57.411 Y-15.735
G1 F900 X57.412 Y-15.736 E957.88811
G0 F12000 X57.412 Y-16.298
G1 F900 X-57.411 Y-16.297 E966.41712
G0 F12000 X-57.411 Y-16.859
G1 F900 X57.412 Y-16.86 E974.94613
G0 F12000 X57.412 Y-17.422
G1 F900 X-57.411 Y-17.421 E983.47515
G0 F12000 X-57.411 Y-17.983
G1 F900 X57.412 Y-17.984 E992.00416
G0 F12000 X57.412 Y-18.546
G1 F900 X-57.411 Y-18.545 E1000.53317
G0 F12000 X-57.411 Y-19.107
G1 F900 X57.412 Y-19.108 E1009.06218
G0 F12000 X57.412 Y-19.67
G1 F900 X-57.411 Y-19.669 E1017.5912
G0 F12000 X-57.411 Y-20.231
G1 F900 X57.412 Y-20.232 E1026.12021
G0 F12000 X57.412 Y-20.794
G1 F900 X-57.411 Y-20.793 E1034.64922
G0 F12000 X-57.411 Y-21.355
G1 F900 X57.412 Y-21.356 E1043.17823
G0 F12000 X57.412 Y-21.918
G1 F900 X-57.411 Y-21.917 E1051.70724
G0 F12000 X-57.411 Y-22.479
G1 F900 X57.412 Y-22.48 E1060.23626
G0 F12000 X57.412 Y-23.042
G1 F900 X-57.411 Y-23.041 E1068.76527
G0 F12000 X-57.411 Y-23.603
G1 F900 X57.412 Y-23.604 E1077.29428
G0 F12000 X57.412 Y-24.166
G1 F900 X-57.411 Y-24.165 E1085.82329
G0 F12000 X-57.411 Y-24.727
G1 F900 X57.412 Y-24.728 E1094.35231
G0 F12000 X57.412 Y-25.29
G1 F900 X-57.411 Y-25.289 E1102.88132
G0 F12000 X-57.411 Y-25.851
G1 F900 X57.412 Y-25.852 E1111.41033
G0 F12000 X57.412 Y-26.414
G1 F900 X-57.411 Y-26.413 E1119.93934
G0 F12000 X-57.411 Y-26.975
G1 F900 X57.412 Y-26.976 E1128.46835
G0 F12000 X57.412 Y-27.538
G1 F900 X-57.411 Y-27.537 E1136.99737
G0 F12000 X-57.411 Y-28.099
G1 F900 X57.412 Y-28.1 E1145.52638
G0 F12000 X57.412 Y-28.662
G1 F900 X-57.411 Y-28.661 E1154.05539
G0 F12000 X-57.411 Y-29.223
G1 F900 X57.412 Y-29.224 E1162.5844
G0 F12000 X57.412 Y-29.786
G1 F900 X-57.411 Y-29.785 E1171.11342
G0 F12000 X-57.411 Y-30.347
G1 F900 X57.412 Y-30.348 E1179.64243
G0 F12000 X57.412 Y-30.91
G1 F900 X-57.411 Y-30.909 E1188.17144
G0 F12000 X-57.411 Y-31.471
G1 F900 X57.412 Y-31.472 E1196.70045
G0 F12000 X57.412 Y-32.034
G1 F900 X-57.411 Y-32.033 E1205.22946
G0 F12000 X-57.411 Y-32.595
G1 F900 X57.412 Y-32.596 E1213.75848
G0 F12000 X57.412 Y-33.158
G1 F900 X-57.411 Y-33.158 E1222.28749
G0 F12000 X-57.411 Y-33.72
G1 F900 X57.412 Y-33.72 E1230.8165
G0 F12000 X57.412 Y-34.282
G1 F900 X-57.411 Y-34.282 E1239.34551
G0 F12000 X-57.411 Y-34.844
G1 F900 X57.412 Y-34.844 E1247.87453
G0 F12000 X57.412 Y-35.406
G1 F900 X-57.411 Y-35.406 E1256.40354
G0 F12000 X-57.411 Y-35.968
G1 F900 X57.412 Y-35.968 E1264.93255
G0 F12000 X57.412 Y-36.53
G1 F900 X-57.411 Y-36.53 E1273.46156
G0 F12000 X-57.411 Y-37.092
G1 F900 X57.412 Y-37.092 E1281.99057
G1 F6000 E1280.19057
G1 Z0.8
G0 F12000 X57.412 Y-37.092 Z1.05
; Layer Change GCode
; LAYER:1
G0 X-58.451 Y38.896 Z0.9
G0 X-58.451 Y38.896
G0 X-58.478 Y39.22
G0 X-58.478 Y39.22
G0 X-58.319 Y38.32
; TYPE:WALL-INNER
G1 Z0.4
G1 F6000 E1281.99057
G1 F2400 X-58.319 Y38.32 E1281.99057
G1 X-58.319 Y-38.319 E1283.50998
G1 X58.32 Y-38.319 E1285.82241
G1 X58.32 Y38.32 E1287.34182
G1 X-58.319 Y38.32 E1289.65425
G0 F12000 X-58.769 Y38.429
G1 F2400 X-58.769 Y38.429 E1289.65425
G1 X-58.769 Y-38.428 E1291.17798
G1 X-58.728 Y-38.619 E1291.18185
G1 X-58.67 Y-38.705 E1291.18391
G1 X-58.595 Y-38.743 E1291.18558
G1 X-58.443 Y-38.769 E1291.18864
G1 X58.444 Y-38.769 E1293.50598
G1 X58.594 Y-38.743 E1293.509
G1 X58.67 Y-38.705 E1293.51068
G1 X58.728 Y-38.619 E1293.51274
G1 X58.77 Y-38.426 E1293.51666
G1 X58.77 Y38.426 E1295.04029
G1 X58.728 Y38.621 E1295.04424
G1 X58.671 Y38.706 E1295.04627
G1 X58.594 Y38.744 E1295.04797
G1 X58.444 Y38.77 E1295.05099
G1 X-58.443 Y38.77 E1297.36834
G1 X-58.595 Y38.744 E1297.3714
G1 X-58.671 Y38.706 E1297.37308
G1 X-58.728 Y38.621 E1297.37511
G1 X-58.769 Y38.429 E1297.379
G0 F12000 X-59.219 Y38.476
; TYPE:WALL-OUTER
G1 F1800 X-59.219 Y38.476 E1297.379
G1 X-59.219 Y-38.475 E1298.9046
G1 X-59.15 Y-38.797 E1298.91113
G1 X-58.961 Y-39.062 E1298.91758
G1 X-58.738 Y-39.175 E1298.92254
G1 X-58.478 Y-39.219 E1298.92776
G1 X58.479 Y-39.219 E1301.2465
G1 X58.738 Y-39.175 E1301.25171
G1 X58.989 Y-39.036 E1301.25739
G1 X59.151 Y-38.797 E1301.26312
G1 X59.22 Y-38.475 E1301.26965
G1 X59.22 Y38.475 E1302.79522
G1 X59.15 Y38.799 E1302.80179
G1 X58.961 Y39.063 E1302.80823
G1 X58.738 Y39.176 E1302.81319
G1 X58.479 Y39.22 E1302.8184
G1 X-58.478 Y39.22 E1305.13713
G1 X-58.738 Y39.176 E1305.14236
G1 X-58.991 Y39.036 E1305.14809
G1 X-59.15 Y38.799 E1305.15375
G1 X-59.219 Y38.476 E1305.1603
G0 F12000 X-58.894 Y38.443
G0 X-57.599 Y37.973
G0 X-57.599 Y37.973
; TYPE:FILL
G1 F2400 X-57.6 Y-37.972 E1306.66595
G0 F12000 X-57.15 Y-37.972
G1 F2400 X-57.149 Y37.973 E1308.1716
G0 F12000 X-56.699 Y37.973
G1 F2400 X-56.7 Y-37.972 E1309.67725
G0 F12000 X-56.25 Y-37.972
G1 F2400 X-56.249 Y37.973 E1311.1829
G0 F12000 X-55.799 Y37.973
G1 F2400 X-55.8 Y-37.972 E1312.68855
G0 F12000 X-55.35 Y-37.972
G1 F2400 X-55.349 Y37.973 E1314.1942
G0 F12000 X-54.899 Y37.973
G1 F2400 X-54.9 Y-37.972 E1315.69984
G0 F12000 X-54.45 Y-37.972
G1 F2400 X-54.449 Y37.973 E1317.20549
G0 F12000 X-53.999 Y37.973
G1 F2400 X-54 Y-37.972 E1318.71114
G0 F12000 X-53.55 Y-37.972
G1 F2400 X-53.549 Y37.973 E1320.21679
G0 F12000 X-53.099 Y37.973
G1 F2400 X-53.1 Y-37.972 E1321.72244
G0 F12000 X-52.65 Y-37.972
G1 F2400 X-52.649 Y37.973 E1323.22809
G0 F12000 X-52.199 Y37.973
G1 F2400 X-52.2 Y-37.972 E1324.73374
G0 F12000 X-51.75 Y-37.972
G1 F2400 X-51.749 Y37.973 E1326.23939
G0 F12000 X-51.299 Y37.973
G1 F2400 X-51.3 Y-37.972 E1327.74504
G0 F12000 X-50.85 Y-37.972
G1 F2400 X-50.849 Y37.973 E1329.25069
G0 F12000 X-50.399 Y37.973
G1 F2400 X-50.4 Y-37.972 E1330.75634
G0 F12000 X-49.95 Y-37.972
G1 F2400 X-49.949 Y37.973 E1332.26199
G0 F12000 X-49.499 Y37.973
G1 F2400 X-49.5 Y-37.972 E1333.76764
G0 F12000 X-49.05 Y-37.972
G1 F2400 X-49.049 Y37.973 E1335.27329
G0 F12000 X-48.599 Y37.973
G1 F2400 X-48.6 Y-37.972 E1336.77894
G0 F12000 X-48.15 Y-37.972
G1 F2400 X-48.149 Y37.973 E1338.28459
G0 F12000 X-47.699 Y37.973
G1 F2400 X-47.7 Y-37.972 E1339.79024
G0 F12000 X-47.25 Y-37.972
G1 F2400 X-47.249 Y37.973 E1341.29589
G0 F12000 X-46.799 Y37.973
G1 F2400 X-46.8 Y-37.972 E1342.80154
G0 F12000 X-46.35 Y-37.972
G1 F2400 X-46.349 Y37.973 E1344.30719
G0 F12000 X-45.899 Y37.973
G1 F2400 X-45.9 Y-37.972 E1345.81284
G0 F12000 X-45.45 Y-37.972
G1 F2400 X-45.449 Y37.973 E1347.31849
G0 F12000 X-44.999 Y37.973
G1 F2400 X-45 Y-37.972 E1348.82414
G0 F12000 X-44.55 Y-37.972
G1 F2400 X-44.549 Y37.973 E1350.32979
G0 F12000 X-44.099 Y37.973
G1 F2400 X-44.1 Y-37.972 E1351.83544
G0 F12000 X-43.65 Y-37.972
G1 F2400 X-43.649 Y37.973 E1353.34109
G0 F12000 X-43.199 Y37.973
G1 F2400 X-43.2 Y-37.972 E1354.84674
G0 F12000 X-42.75 Y-37.972
G1 F2400 X-42.749 Y37.973 E1356.35239
G0 F12000 X-42.299 Y37.973
G1 F2400 X-42.3 Y-37.972 E1357.85804
G0 F12000 X-41.85 Y-37.972
G1 F2400 X-41.849 Y37.973 E1359.36369
G0 F12000 X-41.399 Y37.973
G1 F2400 X-41.4 Y-37.972 E1360.86934
G0 F12000 X-40.95 Y-37.972
G1 F2400 X-40.949 Y37.973 E1362.37499
G0 F12000 X-40.499 Y37.973
G1 F2400 X-40.5 Y-37.972 E1363.88064
G0 F12000 X-40.05 Y-37.972
G1 F2400 X-40.049 Y37.973 E1365.38629
G0 F12000 X-39.599 Y37.973
G1 F2400 X-39.6 Y-37.972 E1366.89194
G0 F12000 X-39.15 Y-37.972
G1 F2400 X-39.149 Y37.973 E1368.39759
G0 F12000 X-38.699 Y37.973
G1 F2400 X-38.7 Y-37.972 E1369.90324
G0 F12000 X-38.25 Y-37.972
G1 F2400 X-38.249 Y37.973 E1371.40889
G0 F12000 X-37.799 Y37.973
G1 F2400 X-37.8 Y-37.972 E1372.91454
G0 F12000 X-37.35 Y-37.972
G1 F2400 X-37.349 Y37.973 E1374.42019
G0 F12000 X-36.899 Y37.973
G1 F2400 X-36.9 Y-37.972 E1375.92584
G0 F12000 X-36.45 Y-37.972
G1 F2400 X-36.449 Y37.973 E1377.43149
G0 F12000 X-35.999 Y37.973
G1 F2400 X-36 Y-37.972 E1378.93714
G0 F12000 X-35.55 Y-37.972
G1 F2400 X-35.549 Y37.973 E1380.44279
G0 F12000 X-35.099 Y37.973
G1 F2400 X-35.1 Y-37.972 E1381.94844
G0 F12000 X-34.65 Y-37.972
G1 F2400 X-34.649 Y37.973 E1383.45409
G0 F12000 X-34.199 Y37.973
G1 F2400 X-34.2 Y-37.972 E1384.95974
G0 F12000 X-33.75 Y-37.972
G1 F2400 X-33.749 Y37.973 E1386.46539
G0 F12000 X-33.299 Y37.973
G1 F2400 X-33.3 Y-37.972 E1387.97104
G0 F12000 X-32.85 Y-37.972
G1 F2400 X-32.849 Y37.973 E1389.47669
G0 F12000 X-32.399 Y37.973
G1 F2400 X-32.4 Y-37.972 E1390.98234
G0 F12000 X-31.95 Y-37.972
G1 F2400 X-31.949 Y37.973 E1392.48799
G0 F12000 X-31.499 Y37.973
G1 F2400 X-31.5 Y-37.972 E1393.99364
G0 F12000 X-31.05 Y-37.972
G1 F2400 X-31.049 Y37.973 E1395.49929
G0 F12000 X-30.599 Y37.973
G1 F2400 X-30.6 Y-37.972 E1397.00494
G0 F12000 X-30.15 Y-37.972
G1 F2400 X-30.149 Y37.973 E1398.51058
G0 F12000 X-29.699 Y37.973
G1 F2400 X-29.7 Y-37.973 E1400.01625
G0 F12000 X-29.25 Y-37.973
G1 F2400 X-29.249 Y37.973 E1401.52192
G0 F12000 X-28.799 Y37.973
G1 F2400 X-28.8 Y-37.973 E1403.02759
G0 F12000 X-28.35 Y-37.973
G1 F2400 X-28.349 Y37.973 E1404.53326
G0 F12000 X-27.899 Y37.973
G1 F2400 X-27.9 Y-37.973 E1406.03893
G0 F12000 X-27.45 Y-37.973
G1 F2400 X-27.449 Y37.973 E1407.5446
G0 F12000 X-26.999 Y37.973
G1 F2400 X-27 Y-37.973 E1409.05027
G0 F12000 X-26.55 Y-37.973
G1 F2400 X-26.549 Y37.973 E1410.55594
G0 F12000 X-26.099 Y37.973
G1 F2400 X-26.1 Y-37.973 E1412.06161
G0 F12000 X-25.65 Y-37.973
G1 F2400 X-25.649 Y37.973 E1413.56728
G0 F12000 X-25.199 Y37.973
G1 F2400 X-25.2 Y-37.973 E1415.07295
G0 F12000 X-24.75 Y-37.973
G1 F2400 X-24.749 Y37.973 E1416.57862
G0 F12000 X-24.299 Y37.973
G1 F2400 X-24.3 Y-37.973 E1418.08429
G0 F12000 X-23.85 Y-37.973
G1 F2400 X-23.849 Y37.973 E1419.58996
G0 F12000 X-23.399 Y37.973
G1 F2400 X-23.4 Y-37.973 E1421.09563
G0 F12000 X-22.95 Y-37.973
G1 F2400 X-22.949 Y37.973 E1422.6013
G0 F12000 X-22.499 Y37.973
G1 F2400 X-22.5 Y-37.973 E1424.10697
G0 F12000 X-22.05 Y-37.973
G1 F2400 X-22.049 Y37.973 E1425.61264
G0 F12000 X-21.599 Y37.973
G1 F2400 X-21.6 Y-37.973 E1427.11831
G0 F12000 X-21.15 Y-37.973
G1 F2400 X-21.149 Y37.973 E1428.62398
G0 F12000 X-20.699 Y37.973
G1 F2400 X-20.7 Y-37.973 E1430.12965
G0 F12000 X-20.25 Y-37.973
G1 F2400 X-20.249 Y37.973 E1431.63532
G0 F12000 X-19.799 Y37.973
G1 F2400 X-19.8 Y-37.973 E1433.14099
G0 F12000 X-19.35 Y-37.973
G1 F2400 X-19.349 Y37.973 E1434.64666
G0 F12000 X-18.899 Y37.973
G1 F2400 X-18.9 Y-37.973 E1436.15233
G0 F12000 X-18.45 Y-37.973
G1 F2400 X-18.449 Y37.973 E1437.658
G0 F12000 X-17.999 Y37.973
G1 F2400 X-18 Y-37.973 E1439.16367
G0 F12000 X-17.55 Y-37.973
G1 F2400 X-17.549 Y37.973 E1440.66934
G0 F12000 X-17.099 Y37.973
G1 F2400 X-17.1 Y-37.973 E1442.175
G0 F12000 X-16.65 Y-37.973
G1 F2400 X-16.649 Y37.973 E1443.68067
G0 F12000 X-16.199 Y37.973
G1 F2400 X-16.2 Y-37.973 E1445.18634
G0 F12000 X-15.75 Y-37.973
G1 F2400 X-15.749 Y37.973 E1446.69201
G0 F12000 X-15.299 Y37.973
G1 F2400 X-15.3 Y-37.973 E1448.19768
G0 F12000 X-14.85 Y-37.973
G1 F2400 X-14.849 Y37.973 E1449.70335
G0 F12000 X-14.399 Y37.973
G1 F2400 X-14.4 Y-37.973 E1451.20902
G0 F12000 X-13.95 Y-37.973
G1 F2400 X-13.949 Y37.973 E1452.71469
G0 F12000 X-13.499 Y37.973
G1 F2400 X-13.5 Y-37.973 E1454.22036
G0 F12000 X-13.05 Y-37.973
G1 F2400 X-13.049 Y37.973 E1455.72603
G0 F12000 X-12.599 Y37.973
G1 F2400 X-12.6 Y-37.973 E1457.2317
G0 F12000 X-12.15 Y-37.973
G1 F2400 X-12.149 Y37.973 E1458.73737
G0 F12000 X-11.699 Y37.973
G1 F2400 X-11.7 Y-37.973 E1460.24304
G0 F12000 X-11.25 Y-37.973
G1 F2400 X-11.249 Y37.973 E1461.74871
G0 F12000 X-10.799 Y37.973
G1 F2400 X-10.8 Y-37.973 E1463.25438
G0 F12000 X-10.35 Y-37.973
G1 F2400 X-10.349 Y37.973 E1464.76005
G0 F12000 X-9.899 Y37.973
G1 F2400 X-9.9 Y-37.973 E1466.26572
G0 F12000 X-9.45 Y-37.973
G1 F2400 X-9.449 Y37.973 E1467.77139
G0 F12000 X-8.999 Y37.973
G1 F2400 X-9 Y-37.973 E1469.27706
G0 F12000 X-8.55 Y-37.973
G1 F2400 X-8.549 Y37.973 E1470.78273
G0 F12000 X-8.099 Y37.973
G1 F2400 X-8.1 Y-37.973 E1472.2884
G0 F12000 X-7.65 Y-37.973
G1 F2400 X-7.649 Y37.973 E1473.79407
G0 F12000 X-7.199 Y37.973
G1 F2400 X-7.2 Y-37.973 E1475.29974
G0 F12000 X-6.75 Y-37.973
G1 F2400 X-6.749 Y37.973 E1476.80541
G0 F12000 X-6.299 Y37.973
G1 F2400 X-6.3 Y-37.973 E1478.31108
G0 F12000 X-5.85 Y-37.973
G1 F2400 X-5.849 Y37.973 E1479.81675
G0 F12000 X-5.399 Y37.973
G1 F2400 X-5.4 Y-37.973 E1481.32242
G0 F12000 X-4.95 Y-37.973
G1 F2400 X-4.949 Y37.973 E1482.82809
G0 F12000 X-4.499 Y37.973
G1 F2400 X-4.5 Y-37.973 E1484.33375
G0 F12000 X-4.05 Y-37.973
G1 F2400 X-4.049 Y37.973 E1485.83942
G0 F12000 X-3.599 Y37.973
G1 F2400 X-3.6 Y-37.973 E1487.34509
G0 F12000 X-3.15 Y-37.973
G1 F2400 X-3.149 Y37.973 E1488.85076
G0 F12000 X-2.699 Y37.973
G1 F2400 X-2.7 Y-37.973 E1490.35643
G0 F12000 X-2.25 Y-37.973
G1 F2400 X-2.249 Y37.973 E1491.8621
G0 F12000 X-1.799 Y37.973
G1 F2400 X-1.8 Y-37.973 E1493.36777
G0 F12000 X-1.35 Y-37.973
G1 F2400 X-1.349 Y37.973 E1494.87344
G0 F12000 X-0.899 Y37.973
G1 F2400 X-0.9 Y-37.973 E1496.37911
G0 F12000 X-0.45 Y-37.973
G1 F2400 X-0.449 Y37.973 E1497.88478
G0 F12000 X0 Y37.974
G1 F2400 X0 Y-37.973 E1499.39047
G0 F12000 X0.449 Y-37.972
G1 F2400 X0.45 Y37.974 E1500.89614
G0 F12000 X0.9 Y37.974
G1 F2400 X0.899 Y-37.972 E1502.40181
G0 F12000 X1.349 Y-37.972
G1 F2400 X1.35 Y37.974 E1503.90748
G0 F12000 X1.8 Y37.974
G1 F2400 X1.799 Y-37.972 E1505.41315
G0 F12000 X2.249 Y-37.972
G1 F2400 X2.25 Y37.974 E1506.91882
G0 F12000 X2.7 Y37.974
G1 F2400 X2.699 Y-37.972 E1508.42449
G0 F12000 X3.149 Y-37.972
G1 F2400 X3.15 Y37.974 E1509.93016
G0 F12000 X3.6 Y37.974
G1 F2400 X3.599 Y-37.972 E1511.43583
G0 F12000 X4.049 Y-37.972
G1 F2400 X4.05 Y37.974 E1512.9415
G0 F12000 X4.5 Y37.974
G1 F2400 X4.499 Y-37.972 E1514.44717
G0 F12000 X4.949 Y-37.972
G1 F2400 X4.95 Y37.974 E1515.95284
G0 F12000 X5.4 Y37.974
G1 F2400 X5.399 Y-37.972 E1517.45851
G0 F12000 X5.849 Y-37.972
G1 F2400 X5.85 Y37.974 E1518.96418
G0 F12000 X6.3 Y37.974
G1 F2400 X6.299 Y-37.972 E1520.46985
G0 F12000 X6.749 Y-37.972
G1 F2400 X6.75 Y37.974 E1521.97552
G0 F12000 X7.2 Y37.974
G1 F2400 X7.199 Y-37.972 E1523.48119
G0 F12000 X7.649 Y-37.972
G1 F2400 X7.65 Y37.974 E1524.98685
G0 F12000 X8.1 Y37.974
G1 F2400 X8.099 Y-37.972 E1526.49252
G0 F12000 X8.549 Y-37.972
G1 F2400 X8.55 Y37.974 E1527.99819
G0 F12000 X9 Y37.974
G1 F2400 X8.999 Y-37.972 E1529.50386
G0 F12000 X9.449 Y-37.972
G1 F2400 X9.45 Y37.974 E1531.00953
G0 F12000 X9.9 Y37.974
G1 F2400 X9.899 Y-37.972 E1532.5152
G0 F12000 X10.349 Y-37.972
G1 F2400 X10.35 Y37.974 E1534.02087
G0 F12000 X10.8 Y37.974
G1 F2400 X10.799 Y-37.972 E1535.52654
G0 F12000 X11.249 Y-37.972
G1 F2400 X11.25 Y37.974 E1537.03221
G0 F12000 X11.7 Y37.974
G1 F2400 X11.699 Y-37.972 E1538.53788
G0 F12000 X12.149 Y-37.972
G1 F2400 X12.15 Y37.974 E1540.04355
G0 F12000 X12.6 Y37.974
G1 F2400 X12.599 Y-37.972 E1541.54922
G0 F12000 X13.049 Y-37.972
G1 F2400 X13.05 Y37.974 E1543.05489
G0 F12000 X13.5 Y37.974
G1 F2400 X13.499 Y-37.972 E1544.56056
G0 F12000 X13.949 Y-37.972
G1 F2400 X13.95 Y37.974 E1546.06623
G0 F12000 X14.4 Y37.974
G1 F2400 X14.399 Y-37.972 E1547.5719
G0 F12000 X14.849 Y-37.972
G1 F2400 X14.85 Y37.974 E1549.07757
G0 F12000 X15.3 Y37.974
G1 F2400 X15.299 Y-37.972 E1550.58324
G0 F12000 X15.749 Y-37.972
G1 F2400 X15.75 Y37.974 E1552.08891
G0 F12000 X16.2 Y37.974
G1 F2400 X16.199 Y-37.972 E1553.59458
G0 F12000 X16.649 Y-37.972
G1 F2400 X16.65 Y37.974 E1555.10025
G0 F12000 X17.1 Y37.974
G1 F2400 X17.099 Y-37.972 E1556.60592
G0 F12000 X17.549 Y-37.972
G1 F2400 X17.55 Y37.974 E1558.11159
G0 F12000 X18 Y37.974
G1 F2400 X17.999 Y-37.972 E1559.61726
G0 F12000 X18.449 Y-37.972
G1 F2400 X18.45 Y37.974 E1561.12293
G0 F12000 X18.9 Y37.974
G1 F2400 X18.899 Y-37.972 E1562.6286
G0 F12000 X19.349 Y-37.972
G1 F2400 X19.35 Y37.974 E1564.13427
G0 F12000 X19.8 Y37.974
G1 F2400 X19.799 Y-37.972 E1565.63994
G0 F12000 X20.249 Y-37.972
G1 F2400 X20.25 Y37.974 E1567.1456
G0 F12000 X20.7 Y37.974
G1 F2400 X20.699 Y-37.972 E1568.65127
G0 F12000 X21.149 Y-37.972
G1 F2400 X21.15 Y37.974 E1570.15694
G0 F12000 X21.6 Y37.974
G1 F2400 X21.599 Y-37.972 E1571.66261
G0 F12000 X22.049 Y-37.972
G1 F2400 X22.05 Y37.974 E1573.16828
G0 F12000 X22.5 Y37.974
G1 F2400 X22.499 Y-37.972 E1574.67395
G0 F12000 X22.949 Y-37.972
G1 F2400 X22.95 Y37.974 E1576.17962
G0 F12000 X23.4 Y37.974
G1 F2400 X23.399 Y-37.972 E1577.68529
G0 F12000 X23.849 Y-37.972
G1 F2400 X23.85 Y37.974 E1579.19096
G0 F12000 X24.3 Y37.974
G1 F2400 X24.299 Y-37.972 E1580.69663
G0 F12000 X24.749 Y-37.972
G1 F2400 X24.75 Y37.974 E1582.2023
G0 F12000 X25.2 Y37.974
G1 F2400 X25.199 Y-37.972 E1583.70797
G0 F12000 X25.649 Y-37.972
G1 F2400 X25.65 Y37.974 E1585.21364
G0 F12000 X26.1 Y37.974
G1 F2400 X26.099 Y-37.972 E1586.71931
G0 F12000 X26.549 Y-37.972
G1 F2400 X26.55 Y37.974 E1588.22498
G0 F12000 X27 Y37.974
G1 F2400 X26.999 Y-37.972 E1589.73065
G0 F12000 X27.449 Y-37.972
G1 F2400 X27.45 Y37.974 E1591.23632
G0 F12000 X27.9 Y37.974
G1 F2400 X27.899 Y-37.972 E1592.74199
G0 F12000 X28.349 Y-37.972
G1 F2400 X28.35 Y37.974 E1594.24766
G0 F12000 X28.8 Y37.974
G1 F2400 X28.799 Y-37.972 E1595.75333
G0 F12000 X29.249 Y-37.972
G1 F2400 X29.25 Y37.974 E1597.259
G0 F12000 X29.7 Y37.974
G1 F2400 X29.699 Y-37.972 E1598.76467
G0 F12000 X30.149 Y-37.972
G1 F2400 X30.15 Y37.973 E1600.27032
G0 F12000 X30.6 Y37.973
G1 F2400 X30.599 Y-37.972 E1601.77597
G0 F12000 X31.049 Y-37.972
G1 F2400 X31.05 Y37.973 E1603.28162
G0 F12000 X31.5 Y37.973
G1 F2400 X31.499 Y-37.972 E1604.78727
G0 F12000 X31.949 Y-37.972
G1 F2400 X31.95 Y37.973 E1606.29292
G0 F12000 X32.4 Y37.973
G1 F2400 X32.399 Y-37.972 E1607.79857
G0 F12000 X32.849 Y-37.972
G1 F2400 X32.85 Y37.973 E1609.30422
G0 F12000 X33.3 Y37.973
G1 F2400 X33.299 Y-37.972 E1610.80987
G0 F12000 X33.749 Y-37.972
G1 F2400 X33.75 Y37.973 E1612.31552
G0 F12000 X34.2 Y37.973
G1 F2400 X34.199 Y-37.972 E1613.82117
G0 F12000 X34.649 Y-37.972
G1 F2400 X34.65 Y37.973 E1615.32682
G0 F12000 X35.1 Y37.973
G1 F2400 X35.099 Y-37.972 E1616.83247
G0 F12000 X35.549 Y-37.972
G1 F2400 X35.55 Y37.973 E1618.33812
G0 F12000 X36 Y37.973
G1 F2400 X35.999 Y-37.972 E1619.84376
G0 F12000 X36.449 Y-37.972
G1 F2400 X36.45 Y37.973 E1621.34941
G0 F12000 X36.9 Y37.973
G1 F2400 X36.899 Y-37.972 E1622.85506
G0 F12000 X37.349 Y-37.972
G1 F2400 X37.35 Y37.973 E1624.36071
G0 F12000 X37.8 Y37.973
G1 F2400 X37.799 Y-37.972 E1625.86636
G0 F12000 X38.249 Y-37.972
G1 F2400 X38.25 Y37.973 E1627.37201
G0 F12000 X38.7 Y37.973
G1 F2400 X38.699 Y-37.972 E1628.87766
G0 F12000 X39.149 Y-37.972
G1 F2400 X39.15 Y37.973 E1630.38331
G0 F12000 X39.6 Y37.973
G1 F2400 X39.599 Y-37.972 E1631.88896
G0 F12000 X40.049 Y-37.972
G1 F2400 X40.05 Y37.973 E1633.39461
G0 F12000 X40.5 Y37.973
G1 F2400 X40.499 Y-37.972 E1634.90026
G0 F12000 X40.949 Y-37.972
G1 F2400 X40.95 Y37.973 E1636.40591
G0 F12000 X41.4 Y37.973
G1 F2400 X41.399 Y-37.972 E1637.91156
G0 F12000 X41.849 Y-37.972
G1 F2400 X41.85 Y37.973 E1639.41721
G0 F12000 X42.3 Y37.973
G1 F2400 X42.299 Y-37.972 E1640.92286
G0 F12000 X42.749 Y-37.972
G1 F2400 X42.75 Y37.973 E1642.42851
G0 F12000 X43.2 Y37.973
G1 F2400 X43.199 Y-37.972 E1643.93416
G0 F12000 X43.649 Y-37.972
G1 F2400 X43.65 Y37.973 E1645.43981
G0 F12000 X44.1 Y37.973
G1 F2400 X44.099 Y-37.972 E1646.94546
G0 F12000 X44.549 Y-37.972
G1 F2400 X44.55 Y37.973 E1648.45111
G0 F12000 X45 Y37.973
G1 F2400 X44.999 Y-37.972 E1649.95676
G0 F12000 X45.449 Y-37.972
G1 F2400 X45.45 Y37.973 E1651.46241
G0 F12000 X45.9 Y37.973
G1 F2400 X45.899 Y-37.972 E1652.96806
G0 F12000 X46.349 Y-37.972
G1 F2400 X46.35 Y37.973 E1654.47371
G0 F12000 X46.8 Y37.973
G1 F2400 X46.799 Y-37.972 E1655.97936
G0 F12000 X47.249 Y-37.972
G1 F2400 X47.25 Y37.973 E1657.48501
G0 F12000 X47.7 Y37.973
G1 F2400 X47.699 Y-37.972 E1658.99066
G0 F12000 X48.149 Y-37.972
G1 F2400 X48.15 Y37.973 E1660.49631
G0 F12000 X48.6 Y37.973
G1 F2400 X48.599 Y-37.972 E1662.00196
G0 F12000 X49.049 Y-37.972
G1 F2400 X49.05 Y37.973 E1663.50761
G0 F12000 X49.5 Y37.973
G1 F2400 X49.499 Y-37.972 E1665.01326
G0 F12000 X49.949 Y-37.972
G1 F2400 X49.95 Y37.973 E1666.51891
G0 F12000 X50.4 Y37.973
G1 F2400 X50.399 Y-37.972 E1668.02456
G0 F12000 X50.849 Y-37.972
G1 F2400 X50.85 Y37.973 E1669.53021
G0 F12000 X51.3 Y37.973
G1 F2400 X51.299 Y-37.972 E1671.03586
G0 F12000 X51.749 Y-37.972
G1 F2400 X51.75 Y37.973 E1672.54151
G0 F12000 X52.2 Y37.973
G1 F2400 X52.199 Y-37.972 E1674.04716
G0 F12000 X52.649 Y-37.972
G1 F2400 X52.65 Y37.973 E1675.55281
G0 F12000 X53.1 Y37.973
G1 F2400 X53.099 Y-37.972 E1677.05846
G0 F12000 X53.549 Y-37.972
G1 F2400 X53.55 Y37.973 E1678.56411
G0 F12000 X54 Y37.973
G1 F2400 X53.999 Y-37.972 E1680.06976
G0 F12000 X54.449 Y-37.972
G1 F2400 X54.45 Y37.973 E1681.57541
G0 F12000 X54.9 Y37.973
G1 F2400 X54.899 Y-37.972 E1683.08106
G0 F12000 X55.349 Y-37.972
G1 F2400 X55.35 Y37.973 E1684.58671
G0 F12000 X55.8 Y37.973
G1 F2400 X55.799 Y-37.972 E1686.09236
G0 F12000 X56.249 Y-37.972
G1 F2400 X56.25 Y37.973 E1687.59801
G0 F12000 X56.7 Y37.973
G1 F2400 X56.699 Y-37.972 E1689.10366
G0 F12000 X57.149 Y-37.972
G1 F2400 X57.15 Y37.973 E1690.60931
G0 F12000 X57.6 Y37.973
G1 F2400 X57.599 Y-37.972 E1692.11496
G0 F12000 X58.12 Y-37.8
; TYPE:BOTTOM-FILL
G1 F2400 X-58.119 Y-37.8 E1694.41946
G0 F12000 X-58.119 Y-37.35
G1 F2400 X-57.473 Y-37.125 E1694.43226
G1 X-58.119 Y-36.675 E1694.44506
G1 X-57.473 Y-36.225 E1694.45786
G1 X-58.119 Y-35.775 E1694.47066
G1 X-57.473 Y-35.325 E1694.48346
G1 X-58.119 Y-34.875 E1694.49626
G1 X-57.473 Y-34.425 E1694.50906
G1 X-58.119 Y-33.975 E1694.52186
G1 X-57.473 Y-33.525 E1694.53465
G1 X-58.119 Y-33.075 E1694.54745
G1 X-57.473 Y-32.624 E1694.56026
G1 X-58.119 Y-32.174 E1694.57306
G1 X-57.473 Y-31.724 E1694.58586
G1 X-58.119 Y-31.274 E1694.59866
G1 X-57.473 Y-30.824 E1694.61146
G1 X-58.119 Y-30.374 E1694.62426
G1 X-57.473 Y-29.924 E1694.63705
G1 X-58.119 Y-29.474 E1694.64985
G1 X-57.473 Y-29.024 E1694.66265
G1 X-58.119 Y-28.574 E1694.67545
G1 X-57.473 Y-28.124 E1694.68825
G1 X-58.119 Y-27.674 E1694.70105
G1 X-57.473 Y-27.224 E1694.71385
G1 X-58.119 Y-26.774 E1694.72665
G1 X-57.473 Y-26.324 E1694.73945
G1 X-58.119 Y-25.874 E1694.75224
G1 X-57.473 Y-25.424 E1694.76504
G1 X-58.119 Y-24.974 E1694.77784
G1 X-57.473 Y-24.524 E1694.79064
G1 X-58.119 Y-24.074 E1694.80344
G1 X-57.473 Y-23.624 E1694.81624
G1 X-58.119 Y-23.174 E1694.82904
G1 X-57.473 Y-22.724 E1694.84184
G1 X-58.119 Y-22.274 E1694.85463
G1 X-57.473 Y-21.824 E1694.86743
G1 X-58.119 Y-21.374 E1694.88023
G1 X-57.473 Y-20.924 E1694.89303
G1 X-58.119 Y-20.474 E1694.90583
G1 X-57.473 Y-20.024 E1694.91863
G1 X-58.119 Y-19.574 E1694.93143
G1 X-57.473 Y-19.124 E1694.94423
G1 X-58.119 Y-18.674 E1694.95703
G1 X-57.473 Y-18.224 E1694.96982
G1 X-58.119 Y-17.774 E1694.98262
G1 X-57.473 Y-17.324 E1694.99542
G1 X-58.119 Y-16.874 E1695.00822
G1 X-57.473 Y-16.424 E1695.02102
G1 X-58.119 Y-15.974 E1695.03382
G1 X-57.473 Y-15.524 E1695.04662
G1 X-58.119 Y-15.074 E1695.05942
G1 X-57.473 Y-14.624 E1695.07221
G1 X-58.119 Y-14.174 E1695.08501
G1 X-57.473 Y-13.724 E1695.09781
G1 X-58.119 Y-13.274 E1695.11061
G1 X-57.473 Y-12.824 E1695.12341
G1 X-58.119 Y-12.374 E1695.13621
G1 X-57.473 Y-11.924 E1695.14901
G1 X-58.119 Y-11.474 E1695.16181
G1 X-57.473 Y-11.024 E1695.17461
G1 X-58.119 Y-10.574 E1695.1874
G1 X-57.473 Y-10.124 E1695.2002
G1 X-58.119 Y-9.674 E1695.213
G1 X-57.473 Y-9.224 E1695.2258
G1 X-58.119 Y-8.774 E1695.2386
G1 X-57.473 Y-8.324 E1695.2514
G1 X-58.119 Y-7.874 E1695.2642
G1 X-57.473 Y-7.424 E1695.277
G1 X-58.119 Y-6.974 E1695.28979
G1 X-57.473 Y-6.524 E1695.30259
G1 X-58.119 Y-6.074 E1695.31539
G1 X-57.473 Y-5.624 E1695.32819
G1 X-58.119 Y-5.174 E1695.34099
G1 X-57.473 Y-4.724 E1695.35379
G1 X-58.119 Y-4.274 E1695.36659
G1 X-57.473 Y-3.824 E1695.37939
G1 X-58.119 Y-3.374 E1695.39219
G1 X-57.473 Y-2.924 E1695.40498
G1 X-58.119 Y-2.474 E1695.41778
G1 X-57.473 Y-2.024 E1695.43058
G1 X-58.119 Y-1.574 E1695.44338
G1 X-57.473 Y-1.124 E1695.45618
G1 X-58.119 Y-0.674 E1695.46898
G1 X-57.473 Y-0.224 E1695.48178
G1 X-58.119 Y0.225 E1695.49457
G1 X-57.473 Y0.675 E1695.50737
G1 X-58.119 Y1.125 E1695.52016
G1 X-57.473 Y1.575 E1695.53296
G1 X-58.119 Y2.025 E1695.54576
G1 X-57.473 Y2.475 E1695.55856
G1 X-58.119 Y2.925 E1695.57136
G1 X-57.473 Y3.375 E1695.58416
G1 X-58.119 Y3.825 E1695.59696
G1 X-57.473 Y4.275 E1695.60976
G1 X-58.119 Y4.725 E1695.62255
G1 X-57.473 Y5.175 E1695.63535
G1 X-58.119 Y5.625 E1695.64815
G1 X-57.473 Y6.075 E1695.66095
G1 X-58.119 Y6.525 E1695.67375
G1 X-57.473 Y6.975 E1695.68655
G1 X-58.119 Y7.425 E1695.69935
G1 X-57.473 Y7.875 E1695.71215
G1 X-58.119 Y8.325 E1695.72495
G1 X-57.473 Y8.775 E1695.73774
G1 X-58.119 Y9.225 E1695.75054
G1 X-57.473 Y9.675 E1695.76334
G1 X-58.119 Y10.125 E1695.77614
G1 X-57.473 Y10.575 E1695.78894
G1 X-58.119 Y11.025 E1695.80174
G1 X-57.473 Y11.475 E1695.81454
G1 X-58.119 Y11.925 E1695.82734
G1 X-57.473 Y12.375 E1695.84013
G1 X-58.119 Y12.825 E1695.85293
G1 X-57.473 Y13.275 E1695.86573
G1 X-58.119 Y13.725 E1695.87853
G1 X-57.473 Y14.175 E1695.89133
G1 X-58.119 Y14.625 E1695.90413
G1 X-57.473 Y15.075 E1695.91693
G1 X-58.119 Y15.525 E1695.92973
G1 X-57.473 Y15.975 E1695.94253
G1 X-58.119 Y16.425 E1695.95532
G1 X-57.473 Y16.875 E1695.96812
G1 X-58.119 Y17.325 E1695.98092
G1 X-57.473 Y17.775 E1695.99372
G1 X-58.119 Y18.225 E1696.00652
G1 X-57.473 Y18.675 E1696.01932
G1 X-58.119 Y19.125 E1696.03212
G1 X-57.473 Y19.575 E1696.04492
G1 X-58.119 Y20.025 E1696.05771
G1 X-57.473 Y20.475 E1696.07051
G1 X-58.119 Y20.925 E1696.08331
G1 X-57.473 Y21.375 E1696.09611
G1 X-58.119 Y21.825 E1696.10891
G1 X-57.473 Y22.275 E1696.12171
G1 X-58.119 Y22.725 E1696.13451
G1 X-57.473 Y23.175 E1696.14731
G1 X-58.119 Y23.625 E1696.16011
G1 X-57.473 Y24.075 E1696.1729
G1 X-58.119 Y24.525 E1696.1857
G1 X-57.473 Y24.975 E1696.1985
G1 X-58.119 Y25.425 E1696.2113
G1 X-57.473 Y25.875 E1696.2241
G1 X-58.119 Y26.325 E1696.2369
G1 X-57.473 Y26.775 E1696.2497
G1 X-58.119 Y27.225 E1696.2625
G1 X-57.473 Y27.675 E1696.27529
G1 X-58.119 Y28.125 E1696.28809
G1 X-57.473 Y28.575 E1696.30089
G1 X-58.119 Y29.025 E1696.31369
G1 X-57.473 Y29.475 E1696.32649
G1 X-58.119 Y29.925 E1696.33929
G1 X-57.473 Y30.375 E1696.35209
G1 X-58.119 Y30.825 E1696.36489
G1 X-57.473 Y31.275 E1696.37769
G1 X-58.119 Y31.725 E1696.39048
G1 X-57.473 Y32.175 E1696.40328
G1 X-58.119 Y32.625 E1696.41608
G1 X-57.473 Y33.075 E1696.42888
G1 X-58.119 Y33.525 E1696.44168
G1 X-57.473 Y33.975 E1696.45448
G1 X-58.119 Y34.425 E1696.46728
G1 X-57.473 Y34.875 E1696.48008
G1 X-58.119 Y35.325 E1696.49287
G1 X-57.473 Y35.775 E1696.50567
G1 X-58.119 Y36.225 E1696.51847
G1 X-57.473 Y36.675 E1696.53127
G1 X-58.119 Y37.125 E1696.54407
G1 X-57.473 Y37.35 E1696.55763
G0 F12000 X-58.119 Y37.8
G1 F2400 X58.12 Y37.8 E1698.86213
G0 F12000 X58.12 Y37.35
G1 F2400 X57.474 Y37.125 E1698.87494
G1 X58.12 Y36.675 E1698.88774
G1 X57.474 Y36.225 E1698.90054
G1 X58.12 Y35.775 E1698.91334
G1 X57.474 Y35.325 E1698.92614
G1 X58.12 Y34.875 E1698.93893
G1 X57.474 Y34.425 E1698.95173
G1 X58.12 Y33.975 E1698.96453
G1 X57.474 Y33.525 E1698.97733
G1 X58.12 Y33.075 E1698.99013
G1 X57.474 Y32.624 E1699.00294
G1 X58.12 Y32.174 E1699.01574
G1 X57.474 Y31.724 E1699.02854
G1 X58.12 Y31.274 E1699.04133
G1 X57.474 Y30.824 E1699.05413
G1 X58.12 Y30.374 E1699.06693
G1 X57.474 Y29.924 E1699.07973
G1 X58.12 Y29.474 E1699.09253
G1 X57.474 Y29.024 E1699.10533
G1 X58.12 Y28.574 E1699.11813
G1 X57.474 Y28.124 E1699.13093
G1 X58.12 Y27.674 E1699.14372
G1 X57.474 Y27.224 E1699.15652
G1 X58.12 Y26.774 E1699.16932
G1 X57.474 Y26.324 E1699.18212
G1 X58.12 Y25.874 E1699.19492
G1 X57.474 Y25.424 E1699.20772
G1 X58.12 Y24.974 E1699.22052
G1 X57.474 Y24.524 E1699.23332
G1 X58.12 Y24.074 E1699.24612
G1 X57.474 Y23.624 E1699.25891
G1 X58.12 Y23.174 E1699.27171
G1 X57.474 Y22.724 E1699.28451
G1 X58.12 Y22.274 E1699.29731
G1 X57.474 Y21.824 E1699.31011
G1 X58.12 Y21.374 E1699.32291
G1 X57.474 Y20.924 E1699.33571
G1 X58.12 Y20.474 E1699.34851
G1 X57.474 Y20.024 E1699.3613
G1 X58.12 Y19.574 E1699.3741
G1 X57.474 Y19.124 E1699.3869
G1 X58.12 Y18.674 E1699.3997
G1 X57.474 Y18.224 E1699.4125
G1 X58.12 Y17.774 E1699.4253
G1 X57.474 Y17.324 E1699.4381
G1 X58.12 Y16.874 E1699.4509
G1 X57.474 Y16.424 E1699.4637
G1 X58.12 Y15.974 E1699.47649
G1 X57.474 Y15.524 E1699.48929
G1 X58.12 Y15.074 E1699.50209
G1 X57.474 Y14.624 E1699.51489
G1 X58.12 Y14.174 E1699.52769
G1 X57.474 Y13.724 E1699.54049
G1 X58.12 Y13.274 E1699.55329
G1 X57.474 Y12.824 E1699.56609
G1 X58.12 Y12.374 E1699.57888
G1 X57.474 Y11.924 E1699.59168
G1 X58.12 Y11.474 E1699.60448
G1 X57.474 Y11.024 E1699.61728
G1 X58.12 Y10.574 E1699.63008
G1 X57.474 Y10.124 E1699.64288
G1 X58.12 Y9.674 E1699.65568
G1 X57.474 Y9.224 E1699.66848
G1 X58.12 Y8.774 E1699.68128
G1 X57.474 Y8.324 E1699.69407
G1 X58.12 Y7.874 E1699.70687
G1 X57.474 Y7.424 E1699.71967
G1 X58.12 Y6.974 E1699.73247
G1 X57.474 Y6.524 E1699.74527
G1 X58.12 Y6.074 E1699.75807
G1 X57.474 Y5.624 E1699.77087
G1 X58.12 Y5.174 E1699.78367
G1 X57.474 Y4.724 E1699.79646
G1 X58.12 Y4.274 E1699.80926
G1 X57.474 Y3.824 E1699.82206
G1 X58.12 Y3.374 E1699.83486
G1 X57.474 Y2.924 E1699.84766
G1 X58.12 Y2.474 E1699.86046
G1 X57.474 Y2.024 E1699.87326
G1 X58.12 Y1.574 E1699.88606
G1 X57.474 Y1.124 E1699.89886
G1 X58.12 Y0.674 E1699.91165
G1 X57.474 Y0.224 E1699.92445
G1 X58.12 Y-0.225 E1699.93724
G1 X57.474 Y-0.675 E1699.95004
G1 X58.12 Y-1.125 E1699.96284
G1 X57.474 Y-1.575 E1699.97564
G1 X58.12 Y-2.025 E1699.98844
G1 X57.474 Y-2.475 E1700.00124
G1 X58.12 Y-2.925 E1700.01404
G1 X57.474 Y-3.375 E1700.02683
G1 X58.12 Y-3.825 E1700.03963
G1 X57.474 Y-4.275 E1700.05243
G1 X58.12 Y-4.725 E1700.06523
G1 X57.474 Y-5.175 E1700.07803
G1 X58.12 Y-5.625 E1700.09083
G1 X57.474 Y-6.075 E1700.10363
G1 X58.12 Y-6.525 E1700.11643
G1 X57.474 Y-6.975 E1700.12922
G1 X58.12 Y-7.425 E1700.14202
G1 X57.474 Y-7.875 E1700.15482
G1 X58.12 Y-8.325 E1700.16762
G1 X57.474 Y-8.775 E1700.18042
G1 X58.12 Y-9.225 E1700.19322
G1 X57.474 Y-9.675 E1700.20602
G1 X58.12 Y-10.125 E1700.21882
G1 X57.474 Y-10.575 E1700.23162
G1 X58.12 Y-11.025 E1700.24441
G1 X57.474 Y-11.475 E1700.25721
G1 X58.12 Y-11.925 E1700.27001
G1 X57.474 Y-12.375 E1700.28281
G1 X58.12 Y-12.825 E1700.29561
G1 X57.474 Y-13.275 E1700.30841
G1 X58.12 Y-13.725 E1700.32121
G1 X57.474 Y-14.175 E1700.33401
G1 X58.12 Y-14.625 E1700.3468
G1 X57.474 Y-15.075 E1700.3596
G1 X58.12 Y-15.525 E1700.3724
G1 X57.474 Y-15.975 E1700.3852
G1 X58.12 Y-16.425 E1700.398
G1 X57.474 Y-16.875 E1700.4108
G1 X58.12 Y-17.325 E1700.4236
G1 X57.474 Y-17.775 E1700.4364
G1 X58.12 Y-18.225 E1700.4492
G1 X57.474 Y-18.675 E1700.46199
G1 X58.12 Y-19.125 E1700.47479
G1 X57.474 Y-19.575 E1700.48759
G1 X58.12 Y-20.025 E1700.50039
G1 X57.474 Y-20.475 E1700.51319
G1 X58.12 Y-20.925 E1700.52599
G1 X57.474 Y-21.375 E1700.53879
G1 X58.12 Y-21.825 E1700.55159
G1 X57.474 Y-22.275 E1700.56438
G1 X58.12 Y-22.725 E1700.57718
G1 X57.474 Y-23.175 E1700.58998
G1 X58.12 Y-23.625 E1700.60278
G1 X57.474 Y-24.075 E1700.61558
G1 X58.12 Y-24.525 E1700.62838
G1 X57.474 Y-24.975 E1700.64118
G1 X58.12 Y-25.425 E1700.65398
G1 X57.474 Y-25.875 E1700.66678
G1 X58.12 Y-26.325 E1700.67957
G1 X57.474 Y-26.775 E1700.69237
G1 X58.12 Y-27.225 E1700.70517
G1 X57.474 Y-27.675 E1700.71797
G1 X58.12 Y-28.125 E1700.73077
G1 X57.474 Y-28.575 E1700.74357
G1 X58.12 Y-29.025 E1700.75637
G1 X57.474 Y-29.475 E1700.76917
G1 X58.12 Y-29.925 E1700.78196
G1 X57.474 Y-30.375 E1700.79476
G1 X58.12 Y-30.825 E1700.80756
G1 X57.474 Y-31.275 E1700.82036
G1 X58.12 Y-31.725 E1700.83316
G1 X57.474 Y-32.175 E1700.84596
G1 X58.12 Y-32.625 E1700.85876
G1 X57.474 Y-33.075 E1700.87156
G1 X58.12 Y-33.525 E1700.88436
G1 X57.474 Y-33.975 E1700.89715
G1 X58.12 Y-34.425 E1700.90995
G1 X57.474 Y-34.875 E1700.92275
G1 X58.12 Y-35.325 E1700.93555
G1 X57.474 Y-35.775 E1700.94835
G1 X58.12 Y-36.225 E1700.96115
G1 X57.474 Y-36.675 E1700.97395
G1 X58.12 Y-37.125 E1700.98675
G1 X57.474 Y-37.35 E1701.00031
G1 F6000 E1699.20031
G1 Z0.9
G0 F12000 X57.474 Y-37.35 Z1.15
; Layer Change GCode
; LAYER:2
G0 X58.458 Y38.917 Z1
G0 X58.463 Y39.317
G0 X58.461 Y39.018
G0 X58.461 Y39.018
G0 X58.482 Y39.343
G0 X58.482 Y39.343
G0 X58.434 Y38.437
; TYPE:WALL-INNER
G1 Z0.5
G1 F6000 E1701.00031
G1 F2400 X58.434 Y38.437 E1701.00031
G1 X-58.434 Y38.435 E1703.31728
G1 X-58.433 Y-38.437 E1704.84131
G1 X-58.423 Y-38.442 E1704.84153
G1 X58.434 Y-38.435 E1707.15828
G1 X58.434 Y38.437 E1708.68231
G0 F12000 X58.451 Y38.893
G1 F2400 X58.451 Y38.893 E1708.68231
G1 X-58.566 Y38.878 E1711.00223
G1 X-58.74 Y38.792 E1711.00608
G1 X-58.855 Y38.625 E1711.0101
G1 X-58.893 Y38.435 E1711.01394
G1 X-58.893 Y-38.434 E1712.53791
G1 X-58.855 Y-38.623 E1712.54173
G1 X-58.746 Y-38.785 E1712.5456
G1 X-58.551 Y-38.879 E1712.54989
G1 X-58.452 Y-38.893 E1712.55188
G1 X58.567 Y-38.878 E1714.87184
G1 X58.746 Y-38.785 E1714.87584
G1 X58.855 Y-38.623 E1714.87971
G1 X58.893 Y-38.434 E1714.88353
G1 X58.893 Y38.435 E1716.4075
G1 X58.855 Y38.625 E1716.41134
G1 X58.747 Y38.785 E1716.41517
G1 X58.554 Y38.878 E1716.41942
G1 X58.451 Y38.893 E1716.42148
G0 F12000 X58.482 Y39.343
; TYPE:WALL-OUTER
G1 F1800 X58.482 Y39.343 E1716.42148
G1 X-58.562 Y39.335 E1718.74194
G1 X-58.711 Y39.309 E1718.74494
G1 X-58.984 Y39.173 E1718.75099
G1 X-59.081 Y39.096 E1718.75344
G1 X-59.279 Y38.801 E1718.76048
G1 X-59.343 Y38.476 E1718.76705
G1 X-59.343 Y-38.475 E1720.29265
G1 X-59.279 Y-38.799 E1720.29919
G1 X-59.079 Y-39.096 E1720.30629
G1 X-58.984 Y-39.172 E1720.3087
G1 X-58.686 Y-39.314 E1720.31525
G1 X-58.481 Y-39.343 E1720.31935
G1 X58.563 Y-39.335 E1722.63981
G1 X58.711 Y-39.31 E1722.64279
G1 X58.983 Y-39.172 E1722.64884
G1 X59.079 Y-39.096 E1722.65126
G1 X59.279 Y-38.799 E1722.65836
G1 X59.343 Y-38.475 E1722.66491
G1 X59.343 Y38.476 E1724.1905
G1 X59.279 Y38.801 E1724.19707
G1 X59.081 Y39.096 E1724.20411
G1 X58.984 Y39.173 E1724.20657
G1 X58.686 Y39.314 E1724.21311
G1 X58.482 Y39.343 E1724.21719
G0 F12000 X58.541 Y38.635
; TYPE:FILL
G1 F2400 X58.551 Y38.6 E1724.21785
G1 X58.55 Y38.539 E1724.21838
G0 F12000 X58.234 Y37.8
G1 F2400 X-58.234 Y37.8 E1726.52742
G0 F12000 X-58.234 Y37.35
G1 F2400 X58.234 Y37.35 E1728.83646
G0 F12000 X58.234 Y36.9
G1 F2400 X-58.234 Y36.9 E1731.1455
G0 F12000 X-58.234 Y36.45
G1 F2400 X58.234 Y36.45 E1733.45454
G0 F12000 X58.234 Y36
G1 F2400 X-58.234 Y36 E1735.76358
G0 F12000 X-58.234 Y35.55
G1 F2400 X58.234 Y35.55 E1738.07262
G0 F12000 X58.234 Y35.1
G1 F2400 X-58.234 Y35.1 E1740.38166
G0 F12000 X-58.234 Y34.65
G1 F2400 X58.234 Y34.65 E1742.6907
G0 F12000 X58.234 Y34.2
G1 F2400 X-58.234 Y34.2 E1744.99974
G0 F12000 X-58.234 Y33.75
G1 F2400 X58.234 Y33.75 E1747.30878
G0 F12000 X58.234 Y33.3
G1 F2400 X-58.234 Y33.3 E1749.61782
G0 F12000 X-58.234 Y32.85
G1 F2400 X58.234 Y32.85 E1751.92686
G0 F12000 X58.234 Y32.399
G1 F2400 X-58.234 Y32.4 E1754.2359
G0 F12000 X-58.234 Y31.95
G1 F2400 X58.234 Y31.949 E1756.54494
G0 F12000 X58.234 Y31.499
G1 F2400 X-58.234 Y31.5 E1758.85398
G0 F12000 X-58.234 Y31.05
G1 F2400 X58.234 Y31.049 E1761.16302
G0 F12000 X58.234 Y30.599
G1 F2400 X-58.234 Y30.6 E1763.47206
G0 F12000 X-58.234 Y30.15
G1 F2400 X58.234 Y30.149 E1765.7811
G0 F12000 X58.234 Y29.699
G1 F2400 X-58.234 Y29.7 E1768.09014
G0 F12000 X-58.234 Y29.25
G1 F2400 X58.234 Y29.249 E1770.39918
G0 F12000 X58.234 Y28.799
G1 F2400 X-58.234 Y28.8 E1772.70822
G0 F12000 X-58.234 Y28.35
G1 F2400 X58.234 Y28.349 E1775.01726
G0 F12000 X58.234 Y27.899
G1 F2400 X-58.234 Y27.9 E1777.3263
G0 F12000 X-58.234 Y27.45
G1 F2400 X58.234 Y27.449 E1779.63534
G0 F12000 X58.234 Y26.999
G1 F2400 X-58.234 Y27 E1781.94438
G0 F12000 X-58.234 Y26.55
G1 F2400 X58.234 Y26.549 E1784.25342
G0 F12000 X58.234 Y26.099
G1 F2400 X-58.234 Y26.1 E1786.56246
G0 F12000 X-58.234 Y25.65
G1 F2400 X58.234 Y25.649 E1788.8715
G0 F12000 X58.234 Y25.199
G1 F2400 X-58.234 Y25.2 E1791.18054
G0 F12000 X-58.234 Y24.75
G1 F2400 X58.234 Y24.749 E1793.48958
G0 F12000 X58.234 Y24.299
G1 F2400 X-58.234 Y24.3 E1795.79862
G0 F12000 X-58.234 Y23.85
G1 F2400 X58.234 Y23.849 E1798.10765
G0 F12000 X58.234 Y23.399
G1 F2400 X-58.234 Y23.4 E1800.41669
G0 F12000 X-58.234 Y22.95
G1 F2400 X58.234 Y22.949 E1802.72573
G0 F12000 X58.234 Y22.499
G1 F2400 X-58.234 Y22.5 E1805.03477
G0 F12000 X-58.234 Y22.05
G1 F2400 X58.234 Y22.049 E1807.34381
G0 F12000 X58.234 Y21.599
G1 F2400 X-58.234 Y21.6 E1809.65285
G0 F12000 X-58.234 Y21.15
G1 F2400 X58.234 Y21.149 E1811.96189
G0 F12000 X58.234 Y20.699
G1 F2400 X-58.234 Y20.7 E1814.27093
G0 F12000 X-58.234 Y20.25
G1 F2400 X58.234 Y20.249 E1816.57997
G0 F12000 X58.234 Y19.799
G1 F2400 X-58.234 Y19.8 E1818.88901
G0 F12000 X-58.234 Y19.35
G1 F2400 X58.234 Y19.349 E1821.19805
G0 F12000 X58.234 Y18.899
G1 F2400 X-58.234 Y18.9 E1823.50709
G0 F12000 X-58.234 Y18.45
G1 F2400 X58.234 Y18.449 E1825.81613
G0 F12000 X58.234 Y17.999
G1 F2400 X-58.234 Y18 E1828.12517
G0 F12000 X-58.234 Y17.55
G1 F2400 X58.234 Y17.549 E1830.43421
G0 F12000 X58.234 Y17.099
G1 F2400 X-58.234 Y17.1 E1832.74325
G0 F12000 X-58.234 Y16.65
G1 F2400 X58.234 Y16.649 E1835.05229
G0 F12000 X58.234 Y16.199
G1 F2400 X-58.234 Y16.2 E1837.36133
G0 F12000 X-58.234 Y15.75
G1 F2400 X58.234 Y15.749 E1839.67037
G0 F12000 X58.234 Y15.299
G1 F2400 X-58.234 Y15.3 E1841.97941
G0 F12000 X-58.234 Y14.85
G1 F2400 X58.234 Y14.849 E1844.28845
G0 F12000 X58.234 Y14.399
G1 F2400 X-58.234 Y14.4 E1846.59749
G0 F12000 X-58.234 Y13.95
G1 F2400 X58.234 Y13.949 E1848.90653
G0 F12000 X58.234 Y13.499
G1 F2400 X-58.234 Y13.5 E1851.21557
G0 F12000 X-58.234 Y13.05
G1 F2400 X58.234 Y13.049 E1853.52461
G0 F12000 X58.234 Y12.599
G1 F2400 X-58.234 Y12.6 E1855.83365
G0 F12000 X-58.234 Y12.15
G1 F2400 X58.234 Y12.149 E1858.14269
G0 F12000 X58.234 Y11.699
G1 F2400 X-58.234 Y11.7 E1860.45173
G0 F12000 X-58.234 Y11.25
G1 F2400 X58.234 Y11.249 E1862.76077
G0 F12000 X58.234 Y10.799
G1 F2400 X-58.234 Y10.8 E1865.06981
G0 F12000 X-58.234 Y10.35
G1 F2400 X58.234 Y10.349 E1867.37885
G0 F12000 X58.234 Y9.899
G1 F2400 X-58.234 Y9.9 E1869.68789
G0 F12000 X-58.234 Y9.45
G1 F2400 X58.234 Y9.449 E1871.99693
G0 F12000 X58.234 Y8.999
G1 F2400 X-58.234 Y9 E1874.30597
G0 F12000 X-58.234 Y8.55
G1 F2400 X58.234 Y8.549 E1876.61501
G0 F12000 X58.234 Y8.099
G1 F2400 X-58.234 Y8.1 E1878.92405
G0 F12000 X-58.234 Y7.65
G1 F2400 X58.234 Y7.649 E1881.23309
G0 F12000 X58.234 Y7.199
G1 F2400 X-58.234 Y7.2 E1883.54213
G0 F12000 X-58.234 Y6.75
G1 F2400 X58.234 Y6.749 E1885.85117
G0 F12000 X58.234 Y6.299
G1 F2400 X-58.234 Y6.3 E1888.1602
G0 F12000 X-58.234 Y5.85
G1 F2400 X58.234 Y5.849 E1890.46924
G0 F12000 X58.234 Y5.399
G1 F2400 X-58.234 Y5.4 E1892.77828
G0 F12000 X-58.234 Y4.95
G1 F2400 X58.234 Y4.949 E1895.08732
G0 F12000 X58.234 Y4.499
G1 F2400 X-58.234 Y4.5 E1897.39636
G0 F12000 X-58.234 Y4.05
G1 F2400 X58.234 Y4.049 E1899.7054
G0 F12000 X58.234 Y3.599
G1 F2400 X-58.234 Y3.6 E1902.01444
G0 F12000 X-58.234 Y3.15
G1 F2400 X58.234 Y3.149 E1904.32348
G0 F12000 X58.234 Y2.699
G1 F2400 X-58.234 Y2.7 E1906.63252
G0 F12000 X-58.234 Y2.25
G1 F2400 X58.234 Y2.249 E1908.94156
G0 F12000 X58.234 Y1.799
G1 F2400 X-58.234 Y1.8 E1911.2506
G0 F12000 X-58.234 Y1.35
G1 F2400 X58.234 Y1.349 E1913.55964
G0 F12000 X58.234 Y0.899
G1 F2400 X-58.234 Y0.9 E1915.86868
G0 F12000 X-58.234 Y0.45
G1 F2400 X58.234 Y0.449 E1918.17772
G0 F12000 X58.234 Y0
G1 F2400 X-58.234 Y0 E1920.48676
G0 F12000 X-58.233 Y-0.449
G1 F2400 X58.234 Y-0.45 E1922.79578
G0 F12000 X58.234 Y-0.9
G1 F2400 X-58.233 Y-0.899 E1925.1048
G0 F12000 X-58.233 Y-1.349
G1 F2400 X58.234 Y-1.35 E1927.41382
G0 F12000 X58.234 Y-1.8
G1 F2400 X-58.233 Y-1.799 E1929.72284
G0 F12000 X-58.233 Y-2.249
G1 F2400 X58.234 Y-2.25 E1932.03186
G0 F12000 X58.234 Y-2.7
G1 F2400 X-58.233 Y-2.699 E1934.34088
G0 F12000 X-58.233 Y-3.149
G1 F2400 X58.234 Y-3.15 E1936.6499
G0 F12000 X58.234 Y-3.6
G1 F2400 X-58.233 Y-3.599 E1938.95892
G0 F12000 X-58.233 Y-4.049
G1 F2400 X58.234 Y-4.05 E1941.26794
G0 F12000 X58.234 Y-4.5
G1 F2400 X-58.233 Y-4.499 E1943.57696
G0 F12000 X-58.233 Y-4.949
G1 F2400 X58.234 Y-4.95 E1945.88598
G0 F12000 X58.234 Y-5.4
G1 F2400 X-58.233 Y-5.399 E1948.195
G0 F12000 X-58.233 Y-5.849
G1 F2400 X58.234 Y-5.85 E1950.50402
G0 F12000 X58.234 Y-6.3
G1 F2400 X-58.233 Y-6.299 E1952.81304
G0 F12000 X-58.233 Y-6.749
G1 F2400 X58.234 Y-6.75 E1955.12206
G0 F12000 X58.234 Y-7.2
G1 F2400 X-58.233 Y-7.199 E1957.43108
G0 F12000 X-58.233 Y-7.649
G1 F2400 X58.234 Y-7.65 E1959.7401
G0 F12000 X58.234 Y-8.1
G1 F2400 X-58.233 Y-8.099 E1962.04912
G0 F12000 X-58.233 Y-8.549
G1 F2400 X58.234 Y-8.55 E1964.35814
G0 F12000 X58.234 Y-9
G1 F2400 X-58.233 Y-8.999 E1966.66716
G0 F12000 X-58.233 Y-9.449
G1 F2400 X58.234 Y-9.45 E1968.97618
G0 F12000 X58.234 Y-9.9
G1 F2400 X-58.233 Y-9.899 E1971.2852
G0 F12000 X-58.233 Y-10.349
G1 F2400 X58.234 Y-10.35 E1973.59422
G0 F12000 X58.234 Y-10.8
G1 F2400 X-58.233 Y-10.799 E1975.90324
G0 F12000 X-58.233 Y-11.249
G1 F2400 X58.234 Y-11.25 E1978.21226
G0 F12000 X58.234 Y-11.7
G1 F2400 X-58.233 Y-11.699 E1980.52128
G0 F12000 X-58.233 Y-12.149
G1 F2400 X58.234 Y-12.15 E1982.8303
G0 F12000 X58.234 Y-12.6
G1 F2400 X-58.233 Y-12.599 E1985.13932
G0 F12000 X-58.233 Y-13.049
G1 F2400 X58.234 Y-13.05 E1987.44834
G0 F12000 X58.234 Y-13.5
G1 F2400 X-58.233 Y-13.499 E1989.75736
G0 F12000 X-58.233 Y-13.949
G1 F2400 X58.234 Y-13.95 E1992.06638
G0 F12000 X58.234 Y-14.4
G1 F2400 X-58.233 Y-14.399 E1994.3754
G0 F12000 X-58.233 Y-14.849
G1 F2400 X58.234 Y-14.85 E1996.68442
G0 F12000 X58.234 Y-15.3
G1 F2400 X-58.233 Y-15.299 E1998.99344
G0 F12000 X-58.233 Y-15.749
G1 F2400 X58.234 Y-15.75 E2001.30246
G0 F12000 X58.234 Y-16.2
G1 F2400 X-58.233 Y-16.199 E2003.61148
G0 F12000 X-58.233 Y-16.649
G1 F2400 X58.234 Y-16.65 E2005.9205
G0 F12000 X58.234 Y-17.1
G1 F2400 X-58.233 Y-17.099 E2008.22952
G0 F12000 X-58.233 Y-17.549
G1 F2400 X58.234 Y-17.55 E2010.53854
G0 F12000 X58.234 Y-18
G1 F2400 X-58.233 Y-17.999 E2012.84756
G0 F12000 X-58.233 Y-18.449
G1 F2400 X58.234 Y-18.45 E2015.15658
G0 F12000 X58.234 Y-18.9
G1 F2400 X-58.233 Y-18.899 E2017.4656
G0 F12000 X-58.233 Y-19.349
G1 F2400 X58.234 Y-19.35 E2019.77462
G0 F12000 X58.234 Y-19.8
G1 F2400 X-58.233 Y-19.799 E2022.08364
G0 F12000 X-58.233 Y-20.249
G1 F2400 X58.234 Y-20.25 E2024.39266
G0 F12000 X58.234 Y-20.7
G1 F2400 X-58.233 Y-20.699 E2026.70168
G0 F12000 X-58.233 Y-21.149
G1 F2400 X58.234 Y-21.15 E2029.0107
G0 F12000 X58.234 Y-21.6
G1 F2400 X-58.233 Y-21.599 E2031.31972
G0 F12000 X-58.233 Y-22.049
G1 F2400 X58.234 Y-22.05 E2033.62874
G0 F12000 X58.234 Y-22.5
G1 F2400 X-58.233 Y-22.499 E2035.93776
G0 F12000 X-58.233 Y-22.949
G1 F2400 X58.234 Y-22.95 E2038.24678
G0 F12000 X58.234 Y-23.4
G1 F2400 X-58.233 Y-23.399 E2040.5558
G0 F12000 X-58.233 Y-23.849
G1 F2400 X58.234 Y-23.85 E2042.86482
G0 F12000 X58.234 Y-24.3
G1 F2400 X-58.233 Y-24.299 E2045.17384
G0 F12000 X-58.233 Y-24.749
G1 F2400 X58.234 Y-24.75 E2047.48286
G0 F12000 X58.234 Y-25.2
G1 F2400 X-58.233 Y-25.199 E2049.79188
G0 F12000 X-58.233 Y-25.649
G1 F2400 X58.234 Y-25.65 E2052.1009
G0 F12000 X58.234 Y-26.1
G1 F2400 X-58.233 Y-26.099 E2054.40992
G0 F12000 X-58.233 Y-26.549
G1 F2400 X58.234 Y-26.55 E2056.71894
G0 F12000 X58.234 Y-27
G1 F2400 X-58.233 Y-26.999 E2059.02796
G0 F12000 X-58.233 Y-27.449
G1 F2400 X58.234 Y-27.45 E2061.33698
G0 F12000 X58.234 Y-27.9
G1 F2400 X-58.233 Y-27.899 E2063.646
G0 F12000 X-58.233 Y-28.349
G1 F2400 X58.234 Y-28.35 E2065.95502
G0 F12000 X58.234 Y-28.8
G1 F2400 X-58.233 Y-28.799 E2068.26404
G0 F12000 X-58.233 Y-29.249
G1 F2400 X58.234 Y-29.25 E2070.57306
G0 F12000 X58.234 Y-29.7
G1 F2400 X-58.233 Y-29.699 E2072.88208
G0 F12000 X-58.233 Y-30.149
G1 F2400 X58.234 Y-30.15 E2075.1911
G0 F12000 X58.234 Y-30.6
G1 F2400 X-58.233 Y-30.599 E2077.50012
G0 F12000 X-58.233 Y-31.049
G1 F2400 X58.234 Y-31.05 E2079.80914
G0 F12000 X58.234 Y-31.5
G1 F2400 X-58.233 Y-31.499 E2082.11816
G0 F12000 X-58.233 Y-31.949
G1 F2400 X58.234 Y-31.95 E2084.42718
G0 F12000 X58.234 Y-32.4
G1 F2400 X-58.233 Y-32.399 E2086.73619
G0 F12000 X-58.233 Y-32.85
G1 F2400 X58.234 Y-32.85 E2089.04521
G0 F12000 X58.234 Y-33.3
G1 F2400 X-58.233 Y-33.3 E2091.35423
G0 F12000 X-58.233 Y-33.75
G1 F2400 X58.234 Y-33.75 E2093.66325
G0 F12000 X58.234 Y-34.2
G1 F2400 X-58.233 Y-34.2 E2095.97227
G0 F12000 X-58.233 Y-34.65
G1 F2400 X58.234 Y-34.65 E2098.28129
G0 F12000 X58.234 Y-35.1
G1 F2400 X-58.233 Y-35.1 E2100.59031
G0 F12000 X-58.233 Y-35.55
G1 F2400 X58.234 Y-35.55 E2102.89933
G0 F12000 X58.234 Y-36
G1 F2400 X-58.233 Y-36 E2105.20835
G0 F12000 X-58.233 Y-36.45
G1 F2400 X58.234 Y-36.45 E2107.51737
G0 F12000 X58.234 Y-36.9
G1 F2400 X-58.233 Y-36.9 E2109.82639
G0 F12000 X-58.233 Y-37.35
G1 F2400 X58.234 Y-37.35 E2112.13541
G0 F12000 X58.234 Y-37.8
G1 F2400 X-58.233 Y-37.8 E2114.44443
G0 F12000 X-58.551 Y-38.539
G1 F2400 X-58.551 Y-38.599 E2114.4456
G1 X-58.54 Y-38.635 E2114.4458
G0 F12000 X-58.584 Y38.535
G0 X-58.584 Y38.535
G1 F2400 X-58.671 Y38.8 E2114.44683
G1 X-58.75 Y39.039 E2114.44949
G0 F12000 X58.584 Y-38.535
G0 X58.584 Y-38.535
G1 F2400 X58.673 Y-38.799 E2114.4505
G1 X58.748 Y-39.038 E2114.45322
G0 F12000 X58.748 Y-39.038 Z0.75
; Layer Change GCode
; LAYER:3
G0 X-58.473 Y39.095 Z0.6
G0 X-58.473 Y39.095
G0 X-58.486 Y39.421
G0 X-58.486 Y39.421
G0 X-58.486 Y38.517
; TYPE:WALL-INNER
G1 F2400 X-58.486 Y38.517 E2114.45322
G1 X-58.505 Y38.502 E2114.4537
G1 X-58.521 Y38.408 E2114.45559
G1 X-58.521 Y-38.407 E2115.97849
G1 X-58.506 Y-38.501 E2115.98038
G1 X-58.444 Y-38.521 E2115.98167
G1 X58.444 Y-38.521 E2118.29904
G1 X58.506 Y-38.501 E2118.30033
G1 X58.521 Y-38.407 E2118.30221
G1 X58.521 Y38.408 E2119.82511
G1 X58.505 Y38.502 E2119.827
G1 X58.444 Y38.521 E2119.82827
G1 X-58.486 Y38.517 E2122.14647
G0 F12000 X-58.46 Y38.971
G1 F2400 X-58.46 Y38.971 E2122.14647
G1 X-58.61 Y38.956 E2122.14946
G1 X-58.689 Y38.929 E2122.15111
G1 X-58.858 Y38.799 E2122.15534
G1 X-58.935 Y38.661 E2122.15847
G1 X-58.971 Y38.445 E2122.16281
G1 X-58.971 Y-38.444 E2123.68718
G1 X-58.935 Y-38.66 E2123.69152
G1 X-58.857 Y-38.798 E2123.69466
G1 X-58.686 Y-38.929 E2123.69893
G1 X-58.61 Y-38.956 E2123.70053
G1 X-58.46 Y-38.971 E2123.70352
G1 X58.47 Y-38.971 E2126.02172
G1 X58.606 Y-38.957 E2126.02443
G1 X58.686 Y-38.929 E2126.02611
G1 X58.857 Y-38.798 E2126.03038
G1 X58.935 Y-38.66 E2126.03353
G1 X58.971 Y-38.444 E2126.03787
G1 X58.971 Y38.445 E2127.56223
G1 X58.935 Y38.661 E2127.56657
G1 X58.858 Y38.799 E2127.56971
G1 X58.689 Y38.929 E2127.57393
G1 X58.606 Y38.957 E2127.57567
G1 X58.47 Y38.971 E2127.57838
G1 X-58.46 Y38.971 E2129.89658
G0 F12000 X-58.486 Y39.421
; TYPE:WALL-OUTER
G1 F1800 X-58.486 Y39.421 E2129.89658
G1 X-58.705 Y39.399 E2129.90094
G1 X-58.906 Y39.33 E2129.90516
G1 X-59.205 Y39.1 E2129.91264
G1 X-59.366 Y38.813 E2129.91916
G1 X-59.421 Y38.481 E2129.92583
G1 X-59.421 Y-38.48 E2131.45162
G1 X-59.366 Y-38.812 E2131.4583
G1 X-59.204 Y-39.1 E2131.46485
G1 X-58.905 Y-39.33 E2131.47233
G1 X-58.705 Y-39.399 E2131.47652
G1 X-58.486 Y-39.421 E2131.48088
G1 X58.487 Y-39.421 E2133.79993
G1 X58.705 Y-39.399 E2133.80428
G1 X58.905 Y-39.33 E2133.80847
G1 X59.204 Y-39.1 E2133.81595
G1 X59.366 Y-38.812 E2133.8225
G1 X59.421 Y-38.48 E2133.82917
G1 X59.421 Y38.481 E2135.35497
G1 X59.366 Y38.813 E2135.36164
G1 X59.205 Y39.1 E2135.36816
G1 X58.906 Y39.33 E2135.37564
G1 X58.705 Y39.399 E2135.37986
G1 X58.487 Y39.421 E2135.3842
G1 X-58.486 Y39.421 E2137.70325
G0 F12000 X-58.62 Y38.692
; TYPE:FILL
G1 F2400 X-58.61 Y38.676 E2137.7041
G1 X-58.638 Y38.66 E2137.70429
G0 F12000 X-58.049 Y38.316
G1 F2400 X-58.05 Y-38.32 E2139.22364
G0 F12000 X-57.6 Y-38.32
G1 F2400 X-57.599 Y38.316 E2140.74299
G0 F12000 X-57.149 Y38.316
G1 F2400 X-57.15 Y-38.32 E2142.26234
G0 F12000 X-56.7 Y-38.32
G1 F2400 X-56.699 Y38.316 E2143.78169
G0 F12000 X-56.249 Y38.316
G1 F2400 X-56.25 Y-38.32 E2145.30104
G0 F12000 X-55.8 Y-38.32
G1 F2400 X-55.799 Y38.316 E2146.82038
G0 F12000 X-55.349 Y38.316
G1 F2400 X-55.35 Y-38.32 E2148.33973
G0 F12000 X-54.9 Y-38.32
G1 F2400 X-54.899 Y38.316 E2149.85908
G0 F12000 X-54.449 Y38.316
G1 F2400 X-54.45 Y-38.32 E2151.37843
G0 F12000 X-54 Y-38.32
G1 F2400 X-53.999 Y38.316 E2152.89778
G0 F12000 X-53.549 Y38.316
G1 F2400 X-53.55 Y-38.32 E2154.41713
G0 F12000 X-53.1 Y-38.32
G1 F2400 X-53.099 Y38.316 E2155.93648
G0 F12000 X-52.649 Y38.316
G1 F2400 X-52.65 Y-38.32 E2157.45583
G0 F12000 X-52.2 Y-38.32
G1 F2400 X-52.199 Y38.316 E2158.97518
G0 F12000 X-51.749 Y38.316
G1 F2400 X-51.75 Y-38.32 E2160.49453
G0 F12000 X-51.3 Y-38.32
G1 F2400 X-51.299 Y38.316 E2162.01388
G0 F12000 X-50.849 Y38.316
G1 F2400 X-50.85 Y-38.32 E2163.53323
G0 F12000 X-50.4 Y-38.32
G1 F2400 X-50.399 Y38.316 E2165.05258
G0 F12000 X-49.949 Y38.316
G1 F2400 X-49.95 Y-38.32 E2166.57192
G0 F12000 X-49.5 Y-38.32
G1 F2400 X-49.499 Y38.316 E2168.09127
G0 F12000 X-49.049 Y38.316
G1 F2400 X-49.05 Y-38.32 E2169.61062
G0 F12000 X-48.6 Y-38.32
G1 F2400 X-48.599 Y38.316 E2171.12997
G0 F12000 X-48.149 Y38.316
G1 F2400 X-48.15 Y-38.32 E2172.64932
G0 F12000 X-47.7 Y-38.32
G1 F2400 X-47.699 Y38.316 E2174.16867
G0 F12000 X-47.249 Y38.316
G1 F2400 X-47.25 Y-38.32 E2175.68802
G0 F12000 X-46.8 Y-38.32
G1 F2400 X-46.799 Y38.316 E2177.20737
G0 F12000 X-46.349 Y38.317
G1 F2400 X-46.35 Y-38.32 E2178.72674
G0 F12000 X-45.9 Y-38.32
G1 F2400 X-45.899 Y38.317 E2180.24611
G0 F12000 X-45.449 Y38.317
G1 F2400 X-45.45 Y-38.32 E2181.76548
G0 F12000 X-45 Y-38.32
G1 F2400 X-44.999 Y38.317 E2183.28485
G0 F12000 X-44.549 Y38.317
G1 F2400 X-44.55 Y-38.32 E2184.80421
G0 F12000 X-44.1 Y-38.32
G1 F2400 X-44.099 Y38.317 E2186.32358
G0 F12000 X-43.649 Y38.317
G1 F2400 X-43.65 Y-38.32 E2187.84295
G0 F12000 X-43.2 Y-38.32
G1 F2400 X-43.199 Y38.317 E2189.36232
G0 F12000 X-42.749 Y38.317
G1 F2400 X-42.75 Y-38.32 E2190.88169
G0 F12000 X-42.3 Y-38.32
G1 F2400 X-42.299 Y38.317 E2192.40106
G0 F12000 X-41.849 Y38.317
G1 F2400 X-41.85 Y-38.32 E2193.92043
G0 F12000 X-41.4 Y-38.32
G1 F2400 X-41.399 Y38.317 E2195.4398
G0 F12000 X-40.949 Y38.317
G1 F2400 X-40.95 Y-38.32 E2196.95917
G0 F12000 X-40.5 Y-38.32
G1 F2400 X-40.499 Y38.317 E2198.47854
G0 F12000 X-40.049 Y38.317
G1 F2400 X-40.05 Y-38.32 E2199.99791
G0 F12000 X-39.6 Y-38.32
G1 F2400 X-39.599 Y38.317 E2201.51727
G0 F12000 X-39.149 Y38.317
G1 F2400 X-39.15 Y-38.32 E2203.03664
G0 F12000 X-38.7 Y-38.32
G1 F2400 X-38.699 Y38.317 E2204.55601
G0 F12000 X-38.249 Y38.317
G1 F2400 X-38.25 Y-38.32 E2206.07538
G0 F12000 X-37.8 Y-38.32
G1 F2400 X-37.799 Y38.317 E2207.59475
G0 F12000 X-37.349 Y38.317
G1 F2400 X-37.35 Y-38.32 E2209.11412
G0 F12000 X-36.9 Y-38.32
G1 F2400 X-36.899 Y38.317 E2210.63349
G0 F12000 X-36.449 Y38.317
G1 F2400 X-36.45 Y-38.32 E2212.15286
G0 F12000 X-36 Y-38.32
G1 F2400 X-35.999 Y38.317 E2213.67223
G0 F12000 X-35.549 Y38.317
G1 F2400 X-35.55 Y-38.32 E2215.1916
G0 F12000 X-35.1 Y-38.32
G1 F2400 X-35.099 Y38.317 E2216.71097
G0 F12000 X-34.649 Y38.317
G1 F2400 X-34.65 Y-38.32 E2218.23033
G0 F12000 X-34.2 Y-38.32
G1 F2400 X-34.199 Y38.317 E2219.7497
G0 F12000 X-33.749 Y38.317
G1 F2400 X-33.75 Y-38.32 E2221.26907
G0 F12000 X-33.3 Y-38.32
G1 F2400 X-33.299 Y38.317 E2222.78844
G0 F12000 X-32.849 Y38.317
G1 F2400 X-32.85 Y-38.32 E2224.30781
G0 F12000 X-32.4 Y-38.32
G1 F2400 X-32.399 Y38.317 E2225.82718
G0 F12000 X-31.949 Y38.317
G1 F2400 X-31.95 Y-38.32 E2227.34655
G0 F12000 X-31.5 Y-38.32
G1 F2400 X-31.499 Y38.317 E2228.86592
G0 F12000 X-31.049 Y38.317
G1 F2400 X-31.05 Y-38.32 E2230.38529
G0 F12000 X-30.6 Y-38.32
G1 F2400 X-30.599 Y38.317 E2231.90466
G0 F12000 X-30.149 Y38.317
G1 F2400 X-30.15 Y-38.32 E2233.42403
G0 F12000 X-29.7 Y-38.321
G1 F2400 X-29.699 Y38.317 E2234.94341
G0 F12000 X-29.249 Y38.317
G1 F2400 X-29.25 Y-38.321 E2236.4628
G0 F12000 X-28.8 Y-38.321
G1 F2400 X-28.799 Y38.317 E2237.98219
G0 F12000 X-28.349 Y38.317
G1 F2400 X-28.35 Y-38.321 E2239.50158
G0 F12000 X-27.9 Y-38.321
G1 F2400 X-27.899 Y38.317 E2241.02097
G0 F12000 X-27.449 Y38.317
G1 F2400 X-27.45 Y-38.321 E2242.54036
G0 F12000 X-27 Y-38.321
G1 F2400 X-26.999 Y38.317 E2244.05975
G0 F12000 X-26.549 Y38.317
G1 F2400 X-26.55 Y-38.321 E2245.57914
G0 F12000 X-26.1 Y-38.321
G1 F2400 X-26.099 Y38.317 E2247.09853
G0 F12000 X-25.649 Y38.317
G1 F2400 X-25.65 Y-38.321 E2248.61791
G0 F12000 X-25.2 Y-38.321
G1 F2400 X-25.199 Y38.317 E2250.1373
G0 F12000 X-24.749 Y38.317
G1 F2400 X-24.75 Y-38.321 E2251.65669
G0 F12000 X-24.3 Y-38.321
G1 F2400 X-24.299 Y38.317 E2253.17608
G0 F12000 X-23.849 Y38.317
G1 F2400 X-23.85 Y-38.321 E2254.69547
G0 F12000 X-23.4 Y-38.321
G1 F2400 X-23.399 Y38.317 E2256.21486
G0 F12000 X-22.949 Y38.318
G1 F2400 X-22.95 Y-38.321 E2257.73427
G0 F12000 X-22.5 Y-38.321
G1 F2400 X-22.499 Y38.318 E2259.25368
G0 F12000 X-22.049 Y38.318
G1 F2400 X-22.05 Y-38.321 E2260.77309
G0 F12000 X-21.6 Y-38.321
G1 F2400 X-21.599 Y38.318 E2262.29249
G0 F12000 X-21.149 Y38.318
G1 F2400 X-21.15 Y-38.321 E2263.8119
G0 F12000 X-20.7 Y-38.321
G1 F2400 X-20.699 Y38.318 E2265.33131
G0 F12000 X-20.249 Y38.318
G1 F2400 X-20.25 Y-38.321 E2266.85072
G0 F12000 X-19.8 Y-38.321
G1 F2400 X-19.799 Y38.318 E2268.37013
G0 F12000 X-19.349 Y38.318
G1 F2400 X-19.35 Y-38.321 E2269.88954
G0 F12000 X-18.9 Y-38.321
G1 F2400 X-18.899 Y38.318 E2271.40895
G0 F12000 X-18.449 Y38.318
G1 F2400 X-18.45 Y-38.321 E2272.92836
G0 F12000 X-18 Y-38.321
G1 F2400 X-17.999 Y38.318 E2274.44776
G0 F12000 X-17.549 Y38.318
G1 F2400 X-17.55 Y-38.321 E2275.96717
G0 F12000 X-17.1 Y-38.321
G1 F2400 X-17.099 Y38.318 E2277.48658
G0 F12000 X-16.649 Y38.318
G1 F2400 X-16.65 Y-38.321 E2279.00599
G0 F12000 X-16.2 Y-38.321
G1 F2400 X-16.199 Y38.318 E2280.5254
G0 F12000 X-15.749 Y38.318
G1 F2400 X-15.75 Y-38.321 E2282.04481
G0 F12000 X-15.3 Y-38.321
G1 F2400 X-15.299 Y38.318 E2283.56422
G0 F12000 X-14.849 Y38.318
G1 F2400 X-14.85 Y-38.321 E2285.08363
G0 F12000 X-14.4 Y-38.321
G1 F2400 X-14.399 Y38.318 E2286.60303
G0 F12000 X-13.949 Y38.318
G1 F2400 X-13.95 Y-38.321 E2288.12244
G0 F12000 X-13.5 Y-38.321
G1 F2400 X-13.499 Y38.318 E2289.64185
G0 F12000 X-13.049 Y38.318
G1 F2400 X-13.05 Y-38.321 E2291.16126
G0 F12000 X-12.6 Y-38.321
G1 F2400 X-12.599 Y38.318 E2292.68067
G0 F12000 X-12.149 Y38.318
G1 F2400 X-12.15 Y-38.321 E2294.20008
G0 F12000 X-11.7 Y-38.321
G1 F2400 X-11.699 Y38.318 E2295.71949
G0 F12000 X-11.249 Y38.318
G1 F2400 X-11.25 Y-38.321 E2297.2389
G0 F12000 X-10.8 Y-38.321
G1 F2400 X-10.799 Y38.318 E2298.7583
G0 F12000 X-10.349 Y38.318
G1 F2400 X-10.35 Y-38.321 E2300.27771
G0 F12000 X-9.9 Y-38.321
G1 F2400 X-9.899 Y38.318 E2301.79712
G0 F12000 X-9.449 Y38.318
G1 F2400 X-9.45 Y-38.321 E2303.31653
G0 F12000 X-9 Y-38.321
G1 F2400 X-8.999 Y38.318 E2304.83594
G0 F12000 X-8.549 Y38.318
G1 F2400 X-8.55 Y-38.321 E2306.35535
G0 F12000 X-8.1 Y-38.321
G1 F2400 X-8.099 Y38.318 E2307.87476
G0 F12000 X-7.649 Y38.318
G1 F2400 X-7.65 Y-38.321 E2309.39417
G0 F12000 X-7.2 Y-38.321
G1 F2400 X-7.199 Y38.318 E2310.91357
G0 F12000 X-6.749 Y38.318
G1 F2400 X-6.75 Y-38.321 E2312.43298
G0 F12000 X-6.3 Y-38.321
G1 F2400 X-6.299 Y38.318 E2313.95239
G0 F12000 X-5.849 Y38.318
G1 F2400 X-5.85 Y-38.321 E2315.4718
G0 F12000 X-5.4 Y-38.321
G1 F2400 X-5.399 Y38.318 E2316.99121
G0 F12000 X-4.949 Y38.318
G1 F2400 X-4.95 Y-38.321 E2318.51062
G0 F12000 X-4.5 Y-38.321
G1 F2400 X-4.499 Y38.318 E2320.03003
G0 F12000 X-4.049 Y38.318
G1 F2400 X-4.05 Y-38.321 E2321.54943
G0 F12000 X-3.6 Y-38.321
G1 F2400 X-3.599 Y38.318 E2323.06884
G0 F12000 X-3.149 Y38.318
G1 F2400 X-3.15 Y-38.321 E2324.58825
G0 F12000 X-2.7 Y-38.321
G1 F2400 X-2.699 Y38.318 E2326.10766
G0 F12000 X-2.249 Y38.318
G1 F2400 X-2.25 Y-38.321 E2327.62707
G0 F12000 X-1.8 Y-38.321
G1 F2400 X-1.799 Y38.318 E2329.14648
G0 F12000 X-1.349 Y38.318
G1 F2400 X-1.35 Y-38.321 E2330.66589
G0 F12000 X-0.9 Y-38.321
G1 F2400 X-0.899 Y38.318 E2332.1853
G0 F12000 X-0.449 Y38.318
G1 F2400 X-0.45 Y-38.321 E2333.7047
G0 F12000 X0 Y-38.321
G1 F2400 X0 Y38.319 E2335.22413
G0 F12000 X0.45 Y38.319
G1 F2400 X0.449 Y-38.32 E2336.74354
G0 F12000 X0.899 Y-38.32
G1 F2400 X0.9 Y38.319 E2338.26295
G0 F12000 X1.35 Y38.319
G1 F2400 X1.349 Y-38.32 E2339.78236
G0 F12000 X1.799 Y-38.32
G1 F2400 X1.8 Y38.319 E2341.30177
G0 F12000 X2.25 Y38.319
G1 F2400 X2.249 Y-38.32 E2342.82118
G0 F12000 X2.699 Y-38.32
G1 F2400 X2.7 Y38.319 E2344.34059
G0 F12000 X3.15 Y38.319
G1 F2400 X3.149 Y-38.32 E2345.85999
G0 F12000 X3.599 Y-38.32
G1 F2400 X3.6 Y38.319 E2347.3794
G0 F12000 X4.05 Y38.319
G1 F2400 X4.049 Y-38.32 E2348.89881
G0 F12000 X4.499 Y-38.32
G1 F2400 X4.5 Y38.319 E2350.41822
G0 F12000 X4.95 Y38.319
G1 F2400 X4.949 Y-38.32 E2351.93763
G0 F12000 X5.399 Y-38.32
G1 F2400 X5.4 Y38.319 E2353.45704
G0 F12000 X5.85 Y38.319
G1 F2400 X5.849 Y-38.32 E2354.97645
G0 F12000 X6.299 Y-38.32
G1 F2400 X6.3 Y38.319 E2356.49586
G0 F12000 X6.75 Y38.319
G1 F2400 X6.749 Y-38.32 E2358.01526
G0 F12000 X7.199 Y-38.32
G1 F2400 X7.2 Y38.319 E2359.53467
G0 F12000 X7.65 Y38.319
G1 F2400 X7.649 Y-38.32 E2361.05408
G0 F12000 X8.099 Y-38.32
G1 F2400 X8.1 Y38.319 E2362.57349
G0 F12000 X8.55 Y38.319
G1 F2400 X8.549 Y-38.32 E2364.0929
G0 F12000 X8.999 Y-38.32
G1 F2400 X9 Y38.319 E2365.61231
G0 F12000 X9.45 Y38.319
G1 F2400 X9.449 Y-38.32 E2367.13172
G0 F12000 X9.899 Y-38.32
G1 F2400 X9.9 Y38.319 E2368.65113
G0 F12000 X10.35 Y38.319
G1 F2400 X10.349 Y-38.32 E2370.17053
G0 F12000 X10.799 Y-38.32
G1 F2400 X10.8 Y38.319 E2371.68994
G0 F12000 X11.25 Y38.319
G1 F2400 X11.249 Y-38.32 E2373.20935
G0 F12000 X11.699 Y-38.32
G1 F2400 X11.7 Y38.319 E2374.72876
G0 F12000 X12.15 Y38.319
G1 F2400 X12.149 Y-38.32 E2376.24817
G0 F12000 X12.599 Y-38.32
G1 F2400 X12.6 Y38.319 E2377.76758
G0 F12000 X13.05 Y38.319
G1 F2400 X13.049 Y-38.32 E2379.28699
G0 F12000 X13.499 Y-38.32
G1 F2400 X13.5 Y38.319 E2380.8064
G0 F12000 X13.95 Y38.319
G1 F2400 X13.949 Y-38.32 E2382.3258
G0 F12000 X14.399 Y-38.32
G1 F2400 X14.4 Y38.319 E2383.84521
G0 F12000 X14.85 Y38.319
G1 F2400 X14.849 Y-38.32 E2385.36462
G0 F12000 X15.299 Y-38.32
G1 F2400 X15.3 Y38.319 E2386.88403
G0 F12000 X15.75 Y38.319
G1 F2400 X15.749 Y-38.32 E2388.40344
G0 F12000 X16.199 Y-38.32
G1 F2400 X16.2 Y38.319 E2389.92285
G0 F12000 X16.65 Y38.319
G1 F2400 X16.649 Y-38.32 E2391.44226
G0 F12000 X17.099 Y-38.32
G1 F2400 X17.1 Y38.319 E2392.96167
G0 F12000 X17.55 Y38.319
G1 F2400 X17.549 Y-38.32 E2394.48107
G0 F12000 X17.999 Y-38.32
G1 F2400 X18 Y38.319 E2396.00048
G0 F12000 X18.45 Y38.319
G1 F2400 X18.449 Y-38.32 E2397.51989
G0 F12000 X18.899 Y-38.32
G1 F2400 X18.9 Y38.319 E2399.0393
G0 F12000 X19.35 Y38.319
G1 F2400 X19.349 Y-38.32 E2400.55871
G0 F12000 X19.799 Y-38.32
G1 F2400 X19.8 Y38.319 E2402.07812
G0 F12000 X20.25 Y38.319
G1 F2400 X20.249 Y-38.32 E2403.59753
G0 F12000 X20.699 Y-38.32
G1 F2400 X20.7 Y38.319 E2405.11694
G0 F12000 X21.15 Y38.319
G1 F2400 X21.149 Y-38.32 E2406.63634
G0 F12000 X21.599 Y-38.32
G1 F2400 X21.6 Y38.319 E2408.15575
G0 F12000 X22.05 Y38.319
G1 F2400 X22.049 Y-38.32 E2409.67516
G0 F12000 X22.499 Y-38.32
G1 F2400 X22.5 Y38.319 E2411.19457
G0 F12000 X22.95 Y38.319
G1 F2400 X22.949 Y-38.32 E2412.71398
G0 F12000 X23.399 Y-38.32
G1 F2400 X23.4 Y38.32 E2414.23341
G0 F12000 X23.85 Y38.32
G1 F2400 X23.849 Y-38.32 E2415.75284
G0 F12000 X24.299 Y-38.32
G1 F2400 X24.3 Y38.32 E2417.27226
G0 F12000 X24.75 Y38.32
G1 F2400 X24.749 Y-38.32 E2418.79169
G0 F12000 X25.199 Y-38.32
G1 F2400 X25.2 Y38.32 E2420.31112
G0 F12000 X25.65 Y38.32
G1 F2400 X25.649 Y-38.32 E2421.83055
G0 F12000 X26.099 Y-38.32
G1 F2400 X26.1 Y38.32 E2423.34998
G0 F12000 X26.55 Y38.32
G1 F2400 X26.549 Y-38.32 E2424.86941
G0 F12000 X26.999 Y-38.32
G1 F2400 X27 Y38.32 E2426.38884
G0 F12000 X27.45 Y38.32
G1 F2400 X27.449 Y-38.32 E2427.90826
G0 F12000 X27.899 Y-38.32
G1 F2400 X27.9 Y38.32 E2429.42769
G0 F12000 X28.35 Y38.32
G1 F2400 X28.349 Y-38.32 E2430.94712
G0 F12000 X28.799 Y-38.32
G1 F2400 X28.8 Y38.32 E2432.46655
G0 F12000 X29.25 Y38.32
G1 F2400 X29.249 Y-38.32 E2433.98598
G0 F12000 X29.699 Y-38.32
G1 F2400 X29.7 Y38.32 E2435.50541
G0 F12000 X30.15 Y38.319
G1 F2400 X30.149 Y-38.32 E2437.02482
G0 F12000 X30.599 Y-38.32
G1 F2400 X30.6 Y38.319 E2438.54422
G0 F12000 X31.05 Y38.319
G1 F2400 X31.049 Y-38.32 E2440.06363
G0 F12000 X31.499 Y-38.32
G1 F2400 X31.5 Y38.319 E2441.58304
G0 F12000 X31.95 Y38.319
G1 F2400 X31.949 Y-38.32 E2443.10245
G0 F12000 X32.399 Y-38.32
G1 F2400 X32.4 Y38.319 E2444.62186
G0 F12000 X32.85 Y38.319
G1 F2400 X32.849 Y-38.32 E2446.14127
G0 F12000 X33.299 Y-38.32
G1 F2400 X33.3 Y38.319 E2447.66068
G0 F12000 X33.75 Y38.319
G1 F2400 X33.749 Y-38.32 E2449.18009
G0 F12000 X34.199 Y-38.32
G1 F2400 X34.2 Y38.319 E2450.69949
G0 F12000 X34.65 Y38.319
G1 F2400 X34.649 Y-38.32 E2452.2189
G0 F12000 X35.099 Y-38.32
G1 F2400 X35.1 Y38.319 E2453.73831
G0 F12000 X35.55 Y38.319
G1 F2400 X35.549 Y-38.32 E2455.25772
G0 F12000 X35.999 Y-38.32
G1 F2400 X36 Y38.319 E2456.77713
G0 F12000 X36.45 Y38.319
G1 F2400 X36.449 Y-38.32 E2458.29654
G0 F12000 X36.899 Y-38.32
G1 F2400 X36.9 Y38.319 E2459.81595
G0 F12000 X37.35 Y38.319
G1 F2400 X37.349 Y-38.32 E2461.33536
G0 F12000 X37.799 Y-38.32
G1 F2400 X37.8 Y38.319 E2462.85476
G0 F12000 X38.25 Y38.319
G1 F2400 X38.249 Y-38.32 E2464.37417
G0 F12000 X38.699 Y-38.32
G1 F2400 X38.7 Y38.319 E2465.89358
G0 F12000 X39.15 Y38.319
G1 F2400 X39.149 Y-38.32 E2467.41299
G0 F12000 X39.599 Y-38.32
G1 F2400 X39.6 Y38.319 E2468.9324
G0 F12000 X40.05 Y38.319
G1 F2400 X40.049 Y-38.32 E2470.45181
G0 F12000 X40.499 Y-38.32
G1 F2400 X40.5 Y38.319 E2471.97122
G0 F12000 X40.95 Y38.319
G1 F2400 X40.949 Y-38.32 E2473.49063
G0 F12000 X41.399 Y-38.32
G1 F2400 X41.4 Y38.319 E2475.01003
G0 F12000 X41.85 Y38.319
G1 F2400 X41.849 Y-38.32 E2476.52944
G0 F12000 X42.299 Y-38.32
G1 F2400 X42.3 Y38.319 E2478.04885
G0 F12000 X42.75 Y38.319
G1 F2400 X42.749 Y-38.32 E2479.56826
G0 F12000 X43.199 Y-38.32
G1 F2400 X43.2 Y38.319 E2481.08767
G0 F12000 X43.65 Y38.319
G1 F2400 X43.649 Y-38.32 E2482.60708
G0 F12000 X44.099 Y-38.32
G1 F2400 X44.1 Y38.319 E2484.12649
G0 F12000 X44.55 Y38.319
G1 F2400 X44.549 Y-38.32 E2485.6459
G0 F12000 X44.999 Y-38.32
G1 F2400 X45 Y38.319 E2487.1653
G0 F12000 X45.45 Y38.319
G1 F2400 X45.449 Y-38.32 E2488.68471
G0 F12000 X45.899 Y-38.32
G1 F2400 X45.9 Y38.319 E2490.20412
G0 F12000 X46.35 Y38.319
G1 F2400 X46.349 Y-38.32 E2491.72353
G0 F12000 X46.799 Y-38.32
G1 F2400 X46.8 Y38.32 E2493.24296
G0 F12000 X47.25 Y38.32
G1 F2400 X47.249 Y-38.32 E2494.76239
G0 F12000 X47.699 Y-38.32
G1 F2400 X47.7 Y38.32 E2496.28182
G0 F12000 X48.15 Y38.32
G1 F2400 X48.149 Y-38.32 E2497.80124
G0 F12000 X48.599 Y-38.32
G1 F2400 X48.6 Y38.32 E2499.32067
G0 F12000 X49.05 Y38.32
G1 F2400 X49.049 Y-38.32 E2500.8401
G0 F12000 X49.499 Y-38.32
G1 F2400 X49.5 Y38.32 E2502.35953
G0 F12000 X49.95 Y38.32
G1 F2400 X49.949 Y-38.32 E2503.87896
G0 F12000 X50.399 Y-38.32
G1 F2400 X50.4 Y38.32 E2505.39839
G0 F12000 X50.85 Y38.32
G1 F2400 X50.849 Y-38.32 E2506.91782
G0 F12000 X51.299 Y-38.32
G1 F2400 X51.3 Y38.32 E2508.43724
G0 F12000 X51.75 Y38.32
G1 F2400 X51.749 Y-38.32 E2509.95667
G0 F12000 X52.199 Y-38.32
G1 F2400 X52.2 Y38.32 E2511.4761
G0 F12000 X52.65 Y38.32
G1 F2400 X52.649 Y-38.32 E2512.99553
G0 F12000 X53.099 Y-38.32
G1 F2400 X53.1 Y38.32 E2514.51496
G0 F12000 X53.55 Y38.32
G1 F2400 X53.549 Y-38.32 E2516.03439
G0 F12000 X53.999 Y-38.32
G1 F2400 X54 Y38.32 E2517.55382
G0 F12000 X54.45 Y38.32
G1 F2400 X54.449 Y-38.32 E2519.07324
G0 F12000 X54.899 Y-38.32
G1 F2400 X54.9 Y38.32 E2520.59267
G0 F12000 X55.35 Y38.32
G1 F2400 X55.349 Y-38.32 E2522.1121
G0 F12000 X55.799 Y-38.32
G1 F2400 X55.8 Y38.32 E2523.63153
G0 F12000 X56.25 Y38.32
G1 F2400 X56.249 Y-38.32 E2525.15096
G0 F12000 X56.699 Y-38.32
G1 F2400 X56.7 Y38.32 E2526.67039
G0 F12000 X57.15 Y38.32
G1 F2400 X57.149 Y-38.32 E2528.18982
G0 F12000 X57.599 Y-38.32
G1 F2400 X57.6 Y38.32 E2529.70924
G0 F12000 X58.05 Y38.32
G1 F2400 X58.049 Y-38.32 E2531.22867
G0 F12000 X58.601 Y-38.586
G1 F2400 X58.639 Y-38.659 E2531.22948
G1 X58.631 Y-38.688 E2531.22965
G0 F12000 X58.62 Y-38.692
G1 F2400 X58.588 Y-38.664 E2531.22994
G0 F12000 X58.652 Y38.581
G0 X58.652 Y38.581
G1 F2400 X58.644 Y38.658 E2531.23143
G1 X58.632 Y38.688 E2531.23162
G0 F12000 X-58.651 Y-38.581
G0 X-58.651 Y-38.581
G1 F2400 X-58.644 Y-38.657 E2531.23309
G1 X-58.631 Y-38.688 E2531.23328
G0 F12000 X-58.631 Y-38.688 Z0.85
; Layer Change GCode
; LAYER:4
G0 X58.462 Y39.173 Z0.7
G0 X58.462 Y39.173
G0 X58.485 Y39.498
G0 X58.485 Y39.498
G0 X58.439 Y38.598
; TYPE:WALL-INNER
G1 F2400 X58.439 Y38.598 E2531.23328
G1 X-58.531 Y38.583 E2533.55227
G1 X-58.577 Y38.529 E2533.55368
G1 X-58.598 Y38.404 E2533.55619
G1 X-58.598 Y-38.404 E2535.07895
G1 X-58.577 Y-38.529 E2535.08146
G1 X-58.543 Y-38.58 E2535.08268
G1 X-58.438 Y-38.598 E2535.08479
G1 X58.546 Y-38.579 E2537.40406
G1 X58.577 Y-38.529 E2537.40523
G1 X58.598 Y-38.404 E2537.40774
G1 X58.598 Y38.404 E2538.9305
G1 X58.577 Y38.529 E2538.93301
G1 X58.536 Y38.582 E2538.93434
G1 X58.439 Y38.598 E2538.93629
G0 F12000 X58.467 Y39.048
G1 F2400 X58.467 Y39.048 E2538.93629
G1 X-58.594 Y39.035 E2541.25709
G1 X-58.748 Y38.989 E2541.26027
G1 X-58.922 Y38.84 E2541.26481
G1 X-59.009 Y38.672 E2541.26857
G1 X-59.048 Y38.442 E2541.27319
G1 X-59.048 Y-38.442 E2542.79746
G1 X-59.009 Y-38.674 E2542.80212
G1 X-58.891 Y-38.878 E2542.80679
G1 X-58.772 Y-38.973 E2542.80981
G1 X-58.596 Y-39.034 E2542.8135
G1 X-58.466 Y-39.048 E2542.8161
G1 X58.594 Y-39.035 E2545.13687
G1 X58.763 Y-38.982 E2545.14038
G1 X58.918 Y-38.85 E2545.14442
G1 X59.009 Y-38.674 E2545.14835
G1 X59.048 Y-38.442 E2545.15301
G1 X59.048 Y38.442 E2546.67728
G1 X59.009 Y38.672 E2546.6819
G1 X58.888 Y38.882 E2546.68671
G1 X58.778 Y38.97 E2546.6895
G1 X58.596 Y39.034 E2546.69333
G1 X58.467 Y39.048 E2546.6959
G0 F12000 X58.485 Y39.498
; TYPE:WALL-OUTER
G1 F1800 X58.485 Y39.498 E2546.6959
G1 X-58.583 Y39.488 E2549.01683
G1 X-58.682 Y39.477 E2549.01881
G1 X-58.909 Y39.41 E2549.0235
G1 X-58.999 Y39.368 E2549.02547
G1 X-59.286 Y39.118 E2549.03302
G1 X-59.442 Y38.816 E2549.03976
G1 X-59.498 Y38.481 E2549.04649
G1 X-59.498 Y-38.48 E2550.57228
G1 X-59.442 Y-38.816 E2550.57903
G1 X-59.286 Y-39.117 E2550.58576
G1 X-59.2 Y-39.206 E2550.58821
G1 X-59.001 Y-39.365 E2550.59326
G1 X-58.683 Y-39.477 E2550.59994
G1 X-58.485 Y-39.498 E2550.60389
G1 X58.584 Y-39.488 E2552.92485
G1 X58.682 Y-39.477 E2552.9268
G1 X58.909 Y-39.41 E2552.93149
G1 X59.002 Y-39.366 E2552.93353
G1 X59.196 Y-39.211 E2552.93846
G1 X59.286 Y-39.117 E2552.94104
G1 X59.442 Y-38.816 E2552.94776
G1 X59.498 Y-38.48 E2552.95451
G1 X59.498 Y38.481 E2554.4803
G1 X59.442 Y38.816 E2554.48704
G1 X59.286 Y39.118 E2554.49378
G1 X59.197 Y39.211 E2554.49633
G1 X59.006 Y39.363 E2554.50117
G1 X58.683 Y39.477 E2554.50796
G1 X58.485 Y39.498 E2554.51191
G0 F12000 X58.68 Y39.22
; TYPE:FILL
G1 F2400 X58.817 Y39.168 E2554.51244
G1 X58.831 Y38.925 E2554.51311
G1 X58.733 Y38.677 E2554.51407
G1 X58.666 Y38.684 E2554.5153
G1 X58.606 Y38.793 E2554.51593
G0 F12000 X58.398 Y38.25
G1 F2400 X-58.398 Y38.25 E2556.83147
G0 F12000 X-58.398 Y37.8
G1 F2400 X58.398 Y37.8 E2559.14701
G0 F12000 X58.398 Y37.35
G1 F2400 X-58.398 Y37.35 E2561.46256
G0 F12000 X-58.398 Y36.9
G1 F2400 X58.398 Y36.9 E2563.7781
G0 F12000 X58.398 Y36.45
G1 F2400 X-58.398 Y36.45 E2566.09364
G0 F12000 X-58.398 Y36
G1 F2400 X58.398 Y36 E2568.40918
G0 F12000 X58.398 Y35.55
G1 F2400 X-58.398 Y35.55 E2570.72473
G0 F12000 X-58.398 Y35.1
G1 F2400 X58.398 Y35.1 E2573.04027
G0 F12000 X58.398 Y34.65
G1 F2400 X-58.398 Y34.65 E2575.35581
G0 F12000 X-58.398 Y34.2
G1 F2400 X58.398 Y34.2 E2577.67135
G0 F12000 X58.398 Y33.75
G1 F2400 X-58.398 Y33.75 E2579.9869
G0 F12000 X-58.398 Y33.3
G1 F2400 X58.398 Y33.3 E2582.30244
G0 F12000 X58.398 Y32.85
G1 F2400 X-58.398 Y32.85 E2584.61798
G0 F12000 X-58.398 Y32.4
G1 F2400 X58.398 Y32.399 E2586.93352
G0 F12000 X58.398 Y31.949
G1 F2400 X-58.398 Y31.95 E2589.24907
G0 F12000 X-58.398 Y31.5
G1 F2400 X58.398 Y31.499 E2591.56461
G0 F12000 X58.398 Y31.049
G1 F2400 X-58.398 Y31.05 E2593.88015
G0 F12000 X-58.398 Y30.6
G1 F2400 X58.398 Y30.599 E2596.19569
G0 F12000 X58.398 Y30.149
G1 F2400 X-58.398 Y30.15 E2598.51124
G0 F12000 X-58.398 Y29.7
G1 F2400 X58.398 Y29.699 E2600.82678
G0 F12000 X58.398 Y29.249
G1 F2400 X-58.398 Y29.25 E2603.14232
G0 F12000 X-58.398 Y28.8
G1 F2400 X58.398 Y28.799 E2605.45786
G0 F12000 X58.398 Y28.349
G1 F2400 X-58.398 Y28.35 E2607.77341
G0 F12000 X-58.398 Y27.9
G1 F2400 X58.398 Y27.899 E2610.08895
G0 F12000 X58.398 Y27.449
G1 F2400 X-58.398 Y27.45 E2612.40449
G0 F12000 X-58.398 Y27
G1 F2400 X58.398 Y26.999 E2614.72003
G0 F12000 X58.398 Y26.549
G1 F2400 X-58.398 Y26.55 E2617.03558
G0 F12000 X-58.398 Y26.1
G1 F2400 X58.398 Y26.099 E2619.35112
G0 F12000 X58.398 Y25.649
G1 F2400 X-58.398 Y25.65 E2621.66666
G0 F12000 X-58.398 Y25.2
G1 F2400 X58.398 Y25.199 E2623.9822
G0 F12000 X58.398 Y24.749
G1 F2400 X-58.398 Y24.75 E2626.29775
G0 F12000 X-58.398 Y24.3
G1 F2400 X58.398 Y24.299 E2628.61329
G0 F12000 X58.398 Y23.849
G1 F2400 X-58.398 Y23.85 E2630.92883
G0 F12000 X-58.398 Y23.4
G1 F2400 X58.398 Y23.399 E2633.24437
G0 F12000 X58.398 Y22.949
G1 F2400 X-58.398 Y22.95 E2635.55992
G0 F12000 X-58.398 Y22.5
G1 F2400 X58.398 Y22.499 E2637.87546
G0 F12000 X58.398 Y22.049
G1 F2400 X-58.398 Y22.05 E2640.191
G0 F12000 X-58.398 Y21.6
G1 F2400 X58.398 Y21.599 E2642.50655
G0 F12000 X58.398 Y21.149
G1 F2400 X-58.398 Y21.15 E2644.82209
G0 F12000 X-58.398 Y20.7
G1 F2400 X58.398 Y20.699 E2647.13763
G0 F12000 X58.398 Y20.249
G1 F2400 X-58.398 Y20.25 E2649.45317
G0 F12000 X-58.398 Y19.8
G1 F2400 X58.398 Y19.799 E2651.76872
G0 F12000 X58.398 Y19.349
G1 F2400 X-58.398 Y19.35 E2654.08426
G0 F12000 X-58.398 Y18.9
G1 F2400 X58.398 Y18.899 E2656.3998
G0 F12000 X58.398 Y18.449
G1 F2400 X-58.398 Y18.45 E2658.71534
G0 F12000 X-58.398 Y18
G1 F2400 X58.398 Y17.999 E2661.03089
G0 F12000 X58.398 Y17.549
G1 F2400 X-58.398 Y17.55 E2663.34643
G0 F12000 X-58.398 Y17.1
G1 F2400 X58.398 Y17.099 E2665.66197
G0 F12000 X58.398 Y16.649
G1 F2400 X-58.398 Y16.65 E2667.97751
G0 F12000 X-58.398 Y16.2
G1 F2400 X58.398 Y16.199 E2670.29306
G0 F12000 X58.398 Y15.749
G1 F2400 X-58.398 Y15.75 E2672.6086
G0 F12000 X-58.398 Y15.3
G1 F2400 X58.398 Y15.299 E2674.92414
G0 F12000 X58.398 Y14.849
G1 F2400 X-58.398 Y14.85 E2677.23968
G0 F12000 X-58.398 Y14.4
G1 F2400 X58.398 Y14.399 E2679.55523
G0 F12000 X58.398 Y13.949
G1 F2400 X-58.398 Y13.95 E2681.87077
G0 F12000 X-58.398 Y13.5
G1 F2400 X58.398 Y13.499 E2684.18631
G0 F12000 X58.398 Y13.049
G1 F2400 X-58.398 Y13.05 E2686.50185
G0 F12000 X-58.398 Y12.6
G1 F2400 X58.398 Y12.599 E2688.8174
G0 F12000 X58.398 Y12.149
G1 F2400 X-58.398 Y12.15 E2691.13294
G0 F12000 X-58.398 Y11.7
G1 F2400 X58.398 Y11.699 E2693.44848
G0 F12000 X58.398 Y11.249
G1 F2400 X-58.398 Y11.25 E2695.76402
G0 F12000 X-58.398 Y10.8
G1 F2400 X58.398 Y10.799 E2698.07957
G0 F12000 X58.398 Y10.349
G1 F2400 X-58.398 Y10.35 E2700.39511
G0 F12000 X-58.398 Y9.9
G1 F2400 X58.398 Y9.899 E2702.71065
G0 F12000 X58.398 Y9.449
G1 F2400 X-58.398 Y9.45 E2705.02619
G0 F12000 X-58.398 Y9
G1 F2400 X58.398 Y8.999 E2707.34174
G0 F12000 X58.398 Y8.549
G1 F2400 X-58.398 Y8.55 E2709.65728
G0 F12000 X-58.398 Y8.1
G1 F2400 X58.398 Y8.099 E2711.97282
G0 F12000 X58.398 Y7.649
G1 F2400 X-58.398 Y7.65 E2714.28836
G0 F12000 X-58.398 Y7.2
G1 F2400 X58.398 Y7.199 E2716.60391
G0 F12000 X58.398 Y6.749
G1 F2400 X-58.398 Y6.75 E2718.91945
G0 F12000 X-58.398 Y6.3
G1 F2400 X58.398 Y6.299 E2721.23499
G0 F12000 X58.398 Y5.849
G1 F2400 X-58.398 Y5.85 E2723.55053
G0 F12000 X-58.398 Y5.4
G1 F2400 X58.398 Y5.399 E2725.86608
G0 F12000 X58.398 Y4.949
G1 F2400 X-58.398 Y4.95 E2728.18162
G0 F12000 X-58.398 Y4.5
G1 F2400 X58.398 Y4.499 E2730.49716
G0 F12000 X58.398 Y4.049
G1 F2400 X-58.398 Y4.05 E2732.8127
G0 F12000 X-58.398 Y3.6
G1 F2400 X58.398 Y3.599 E2735.12825
G0 F12000 X58.398 Y3.149
G1 F2400 X-58.398 Y3.15 E2737.44379
G0 F12000 X-58.398 Y2.7
G1 F2400 X58.398 Y2.699 E2739.75933
G0 F12000 X58.398 Y2.249
G1 F2400 X-58.398 Y2.25 E2742.07487
G0 F12000 X-58.398 Y1.8
G1 F2400 X58.398 Y1.799 E2744.39042
G0 F12000 X58.398 Y1.349
G1 F2400 X-58.398 Y1.35 E2746.70596
G0 F12000 X-58.398 Y0.9
G1 F2400 X58.398 Y0.899 E2749.0215
G0 F12000 X58.398 Y0.449
G1 F2400 X-58.398 Y0.45 E2751.33704
G0 F12000 X-58.398 Y0
G1 F2400 X58.398 Y0 E2753.65259
G0 F12000 X58.398 Y-0.45
G1 F2400 X-58.398 Y-0.449 E2755.96813
G0 F12000 X-58.398 Y-0.899
G1 F2400 X58.398 Y-0.9 E2758.28367
G0 F12000 X58.398 Y-1.35
G1 F2400 X-58.398 Y-1.349 E2760.59921
G0 F12000 X-58.398 Y-1.799
G1 F2400 X58.398 Y-1.8 E2762.91476
G0 F12000 X58.398 Y-2.25
G1 F2400 X-58.398 Y-2.249 E2765.2303
G0 F12000 X-58.398 Y-2.699
G1 F2400 X58.398 Y-2.7 E2767.54584
G0 F12000 X58.398 Y-3.15
G1 F2400 X-58.398 Y-3.149 E2769.86138
G0 F12000 X-58.398 Y-3.599
G1 F2400 X58.398 Y-3.6 E2772.17693
G0 F12000 X58.398 Y-4.05
G1 F2400 X-58.398 Y-4.049 E2774.49247
G0 F12000 X-58.398 Y-4.499
G1 F2400 X58.398 Y-4.5 E2776.80801
G0 F12000 X58.398 Y-4.95
G1 F2400 X-58.398 Y-4.949 E2779.12355
G0 F12000 X-58.398 Y-5.399
G1 F2400 X58.398 Y-5.4 E2781.4391
G0 F12000 X58.398 Y-5.85
G1 F2400 X-58.398 Y-5.849 E2783.75464
G0 F12000 X-58.398 Y-6.299
G1 F2400 X58.398 Y-6.3 E2786.07018
G0 F12000 X58.398 Y-6.75
G1 F2400 X-58.398 Y-6.749 E2788.38572
G0 F12000 X-58.398 Y-7.199
G1 F2400 X58.398 Y-7.2 E2790.70127
G0 F12000 X58.398 Y-7.65
G1 F2400 X-58.398 Y-7.649 E2793.01681
G0 F12000 X-58.398 Y-8.099
G1 F2400 X58.398 Y-8.1 E2795.33235
G0 F12000 X58.398 Y-8.55
G1 F2400 X-58.398 Y-8.549 E2797.64789
G0 F12000 X-58.398 Y-8.999
G1 F2400 X58.398 Y-9 E2799.96344
G0 F12000 X58.398 Y-9.45
G1 F2400 X-58.398 Y-9.449 E2802.27898
G0 F12000 X-58.398 Y-9.899
G1 F2400 X58.398 Y-9.9 E2804.59452
G0 F12000 X58.398 Y-10.35
G1 F2400 X-58.398 Y-10.349 E2806.91006
G0 F12000 X-58.398 Y-10.799
G1 F2400 X58.398 Y-10.8 E2809.22561
G0 F12000 X58.398 Y-11.25
G1 F2400 X-58.398 Y-11.249 E2811.54115
G0 F12000 X-58.398 Y-11.699
G1 F2400 X58.398 Y-11.7 E2813.85669
G0 F12000 X58.398 Y-12.15
G1 F2400 X-58.398 Y-12.149 E2816.17223
G0 F12000 X-58.398 Y-12.599
G1 F2400 X58.398 Y-12.6 E2818.48778
G0 F12000 X58.398 Y-13.05
G1 F2400 X-58.398 Y-13.049 E2820.80332
G0 F12000 X-58.398 Y-13.499
G1 F2400 X58.398 Y-13.5 E2823.11886
G0 F12000 X58.398 Y-13.95
G1 F2400 X-58.398 Y-13.949 E2825.4344
G0 F12000 X-58.398 Y-14.399
G1 F2400 X58.398 Y-14.4 E2827.74995
G0 F12000 X58.398 Y-14.85
G1 F2400 X-58.398 Y-14.849 E2830.06549
G0 F12000 X-58.398 Y-15.299
G1 F2400 X58.398 Y-15.3 E2832.38103
G0 F12000 X58.398 Y-15.75
G1 F2400 X-58.398 Y-15.749 E2834.69657
G0 F12000 X-58.398 Y-16.199
G1 F2400 X58.398 Y-16.2 E2837.01212
G0 F12000 X58.398 Y-16.65
G1 F2400 X-58.398 Y-16.649 E2839.32766
G0 F12000 X-58.398 Y-17.099
G1 F2400 X58.398 Y-17.1 E2841.6432
G0 F12000 X58.398 Y-17.55
G1 F2400 X-58.398 Y-17.549 E2843.95874
G0 F12000 X-58.398 Y-17.999
G1 F2400 X58.398 Y-18 E2846.27429
G0 F12000 X58.398 Y-18.45
G1 F2400 X-58.398 Y-18.449 E2848.58983
G0 F12000 X-58.398 Y-18.899
G1 F2400 X58.398 Y-18.9 E2850.90537
G0 F12000 X58.398 Y-19.35
G1 F2400 X-58.398 Y-19.349 E2853.22091
G0 F12000 X-58.398 Y-19.799
G1 F2400 X58.398 Y-19.8 E2855.53646
G0 F12000 X58.398 Y-20.25
G1 F2400 X-58.398 Y-20.249 E2857.852
G0 F12000 X-58.398 Y-20.699
G1 F2400 X58.398 Y-20.7 E2860.16754
G0 F12000 X58.398 Y-21.15
G1 F2400 X-58.398 Y-21.149 E2862.48308
G0 F12000 X-58.398 Y-21.599
G1 F2400 X58.398 Y-21.6 E2864.79863
G0 F12000 X58.398 Y-22.05
G1 F2400 X-58.398 Y-22.049 E2867.11417
G0 F12000 X-58.398 Y-22.499
G1 F2400 X58.398 Y-22.5 E2869.42971
G0 F12000 X58.398 Y-22.95
G1 F2400 X-58.398 Y-22.949 E2871.74525
G0 F12000 X-58.398 Y-23.399
G1 F2400 X58.398 Y-23.4 E2874.0608
G0 F12000 X58.398 Y-23.85
G1 F2400 X-58.398 Y-23.849 E2876.37634
G0 F12000 X-58.398 Y-24.299
G1 F2400 X58.398 Y-24.3 E2878.69188
G0 F12000 X58.398 Y-24.75
G1 F2400 X-58.398 Y-24.749 E2881.00742
G0 F12000 X-58.398 Y-25.199
G1 F2400 X58.398 Y-25.2 E2883.32297
G0 F12000 X58.398 Y-25.65
G1 F2400 X-58.398 Y-25.649 E2885.63851
G0 F12000 X-58.398 Y-26.099
G1 F2400 X58.398 Y-26.1 E2887.95405
G0 F12000 X58.398 Y-26.55
G1 F2400 X-58.398 Y-26.549 E2890.26959
G0 F12000 X-58.398 Y-26.999
G1 F2400 X58.398 Y-27 E2892.58514
G0 F12000 X58.398 Y-27.45
G1 F2400 X-58.398 Y-27.449 E2894.90068
G0 F12000 X-58.398 Y-27.899
G1 F2400 X58.398 Y-27.9 E2897.21622
G0 F12000 X58.398 Y-28.35
G1 F2400 X-58.398 Y-28.349 E2899.53176
G0 F12000 X-58.398 Y-28.799
G1 F2400 X58.398 Y-28.8 E2901.84731
G0 F12000 X58.398 Y-29.25
G1 F2400 X-58.398 Y-29.249 E2904.16285
G0 F12000 X-58.398 Y-29.699
G1 F2400 X58.398 Y-29.7 E2906.47839
G0 F12000 X58.398 Y-30.15
G1 F2400 X-58.398 Y-30.149 E2908.79393
G0 F12000 X-58.398 Y-30.599
G1 F2400 X58.398 Y-30.6 E2911.10948
G0 F12000 X58.398 Y-31.05
G1 F2400 X-58.398 Y-31.049 E2913.42502
G0 F12000 X-58.398 Y-31.499
G1 F2400 X58.398 Y-31.5 E2915.74056
G0 F12000 X58.398 Y-31.95
G1 F2400 X-58.398 Y-31.949 E2918.0561
G0 F12000 X-58.398 Y-32.399
G1 F2400 X58.398 Y-32.4 E2920.37165
G0 F12000 X58.398 Y-32.85
G1 F2400 X-58.398 Y-32.85 E2922.68719
G0 F12000 X-58.398 Y-33.3
G1 F2400 X58.398 Y-33.3 E2925.00273
G0 F12000 X58.398 Y-33.75
G1 F2400 X-58.398 Y-33.75 E2927.31827
G0 F12000 X-58.398 Y-34.2
G1 F2400 X58.398 Y-34.2 E2929.63382
G0 F12000 X58.398 Y-34.65
G1 F2400 X-58.398 Y-34.65 E2931.94936
G0 F12000 X-58.398 Y-35.1
G1 F2400 X58.398 Y-35.1 E2934.2649
G0 F12000 X58.398 Y-35.55
G1 F2400 X-58.398 Y-35.55 E2936.58044
G0 F12000 X-58.398 Y-36
G1 F2400 X58.398 Y-36 E2938.89599
G0 F12000 X58.398 Y-36.45
G1 F2400 X-58.398 Y-36.45 E2941.21153
G0 F12000 X-58.398 Y-36.9
G1 F2400 X58.398 Y-36.9 E2943.52707
G0 F12000 X58.398 Y-37.35
G1 F2400 X-58.398 Y-37.35 E2945.84261
G0 F12000 X-58.398 Y-37.8
G1 F2400 X58.398 Y-37.8 E2948.15816
G0 F12000 X58.398 Y-38.25
G1 F2400 X-58.398 Y-38.25 E2950.4737
G0 F12000 X-58.741 Y-38.599
G1 F2400 X-58.732 Y-38.678 E2950.47494
G1 X-58.65 Y-38.769 E2950.47587
G1 X-58.716 Y-38.96 E2950.4764
G1 X-58.763 Y-39.215 E2950.47727
G1 X-58.806 Y-39.161 E2950.47777
G1 X-58.965 Y-39.107 E2950.47917
G0 F12000 X-58.731 Y38.604
G0 X-58.731 Y38.604
G1 F2400 X-58.719 Y38.677 E2950.48034
G1 X-58.668 Y38.748 E2950.48115
G1 X-58.659 Y39.01 E2950.48248
G1 X-58.734 Y39.228 E2950.48451
G0 F12000 X58.6 Y-38.798
G0 X58.6 Y-38.798
G1 F2400 X58.666 Y-38.757 E2950.48553
G1 X58.717 Y-38.683 E2950.48647
G1 X58.851 Y-38.848 E2950.48768
G1 X58.848 Y-39.168 E2950.48799
G1 X58.727 Y-39.22 E2950.48915
G0 F12000 X58.727 Y-39.22 Z0.95
; Layer Change GCode
; LAYER:5
G0 X-58.469 Y39.249 Z0.8
G0 X-58.469 Y39.249
G0 X-58.485 Y39.574
G0 X-58.485 Y39.574
G0 X-58.423 Y38.674
; TYPE:WALL-INNER
G1 F2400 X-58.423 Y38.674 E2950.48915
G1 X-58.527 Y38.657 E2950.49124
G1 X-58.615 Y38.596 E2950.49336
G1 X-58.657 Y38.51 E2950.49526
G1 X-58.674 Y38.409 E2950.49729
G1 X-58.672 Y-38.42 E2952.02047
G1 X-58.654 Y-38.527 E2952.02262
G1 X-58.581 Y-38.631 E2952.02514
G1 X-58.45 Y-38.674 E2952.02787
G1 X58.43 Y-38.674 E2954.34508
G1 X58.579 Y-38.633 E2954.34814
G1 X58.617 Y-38.593 E2954.34923
G1 X58.657 Y-38.512 E2954.35103
G1 X58.674 Y-38.409 E2954.3531
G1 X58.672 Y38.421 E2955.87629
G1 X58.654 Y38.528 E2955.87844
G1 X58.584 Y38.63 E2955.88089
G1 X58.45 Y38.674 E2955.88369
G1 X-58.423 Y38.674 E2958.20076
G0 F12000 X-58.458 Y39.124
G1 F2400 X-58.458 Y39.124 E2958.20076
G1 X-58.689 Y39.078 E2958.20543
G1 X-58.846 Y39.004 E2958.20887
G1 X-58.988 Y38.857 E2958.21292
G1 X-59.09 Y38.651 E2958.21748
G1 X-59.124 Y38.446 E2958.2216
G1 X-59.122 Y-38.458 E2959.74626
G1 X-59.087 Y-38.67 E2959.75052
G1 X-58.991 Y-38.854 E2959.75464
G1 X-58.848 Y-39.003 E2959.75873
G1 X-58.691 Y-39.077 E2959.76217
G1 X-58.565 Y-39.115 E2959.76478
G1 X58.458 Y-39.124 E2962.08482
G1 X58.691 Y-39.078 E2962.08953
G1 X58.845 Y-39.005 E2962.09291
G1 X58.989 Y-38.856 E2962.09702
G1 X59.091 Y-38.649 E2962.10159
G1 X59.124 Y-38.446 E2962.10567
G1 X59.122 Y38.458 E2963.63033
G1 X59.086 Y38.672 E2963.63464
G1 X58.993 Y38.853 E2963.63867
G1 X58.85 Y39.002 E2963.64277
G1 X58.692 Y39.077 E2963.64623
G1 X58.567 Y39.115 E2963.64882
G1 X-58.458 Y39.124 E2965.96891
G0 F12000 X-58.485 Y39.574
; TYPE:WALL-OUTER
G1 F1800 X-58.485 Y39.574 E2965.96891
G1 X-58.688 Y39.548 E2965.97296
G1 X-58.856 Y39.498 E2965.97644
G1 X-59.111 Y39.377 E2965.98203
G1 X-59.36 Y39.12 E2965.98913
G1 X-59.524 Y38.788 E2965.99647
G1 X-59.574 Y38.482 E2966.00262
G1 X-59.572 Y-38.495 E2967.52873
G1 X-59.519 Y-38.815 E2967.53516
G1 X-59.361 Y-39.118 E2967.54193
G1 X-59.115 Y-39.375 E2967.54898
G1 X-58.856 Y-39.498 E2967.55467
G1 X-58.656 Y-39.557 E2967.5588
G1 X-58.494 Y-39.574 E2967.56203
G1 X58.486 Y-39.574 E2969.88122
G1 X58.688 Y-39.548 E2969.88526
G1 X58.857 Y-39.498 E2969.88876
G1 X59.112 Y-39.377 E2969.89435
G1 X59.362 Y-39.118 E2969.90149
G1 X59.524 Y-38.789 E2969.90876
G1 X59.574 Y-38.482 E2969.91492
G1 X59.572 Y38.496 E2971.44105
G1 X59.519 Y38.816 E2971.44748
G1 X59.364 Y39.116 E2971.45418
G1 X59.118 Y39.372 E2971.46122
G1 X58.854 Y39.499 E2971.46703
G1 X58.656 Y39.557 E2971.47112
G1 X58.494 Y39.574 E2971.47435
G1 X-58.485 Y39.574 E2973.79352
G0 F12000 X-58.628 Y38.852
; TYPE:FILL
G1 F2400 X-58.641 Y38.826 E2973.79433
G1 X-58.715 Y38.788 E2973.7951
G1 X-58.773 Y38.673 E2973.79608
G1 X-58.838 Y38.652 E2973.79656
G0 F12000 X-58.049 Y38.473
G1 F2400 X-58.05 Y-38.473 E2975.32205
G0 F12000 X-57.6 Y-38.473
G1 F2400 X-57.599 Y38.473 E2976.84755
G0 F12000 X-57.149 Y38.473
G1 F2400 X-57.15 Y-38.473 E2978.37304
G0 F12000 X-56.7 Y-38.473
G1 F2400 X-56.699 Y38.473 E2979.89854
G0 F12000 X-56.249 Y38.473
G1 F2400 X-56.25 Y-38.473 E2981.42403
G0 F12000 X-55.8 Y-38.473
G1 F2400 X-55.799 Y38.473 E2982.94953
G0 F12000 X-55.349 Y38.473
G1 F2400 X-55.35 Y-38.473 E2984.47503
G0 F12000 X-54.9 Y-38.473
G1 F2400 X-54.899 Y38.473 E2986.00052
G0 F12000 X-54.449 Y38.473
G1 F2400 X-54.45 Y-38.473 E2987.52602
G0 F12000 X-54 Y-38.473
G1 F2400 X-53.999 Y38.473 E2989.05151
G0 F12000 X-53.549 Y38.473
G1 F2400 X-53.55 Y-38.473 E2990.57701
G0 F12000 X-53.1 Y-38.473
G1 F2400 X-53.099 Y38.473 E2992.1025
G0 F12000 X-52.649 Y38.473
G1 F2400 X-52.65 Y-38.473 E2993.628
G0 F12000 X-52.2 Y-38.473
G1 F2400 X-52.199 Y38.473 E2995.15349
G0 F12000 X-51.749 Y38.473
G1 F2400 X-51.75 Y-38.473 E2996.67899
G0 F12000 X-51.3 Y-38.473
G1 F2400 X-51.299 Y38.473 E2998.20448
G0 F12000 X-50.849 Y38.473
G1 F2400 X-50.85 Y-38.473 E2999.72998
G0 F12000 X-50.4 Y-38.473
G1 F2400 X-50.399 Y38.473 E3001.25547
G0 F12000 X-49.949 Y38.473
G1 F2400 X-49.95 Y-38.473 E3002.78097
G0 F12000 X-49.5 Y-38.473
G1 F2400 X-49.499 Y38.473 E3004.30646
G0 F12000 X-49.049 Y38.473
G1 F2400 X-49.05 Y-38.473 E3005.83196
G0 F12000 X-48.6 Y-38.473
G1 F2400 X-48.599 Y38.473 E3007.35745
G0 F12000 X-48.149 Y38.473
G1 F2400 X-48.15 Y-38.473 E3008.88295
G0 F12000 X-47.7 Y-38.473
G1 F2400 X-47.699 Y38.473 E3010.40844
G0 F12000 X-47.249 Y38.473
G1 F2400 X-47.25 Y-38.473 E3011.93394
G0 F12000 X-46.8 Y-38.473
G1 F2400 X-46.799 Y38.473 E3013.45943
G0 F12000 X-46.349 Y38.473
G1 F2400 X-46.35 Y-38.473 E3014.98493
G0 F12000 X-45.9 Y-38.473
G1 F2400 X-45.899 Y38.473 E3016.51042
G0 F12000 X-45.449 Y38.473
G1 F2400 X-45.45 Y-38.473 E3018.03592
G0 F12000 X-45 Y-38.473
G1 F2400 X-44.999 Y38.473 E3019.56141
G0 F12000 X-44.549 Y38.473
G1 F2400 X-44.55 Y-38.473 E3021.08691
G0 F12000 X-44.1 Y-38.473
G1 F2400 X-44.099 Y38.473 E3022.6124
G0 F12000 X-43.649 Y38.473
G1 F2400 X-43.65 Y-38.473 E3024.1379
G0 F12000 X-43.2 Y-38.473
G1 F2400 X-43.199 Y38.473 E3025.66339
G0 F12000 X-42.749 Y38.473
G1 F2400 X-42.75 Y-38.473 E3027.18889
G0 F12000 X-42.3 Y-38.473
G1 F2400 X-42.299 Y38.473 E3028.71439
G0 F12000 X-41.849 Y38.473
G1 F2400 X-41.85 Y-38.473 E3030.23988
G0 F12000 X-41.4 Y-38.473
G1 F2400 X-41.399 Y38.473 E3031.76538
G0 F12000 X-40.949 Y38.473
G1 F2400 X-40.95 Y-38.473 E3033.29087
G0 F12000 X-40.5 Y-38.473
G1 F2400 X-40.499 Y38.473 E3034.81637
G0 F12000 X-40.049 Y38.473
G1 F2400 X-40.05 Y-38.473 E3036.34186
G0 F12000 X-39.6 Y-38.473
G1 F2400 X-39.599 Y38.473 E3037.86736
G0 F12000 X-39.149 Y38.473
G1 F2400 X-39.15 Y-38.473 E3039.39285
G0 F12000 X-38.7 Y-38.473
G1 F2400 X-38.699 Y38.473 E3040.91835
G0 F12000 X-38.249 Y38.473
G1 F2400 X-38.25 Y-38.473 E3042.44384
G0 F12000 X-37.8 Y-38.473
G1 F2400 X-37.799 Y38.473 E3043.96934
G0 F12000 X-37.349 Y38.473
G1 F2400 X-37.35 Y-38.473 E3045.49483
G0 F12000 X-36.9 Y-38.473
G1 F2400 X-36.899 Y38.473 E3047.02033
G0 F12000 X-36.449 Y38.473
G1 F2400 X-36.45 Y-38.473 E3048.54582
G0 F12000 X-36 Y-38.473
G1 F2400 X-35.999 Y38.473 E3050.07132
G0 F12000 X-35.549 Y38.473
G1 F2400 X-35.55 Y-38.473 E3051.59681
G0 F12000 X-35.1 Y-38.473
G1 F2400 X-35.099 Y38.473 E3053.12231
G0 F12000 X-34.649 Y38.473
G1 F2400 X-34.65 Y-38.473 E3054.6478
G0 F12000 X-34.2 Y-38.473
G1 F2400 X-34.199 Y38.473 E3056.1733
G0 F12000 X-33.749 Y38.473
G1 F2400 X-33.75 Y-38.473 E3057.69879
G0 F12000 X-33.3 Y-38.473
G1 F2400 X-33.299 Y38.473 E3059.22429
G0 F12000 X-32.849 Y38.473
G1 F2400 X-32.85 Y-38.473 E3060.74978
G0 F12000 X-32.4 Y-38.473
G1 F2400 X-32.399 Y38.473 E3062.27528
G0 F12000 X-31.949 Y38.473
G1 F2400 X-31.95 Y-38.473 E3063.80077
G0 F12000 X-31.5 Y-38.473
G1 F2400 X-31.499 Y38.473 E3065.32627
G0 F12000 X-31.049 Y38.473
G1 F2400 X-31.05 Y-38.473 E3066.85176
G0 F12000 X-30.6 Y-38.473
G1 F2400 X-30.599 Y38.473 E3068.37726
G0 F12000 X-30.149 Y38.473
G1 F2400 X-30.15 Y-38.473 E3069.90275
G0 F12000 X-29.7 Y-38.474
G1 F2400 X-29.699 Y38.473 E3071.42827
G0 F12000 X-29.249 Y38.473
G1 F2400 X-29.25 Y-38.474 E3072.95378
G0 F12000 X-28.8 Y-38.474
G1 F2400 X-28.799 Y38.473 E3074.4793
G0 F12000 X-28.349 Y38.473
G1 F2400 X-28.35 Y-38.474 E3076.00481
G0 F12000 X-27.9 Y-38.474
G1 F2400 X-27.899 Y38.473 E3077.53033
G0 F12000 X-27.449 Y38.473
G1 F2400 X-27.45 Y-38.474 E3079.05584
G0 F12000 X-27 Y-38.474
G1 F2400 X-26.999 Y38.473 E3080.58136
G0 F12000 X-26.549 Y38.473
G1 F2400 X-26.55 Y-38.474 E3082.10687
G0 F12000 X-26.1 Y-38.474
G1 F2400 X-26.099 Y38.473 E3083.63239
G0 F12000 X-25.649 Y38.473
G1 F2400 X-25.65 Y-38.474 E3085.1579
G0 F12000 X-25.2 Y-38.474
G1 F2400 X-25.199 Y38.473 E3086.68342
G0 F12000 X-24.749 Y38.473
G1 F2400 X-24.75 Y-38.474 E3088.20893
G0 F12000 X-24.3 Y-38.474
G1 F2400 X-24.299 Y38.473 E3089.73445
G0 F12000 X-23.849 Y38.473
G1 F2400 X-23.85 Y-38.474 E3091.25996
G0 F12000 X-23.4 Y-38.474
G1 F2400 X-23.399 Y38.473 E3092.78548
G0 F12000 X-22.949 Y38.473
G1 F2400 X-22.95 Y-38.474 E3094.31099
G0 F12000 X-22.5 Y-38.474
G1 F2400 X-22.499 Y38.473 E3095.83651
G0 F12000 X-22.049 Y38.473
G1 F2400 X-22.05 Y-38.474 E3097.36202
G0 F12000 X-21.6 Y-38.474
G1 F2400 X-21.599 Y38.473 E3098.88754
G0 F12000 X-21.149 Y38.473
G1 F2400 X-21.15 Y-38.474 E3100.41305
G0 F12000 X-20.7 Y-38.474
G1 F2400 X-20.699 Y38.473 E3101.93857
G0 F12000 X-20.249 Y38.473
G1 F2400 X-20.25 Y-38.474 E3103.46408
G0 F12000 X-19.8 Y-38.474
G1 F2400 X-19.799 Y38.473 E3104.9896
G0 F12000 X-19.349 Y38.473
G1 F2400 X-19.35 Y-38.474 E3106.51511
G0 F12000 X-18.9 Y-38.474
G1 F2400 X-18.899 Y38.473 E3108.04063
G0 F12000 X-18.449 Y38.473
G1 F2400 X-18.45 Y-38.474 E3109.56614
G0 F12000 X-18 Y-38.474
G1 F2400 X-17.999 Y38.473 E3111.09166
G0 F12000 X-17.549 Y38.473
G1 F2400 X-17.55 Y-38.474 E3112.61717
G0 F12000 X-17.1 Y-38.474
G1 F2400 X-17.099 Y38.473 E3114.14269
G0 F12000 X-16.649 Y38.473
G1 F2400 X-16.65 Y-38.474 E3115.6682
G0 F12000 X-16.2 Y-38.474
G1 F2400 X-16.199 Y38.473 E3117.19372
G0 F12000 X-15.749 Y38.473
G1 F2400 X-15.75 Y-38.474 E3118.71923
G0 F12000 X-15.3 Y-38.474
G1 F2400 X-15.299 Y38.473 E3120.24475
G0 F12000 X-14.849 Y38.473
G1 F2400 X-14.85 Y-38.474 E3121.77026
G0 F12000 X-14.4 Y-38.474
G1 F2400 X-14.399 Y38.473 E3123.29578
G0 F12000 X-13.949 Y38.473
G1 F2400 X-13.95 Y-38.474 E3124.82129
G0 F12000 X-13.5 Y-38.474
G1 F2400 X-13.499 Y38.473 E3126.34681
G0 F12000 X-13.049 Y38.473
G1 F2400 X-13.05 Y-38.474 E3127.87232
G0 F12000 X-12.6 Y-38.474
G1 F2400 X-12.599 Y38.473 E3129.39784
G0 F12000 X-12.149 Y38.473
G1 F2400 X-12.15 Y-38.474 E3130.92335
G0 F12000 X-11.7 Y-38.474
G1 F2400 X-11.699 Y38.473 E3132.44887
G0 F12000 X-11.249 Y38.473
G1 F2400 X-11.25 Y-38.474 E3133.97438
G0 F12000 X-10.8 Y-38.474
G1 F2400 X-10.799 Y38.473 E3135.4999
G0 F12000 X-10.349 Y38.473
G1 F2400 X-10.35 Y-38.474 E3137.02541
G0 F12000 X-9.9 Y-38.474
G1 F2400 X-9.899 Y38.473 E3138.55093
G0 F12000 X-9.449 Y38.473
G1 F2400 X-9.45 Y-38.474 E3140.07644
G0 F12000 X-9 Y-38.474
G1 F2400 X-8.999 Y38.473 E3141.60196
G0 F12000 X-8.549 Y38.473
G1 F2400 X-8.55 Y-38.474 E3143.12747
G0 F12000 X-8.1 Y-38.474
G1 F2400 X-8.099 Y38.473 E3144.65299
G0 F12000 X-7.649 Y38.473
G1 F2400 X-7.65 Y-38.474 E3146.1785
G0 F12000 X-7.2 Y-38.474
G1 F2400 X-7.199 Y38.473 E3147.70402
G0 F12000 X-6.749 Y38.473
G1 F2400 X-6.75 Y-38.474 E3149.22953
G0 F12000 X-6.3 Y-38.474
G1 F2400 X-6.299 Y38.473 E3150.75505
G0 F12000 X-5.849 Y38.473
G1 F2400 X-5.85 Y-38.474 E3152.28056
G0 F12000 X-5.4 Y-38.474
G1 F2400 X-5.399 Y38.473 E3153.80608
G0 F12000 X-4.949 Y38.473
G1 F2400 X-4.95 Y-38.474 E3155.33159
G0 F12000 X-4.5 Y-38.474
G1 F2400 X-4.499 Y38.473 E3156.85711
G0 F12000 X-4.049 Y38.473
G1 F2400 X-4.05 Y-38.474 E3158.38262
G0 F12000 X-3.6 Y-38.474
G1 F2400 X-3.599 Y38.473 E3159.90814
G0 F12000 X-3.149 Y38.473
G1 F2400 X-3.15 Y-38.474 E3161.43365
G0 F12000 X-2.7 Y-38.474
G1 F2400 X-2.699 Y38.473 E3162.95917
G0 F12000 X-2.249 Y38.473
G1 F2400 X-2.25 Y-38.474 E3164.48468
G0 F12000 X-1.8 Y-38.474
G1 F2400 X-1.799 Y38.473 E3166.0102
G0 F12000 X-1.349 Y38.473
G1 F2400 X-1.35 Y-38.474 E3167.53571
G0 F12000 X-0.9 Y-38.474
G1 F2400 X-0.899 Y38.473 E3169.06123
G0 F12000 X-0.449 Y38.473
G1 F2400 X-0.45 Y-38.474 E3170.58674
G0 F12000 X0 Y-38.474
G1 F2400 X0 Y38.474 E3172.11228
G0 F12000 X0.45 Y38.474
G1 F2400 X0.449 Y-38.473 E3173.63779
G0 F12000 X0.899 Y-38.473
G1 F2400 X0.9 Y38.474 E3175.16331
G0 F12000 X1.35 Y38.474
G1 F2400 X1.349 Y-38.473 E3176.68882
G0 F12000 X1.799 Y-38.473
G1 F2400 X1.8 Y38.474 E3178.21434
G0 F12000 X2.25 Y38.474
G1 F2400 X2.249 Y-38.473 E3179.73985
G0 F12000 X2.699 Y-38.473
G1 F2400 X2.7 Y38.474 E3181.26537
G0 F12000 X3.15 Y38.474
G1 F2400 X3.149 Y-38.473 E3182.79088
G0 F12000 X3.599 Y-38.473
G1 F2400 X3.6 Y38.474 E3184.3164
G0 F12000 X4.05 Y38.474
G1 F2400 X4.049 Y-38.473 E3185.84191
G0 F12000 X4.499 Y-38.473
G1 F2400 X4.5 Y38.474 E3187.36743
G0 F12000 X4.95 Y38.474
G1 F2400 X4.949 Y-38.473 E3188.89294
G0 F12000 X5.399 Y-38.473
G1 F2400 X5.4 Y38.474 E3190.41846
G0 F12000 X5.85 Y38.474
G1 F2400 X5.849 Y-38.473 E3191.94397
G0 F12000 X6.299 Y-38.473
G1 F2400 X6.3 Y38.474 E3193.46949
G0 F12000 X6.75 Y38.474
G1 F2400 X6.749 Y-38.473 E3194.995
G0 F12000 X7.199 Y-38.473
G1 F2400 X7.2 Y38.474 E3196.52052
G0 F12000 X7.65 Y38.474
G1 F2400 X7.649 Y-38.473 E3198.04603
G0 F12000 X8.099 Y-38.473
G1 F2400 X8.1 Y38.474 E3199.57155
G0 F12000 X8.55 Y38.474
G1 F2400 X8.549 Y-38.473 E3201.09706
G0 F12000 X8.999 Y-38.473
G1 F2400 X9 Y38.474 E3202.62258
G0 F12000 X9.45 Y38.474
G1 F2400 X9.449 Y-38.473 E3204.14809
G0 F12000 X9.899 Y-38.473
G1 F2400 X9.9 Y38.474 E3205.67361
G0 F12000 X10.35 Y38.474
G1 F2400 X10.349 Y-38.473 E3207.19912
G0 F12000 X10.799 Y-38.473
G1 F2400 X10.8 Y38.474 E3208.72464
G0 F12000 X11.25 Y38.474
G1 F2400 X11.249 Y-38.473 E3210.25015
G0 F12000 X11.699 Y-38.473
G1 F2400 X11.7 Y38.474 E3211.77567
G0 F12000 X12.15 Y38.474
G1 F2400 X12.149 Y-38.473 E3213.30118
G0 F12000 X12.599 Y-38.473
G1 F2400 X12.6 Y38.474 E3214.8267
G0 F12000 X13.05 Y38.474
G1 F2400 X13.049 Y-38.473 E3216.35221
G0 F12000 X13.499 Y-38.473
G1 F2400 X13.5 Y38.474 E3217.87773
G0 F12000 X13.95 Y38.474
G1 F2400 X13.949 Y-38.473 E3219.40324
G0 F12000 X14.399 Y-38.473
G1 F2400 X14.4 Y38.474 E3220.92876
G0 F12000 X14.85 Y38.474
G1 F2400 X14.849 Y-38.473 E3222.45427
G0 F12000 X15.299 Y-38.473
G1 F2400 X15.3 Y38.474 E3223.97979
G0 F12000 X15.75 Y38.474
G1 F2400 X15.749 Y-38.473 E3225.5053
G0 F12000 X16.199 Y-38.473
G1 F2400 X16.2 Y38.474 E3227.03082
G0 F12000 X16.65 Y38.474
G1 F2400 X16.649 Y-38.473 E3228.55633
G0 F12000 X17.099 Y-38.473
G1 F2400 X17.1 Y38.474 E3230.08185
G0 F12000 X17.55 Y38.474
G1 F2400 X17.549 Y-38.473 E3231.60736
G0 F12000 X17.999 Y-38.473
G1 F2400 X18 Y38.474 E3233.13288
G0 F12000 X18.45 Y38.474
G1 F2400 X18.449 Y-38.473 E3234.65839
G0 F12000 X18.899 Y-38.473
G1 F2400 X18.9 Y38.474 E3236.18391
G0 F12000 X19.35 Y38.474
G1 F2400 X19.349 Y-38.473 E3237.70942
G0 F12000 X19.799 Y-38.473
G1 F2400 X19.8 Y38.474 E3239.23494
G0 F12000 X20.25 Y38.474
G1 F2400 X20.249 Y-38.473 E3240.76045
G0 F12000 X20.699 Y-38.473
G1 F2400 X20.7 Y38.474 E3242.28597
G0 F12000 X21.15 Y38.474
G1 F2400 X21.149 Y-38.473 E3243.81148
G0 F12000 X21.599 Y-38.473
G1 F2400 X21.6 Y38.474 E3245.337
G0 F12000 X22.05 Y38.474
G1 F2400 X22.049 Y-38.473 E3246.86251
G0 F12000 X22.499 Y-38.473
G1 F2400 X22.5 Y38.474 E3248.38803
G0 F12000 X22.95 Y38.474
G1 F2400 X22.949 Y-38.473 E3249.91354
G0 F12000 X23.399 Y-38.473
G1 F2400 X23.4 Y38.474 E3251.43906
G0 F12000 X23.85 Y38.474
G1 F2400 X23.849 Y-38.473 E3252.96457
G0 F12000 X24.299 Y-38.473
G1 F2400 X24.3 Y38.474 E3254.49009
G0 F12000 X24.75 Y38.474
