; Generated with MatterSlice 1.0
; filamentDiameter = 1.75
; extrusionWidth = 0.5
; firstLayerExtrusionWidth = 0.625
; layerThickness = 0.2
; firstLayerThickness = 0.3
; automatic settings before start_gcode
G21 ; set units to millimeters
M107 ; fan off
M190 S60 ; wait for bed temperature to be reached
M104 T0 S210 ; start heating extruder 1
M109 T0 S210 ; wait for extruder 1
T0 ; set the active extruder to 0
; settings from start_gcode
G28
; automatic settings after start_gcode
T0 ; set the active extruder to 0
G90 ; use absolute coordinates
G92 E0 ; reset the expected extruder position
M82 ; use absolute distance for extrusion
; Layer count: 55
; Layer Change GCode
; LAYER:0
G4 P0
M107
G0 F12000 X63.937 Y43.937 Z0.8
; TYPE:SKIRT
G1 Z0.3
G1 F6000 E0
G1 F900 X-63.936 Y43.937 E9.96814
G1 X-63.936 Y-43.936 E16.81814
G1 X63.937 Y-43.936 E26.78628
G1 X63.937 Y43.937 E33.63629
G0 F12000 X63.312 Y43.312
G1 F900 X-63.311 Y43.312 E43.50699
G1 X-63.311 Y-43.311 E50.25955
G1 X63.312 Y-43.311 E60.13024
G1 X63.312 Y43.312 E66.88281
G1 F6000 E65.08281
G1 Z0.8
G0 F12000 X-59.687 Y39.688
; TYPE:WALL-OUTER
G1 Z0.3
G1 F6000 E66.88281
G1 F900 X-59.687 Y39.688 E66.88281
G1 X-59.687 Y-39.687 E73.07036
G1 X59.688 Y-39.687 E82.37605
G1 X59.688 Y39.688 E88.56361
G1 X-59.687 Y39.688 E97.8693
G0 F12000 X-59.063 Y39.064
; TYPE:WALL-INNER
G1 F900 X-59.063 Y39.064 E97.8693
G1 X-59.063 Y-39.063 E103.95957
G1 X59.064 Y-39.063 E113.16797
G1 X59.064 Y39.064 E119.25824
G1 X-59.063 Y39.064 E128.46665
G0 F12000 X-58.439 Y38.44
G1 F900 X-58.439 Y38.44 E128.46665
G1 X-58.439 Y-38.439 E134.45963
G1 X58.44 Y-38.439 E143.57075
G1 X58.44 Y38.44 E149.56373
G1 X-58.439 Y38.44 E158.67485
G0 F12000 X-58.064 Y37.5
; TYPE:BOTTOM-FILL
G1 F900 X58.065 Y37.5 E167.72751
G0 F12000 X58.065 Y36.875
G1 F900 X-58.064 Y36.875 E176.78016
G0 F12000 X-58.064 Y36.25
G1 F900 X58.065 Y36.25 E185.83282
G0 F12000 X58.065 Y35.625
G1 F900 X-58.064 Y35.625 E194.88547
G0 F12000 X-58.064 Y35
G1 F900 X58.065 Y35 E203.93813
G0 F12000 X58.065 Y34.375
G1 F900 X-58.064 Y34.375 E212.99079
G0 F12000 X-58.064 Y33.75
G1 F900 X58.065 Y33.75 E222.04344
G0 F12000 X58.065 Y33.125
G1 F900 X-58.064 Y33.125 E231.0961
G0 F12000 X-58.064 Y32.5
G1 F900 X58.065 Y32.499 E240.14875
G0 F12000 X58.065 Y31.874
G1 F900 X-58.064 Y31.875 E249.20141
G0 F12000 X-58.064 Y31.25
G1 F900 X58.065 Y31.249 E258.25406
G0 F12000 X58.065 Y30.624
G1 F900 X-58.064 Y30.625 E267.30672
G0 F12000 X-58.064 Y30
G1 F900 X58.065 Y29.999 E276.35937
G0 F12000 X58.065 Y29.374
G1 F900 X-58.064 Y29.375 E285.41203
G0 F12000 X-58.064 Y28.75
G1 F900 X58.065 Y28.749 E294.46468
G0 F12000 X58.065 Y28.124
G1 F900 X-58.064 Y28.125 E303.51734
G0 F12000 X-58.064 Y27.5
G1 F900 X58.065 Y27.499 E312.56999
G0 F12000 X58.065 Y26.874
G1 F900 X-58.064 Y26.875 E321.62265
G0 F12000 X-58.064 Y26.25
G1 F900 X58.065 Y26.249 E330.6753
G0 F12000 X58.065 Y25.624
G1 F900 X-58.064 Y25.625 E339.72796
G0 F12000 X-58.064 Y25
G1 F900 X58.065 Y24.999 E348.78061
G0 F12000 X58.065 Y24.374
G1 F900 X-58.064 Y24.375 E357.83327
G0 F12000 X-58.064 Y23.75
G1 F900 X58.065 Y23.749 E366.88592
G0 F12000 X58.065 Y23.124
G1 F900 X-58.064 Y23.125 E375.93858
G0 F12000 X-58.064 Y22.5
G1 F900 X58.065 Y22.499 E384.99123
G0 F12000 X58.065 Y21.874
G1 F900 X-58.064 Y21.875 E394.04389
G0 F12000 X-58.064 Y21.25
G1 F900 X58.065 Y21.249 E403.09654
G0 F12000 X58.065 Y20.624
G1 F900 X-58.064 Y20.625 E412.1492
G0 F12000 X-58.064 Y20
G1 F900 X58.065 Y19.999 E421.20185
G0 F12000 X58.065 Y19.374
G1 F900 X-58.064 Y19.375 E430.25451
G0 F12000 X-58.064 Y18.75
G1 F900 X58.065 Y18.749 E439.30717
G0 F12000 X58.065 Y18.124
G1 F900 X-58.064 Y18.125 E448.35982
G0 F12000 X-58.064 Y17.5
G1 F900 X58.065 Y17.499 E457.41248
G0 F12000 X58.065 Y16.874
G1 F900 X-58.064 Y16.875 E466.46513
G0 F12000 X-58.064 Y16.25
G1 F900 X58.065 Y16.249 E475.51779
G0 F12000 X58.065 Y15.624
G1 F900 X-58.064 Y15.625 E484.57044
G0 F12000 X-58.064 Y15
G1 F900 X58.065 Y14.999 E493.6231
G0 F12000 X58.065 Y14.374
G1 F900 X-58.064 Y14.375 E502.67575
G0 F12000 X-58.064 Y13.75
G1 F900 X58.065 Y13.749 E511.72841
G0 F12000 X58.065 Y13.124
G1 F900 X-58.064 Y13.125 E520.78106
G0 F12000 X-58.064 Y12.5
G1 F900 X58.065 Y12.499 E529.83372
G0 F12000 X58.065 Y11.874
G1 F900 X-58.064 Y11.875 E538.88637
G0 F12000 X-58.064 Y11.25
G1 F900 X58.065 Y11.249 E547.93903
G0 F12000 X58.065 Y10.624
G1 F900 X-58.064 Y10.625 E556.99168
G0 F12000 X-58.064 Y10
G1 F900 X58.065 Y9.999 E566.04434
G0 F12000 X58.065 Y9.374
G1 F900 X-58.064 Y9.375 E575.09699
G0 F12000 X-58.064 Y8.75
G1 F900 X58.065 Y8.749 E584.14965
G0 F12000 X58.065 Y8.124
G1 F900 X-58.064 Y8.125 E593.2023
G0 F12000 X-58.064 Y7.5
G1 F900 X58.065 Y7.499 E602.25496
G0 F12000 X58.065 Y6.874
G1 F900 X-58.064 Y6.875 E611.30761
G0 F12000 X-58.064 Y6.25
G1 F900 X58.065 Y6.249 E620.36027
G0 F12000 X58.065 Y5.624
G1 F900 X-58.064 Y5.625 E629.41292
G0 F12000 X-58.064 Y5
G1 F900 X58.065 Y4.999 E638.46558
G0 F12000 X58.065 Y4.374
G1 F900 X-58.064 Y4.375 E647.51824
G0 F12000 X-58.064 Y3.75
G1 F900 X58.065 Y3.749 E656.57089
G0 F12000 X58.065 Y3.124
G1 F900 X-58.064 Y3.125 E665.62355
G0 F12000 X-58.064 Y2.5
G1 F900 X58.065 Y2.499 E674.6762
G0 F12000 X58.065 Y1.874
G1 F900 X-58.064 Y1.875 E683.72886
G0 F12000 X-58.064 Y1.25
G1 F900 X58.065 Y1.249 E692.78151
G0 F12000 X58.065 Y0.624
G1 F900 X-58.064 Y0.625 E701.83417
G0 F12000 X-58.064 Y0
G1 F900 X58.065 Y0 E710.88682
G0 F12000 X58.065 Y-0.625
G1 F900 X-58.064 Y-0.624 E719.93948
G0 F12000 X-58.064 Y-1.249
G1 F900 X58.065 Y-1.25 E728.99213
G0 F12000 X58.065 Y-1.875
G1 F900 X-58.064 Y-1.874 E738.04479
G0 F12000 X-58.064 Y-2.499
G1 F900 X58.065 Y-2.5 E747.09744
G0 F12000 X58.065 Y-3.125
G1 F900 X-58.064 Y-3.124 E756.1501
G0 F12000 X-58.064 Y-3.749
G1 F900 X58.065 Y-3.75 E765.20275
G0 F12000 X58.065 Y-4.375
G1 F900 X-58.064 Y-4.374 E774.25541
G0 F12000 X-58.064 Y-4.999
G1 F900 X58.065 Y-5 E783.30806
G0 F12000 X58.065 Y-5.625
G1 F900 X-58.064 Y-5.624 E792.36072
G0 F12000 X-58.064 Y-6.249
G1 F900 X58.065 Y-6.25 E801.41337
G0 F12000 X58.065 Y-6.875
G1 F900 X-58.064 Y-6.874 E810.46603
G0 F12000 X-58.064 Y-7.499
G1 F900 X58.065 Y-7.5 E819.51868
G0 F12000 X58.065 Y-8.125
G1 F900 X-58.064 Y-8.124 E828.57134
G0 F12000 X-58.064 Y-8.749
G1 F900 X58.065 Y-8.75 E837.62399
G0 F12000 X58.065 Y-9.375
G1 F900 X-58.064 Y-9.374 E846.67665
G0 F12000 X-58.064 Y-9.999
G1 F900 X58.065 Y-10 E855.7293
G0 F12000 X58.065 Y-10.625
G1 F900 X-58.064 Y-10.624 E864.78196
G0 F12000 X-58.064 Y-11.249
G1 F900 X58.065 Y-11.25 E873.83462
G0 F12000 X58.065 Y-11.875
G1 F900 X-58.064 Y-11.874 E882.88727
G0 F12000 X-58.064 Y-12.499
G1 F900 X58.065 Y-12.5 E891.93993
G0 F12000 X58.065 Y-13.125
G1 F900 X-58.064 Y-13.124 E900.99258
G0 F12000 X-58.064 Y-13.749
G1 F900 X58.065 Y-13.75 E910.04524
G0 F12000 X58.065 Y-14.375
G1 F900 X-58.064 Y-14.374 E919.09789
G0 F12000 X-58.064 Y-14.999
G1 F900 X58.065 Y-15 E928.15055
G0 F12000 X58.065 Y-15.625
G1 F900 X-58.064 Y-15.624 E937.2032
G0 F12000 X-58.064 Y-16.249
G1 F900 X58.065 Y-16.25 E946.25586
G0 F12000 X58.065 Y-16.875
G1 F900 X-58.064 Y-16.874 E955.30851
G0 F12000 X-58.064 Y-17.499
G1 F900 X58.065 Y-17.5 E964.36117
G0 F12000 X58.065 Y-18.125
G1 F900 X-58.064 Y-18.124 E973.41382
G0 F12000 X-58.064 Y-18.749
G1 F900 X58.065 Y-18.75 E982.46648
G0 F12000 X58.065 Y-19.375
G1 F900 X-58.064 Y-19.374 E991.51913
G0 F12000 X-58.064 Y-19.999
G1 F900 X58.065 Y-20 E1000.57179
G0 F12000 X58.065 Y-20.625
G1 F900 X-58.064 Y-20.624 E1009.62444
G0 F12000 X-58.064 Y-21.249
G1 F900 X58.065 Y-21.25 E1018.6771
G0 F12000 X58.065 Y-21.875
G1 F900 X-58.064 Y-21.874 E1027.72975
G0 F12000 X-58.064 Y-22.499
G1 F900 X58.065 Y-22.5 E1036.78241
G0 F12000 X58.065 Y-23.125
G1 F900 X-58.064 Y-23.124 E1045.83506
G0 F12000 X-58.064 Y-23.749
G1 F900 X58.065 Y-23.75 E1054.88772
G0 F12000 X58.065 Y-24.375
G1 F900 X-58.064 Y-24.374 E1063.94037
G0 F12000 X-58.064 Y-24.999
G1 F900 X58.065 Y-25 E1072.99303
G0 F12000 X58.065 Y-25.625
G1 F900 X-58.064 Y-25.624 E1082.04569
G0 F12000 X-58.064 Y-26.249
G1 F900 X58.065 Y-26.25 E1091.09834
G0 F12000 X58.065 Y-26.875
G1 F900 X-58.064 Y-26.874 E1100.151
G0 F12000 X-58.064 Y-27.499
G1 F900 X58.065 Y-27.5 E1109.20365
G0 F12000 X58.065 Y-28.125
G1 F900 X-58.064 Y-28.124 E1118.25631
G0 F12000 X-58.064 Y-28.749
G1 F900 X58.065 Y-28.75 E1127.30896
G0 F12000 X58.065 Y-29.375
G1 F900 X-58.064 Y-29.374 E1136.36162
G0 F12000 X-58.064 Y-29.999
G1 F900 X58.065 Y-30 E1145.41427
G0 F12000 X58.065 Y-30.625
G1 F900 X-58.064 Y-30.624 E1154.46693
G0 F12000 X-58.064 Y-31.249
G1 F900 X58.065 Y-31.25 E1163.51958
G0 F12000 X58.065 Y-31.875
G1 F900 X-58.064 Y-31.874 E1172.57224
G0 F12000 X-58.064 Y-32.499
G1 F900 X58.065 Y-32.5 E1181.62489
G0 F12000 X58.065 Y-33.125
G1 F900 X-58.064 Y-33.125 E1190.67755
G0 F12000 X-58.064 Y-33.75
G1 F900 X58.065 Y-33.75 E1199.7302
G0 F12000 X58.065 Y-34.375
G1 F900 X-58.064 Y-34.375 E1208.78286
G0 F12000 X-58.064 Y-35
G1 F900 X58.065 Y-35 E1217.83551
G0 F12000 X58.065 Y-35.625
G1 F900 X-58.064 Y-35.625 E1226.88817
G0 F12000 X-58.064 Y-36.25
G1 F900 X58.065 Y-36.25 E1235.94082
G0 F12000 X58.065 Y-36.875
G1 F900 X-58.064 Y-36.875 E1244.99348
G0 F12000 X-58.064 Y-37.5
G1 F900 X58.065 Y-37.5 E1254.04613
; Layer Change GCode
; LAYER:1
G0 F12000 X-59.331 Y39.296 Z0.5
G0 X-59.666 Y39.515
G0 X-59.489 Y39.4
G0 X-59.489 Y39.4
G0 X-59.749 Y39.75
G0 X-59.749 Y39.75
G0 X-58.749 Y38.75
; TYPE:WALL-INNER
G1 F2400 X-58.749 Y38.75 E1254.04613
G1 X-58.749 Y-38.749 E1257.26817
G1 X58.75 Y-38.749 E1262.15321
G1 X58.75 Y38.75 E1265.37524
G1 X-58.749 Y38.75 E1270.26028
G0 F12000 X-59.249 Y39.25
G1 F2400 X-59.249 Y39.25 E1270.26028
G1 X-59.249 Y-39.249 E1273.52389
G1 X59.25 Y-39.249 E1278.45051
G1 X59.25 Y39.25 E1281.71412
G1 X-59.249 Y39.25 E1286.64073
G0 F12000 X-59.749 Y39.75
; TYPE:WALL-OUTER
G1 F1800 X-59.749 Y39.75 E1286.64073
G1 X-59.749 Y-39.749 E1289.94592
G1 X59.75 Y-39.749 E1294.91411
G1 X59.75 Y39.75 E1298.21929
G1 X-59.749 Y39.75 E1303.18748
G0 F12000 X-59.489 Y39.4
G0 X-57.999 Y38.499
G0 X-57.999 Y38.499
; TYPE:FILL
G1 F2400 X-58 Y-38.498 E1306.38865
G0 F12000 X-57.5 Y-38.498
G1 F2400 X-57.499 Y38.499 E1309.58981
G0 F12000 X-56.999 Y38.499
G1 F2400 X-57 Y-38.498 E1312.79097
G0 F12000 X-56.5 Y-38.498
G1 F2400 X-56.499 Y38.499 E1315.99214
G0 F12000 X-55.999 Y38.499
G1 F2400 X-56 Y-38.498 E1319.1933
G0 F12000 X-55.5 Y-38.498
G1 F2400 X-55.499 Y38.499 E1322.39446
G0 F12000 X-54.999 Y38.499
G1 F2400 X-55 Y-38.498 E1325.59563
G0 F12000 X-54.5 Y-38.498
G1 F2400 X-54.499 Y38.499 E1328.79679
G0 F12000 X-53.999 Y38.499
G1 F2400 X-54 Y-38.498 E1331.99795
G0 F12000 X-53.5 Y-38.498
G1 F2400 X-53.499 Y38.499 E1335.19912
G0 F12000 X-52.999 Y38.499
G1 F2400 X-53 Y-38.498 E1338.40028
G0 F12000 X-52.5 Y-38.498
G1 F2400 X-52.499 Y38.499 E1341.60144
G0 F12000 X-51.999 Y38.499
G1 F2400 X-52 Y-38.498 E1344.80261
G0 F12000 X-51.5 Y-38.498
G1 F2400 X-51.499 Y38.499 E1348.00377
G0 F12000 X-50.999 Y38.499
G1 F2400 X-51 Y-38.498 E1351.20493
G0 F12000 X-50.5 Y-38.498
G1 F2400 X-50.499 Y38.499 E1354.4061
G0 F12000 X-49.999 Y38.499
G1 F2400 X-50 Y-38.498 E1357.60726
G0 F12000 X-49.5 Y-38.498
G1 F2400 X-49.499 Y38.499 E1360.80842
G0 F12000 X-48.999 Y38.499
G1 F2400 X-49 Y-38.498 E1364.00959
G0 F12000 X-48.5 Y-38.498
G1 F2400 X-48.499 Y38.499 E1367.21075
G0 F12000 X-47.999 Y38.499
G1 F2400 X-48 Y-38.498 E1370.41191
G0 F12000 X-47.5 Y-38.498
G1 F2400 X-47.499 Y38.499 E1373.61308
G0 F12000 X-46.999 Y38.499
G1 F2400 X-47 Y-38.498 E1376.81424
G0 F12000 X-46.5 Y-38.498
G1 F2400 X-46.499 Y38.499 E1380.0154
G0 F12000 X-45.999 Y38.499
G1 F2400 X-46 Y-38.498 E1383.21657
G0 F12000 X-45.5 Y-38.498
G1 F2400 X-45.499 Y38.499 E1386.41773
G0 F12000 X-44.999 Y38.499
G1 F2400 X-45 Y-38.498 E1389.61889
G0 F12000 X-44.5 Y-38.498
G1 F2400 X-44.499 Y38.499 E1392.82006
G0 F12000 X-43.999 Y38.499
G1 F2400 X-44 Y-38.498 E1396.02122
G0 F12000 X-43.5 Y-38.498
G1 F2400 X-43.499 Y38.499 E1399.22238
G0 F12000 X-42.999 Y38.499
G1 F2400 X-43 Y-38.498 E1402.42355
G0 F12000 X-42.5 Y-38.498
G1 F2400 X-42.499 Y38.499 E1405.62471
G0 F12000 X-41.999 Y38.499
G1 F2400 X-42 Y-38.498 E1408.82587
G0 F12000 X-41.5 Y-38.498
G1 F2400 X-41.499 Y38.499 E1412.02704
G0 F12000 X-40.999 Y38.499
G1 F2400 X-41 Y-38.498 E1415.2282
G0 F12000 X-40.5 Y-38.498
G1 F2400 X-40.499 Y38.499 E1418.42936
G0 F12000 X-39.999 Y38.499
G1 F2400 X-40 Y-38.498 E1421.63053
G0 F12000 X-39.5 Y-38.498
G1 F2400 X-39.499 Y38.499 E1424.83169
G0 F12000 X-38.999 Y38.499
G1 F2400 X-39 Y-38.498 E1428.03285
G0 F12000 X-38.5 Y-38.498
G1 F2400 X-38.499 Y38.499 E1431.23402
G0 F12000 X-37.999 Y38.499
G1 F2400 X-38 Y-38.498 E1434.43518
G0 F12000 X-37.5 Y-38.498
G1 F2400 X-37.499 Y38.499 E1437.63634
G0 F12000 X-36.999 Y38.499
G1 F2400 X-37 Y-38.498 E1440.83751
G0 F12000 X-36.5 Y-38.498
G1 F2400 X-36.499 Y38.499 E1444.03867
G0 F12000 X-35.999 Y38.499
G1 F2400 X-36 Y-38.498 E1447.23983
G0 F12000 X-35.5 Y-38.498
G1 F2400 X-35.499 Y38.499 E1450.441
G0 F12000 X-34.999 Y38.499
G1 F2400 X-35 Y-38.498 E1453.64216
G0 F12000 X-34.5 Y-38.498
G1 F2400 X-34.499 Y38.499 E1456.84332
G0 F12000 X-33.999 Y38.499
G1 F2400 X-34 Y-38.498 E1460.04449
G0 F12000 X-33.5 Y-38.498
G1 F2400 X-33.499 Y38.499 E1463.24565
G0 F12000 X-32.999 Y38.499
G1 F2400 X-33 Y-38.498 E1466.44681
G0 F12000 X-32.5 Y-38.498
G1 F2400 X-32.499 Y38.499 E1469.64798
G0 F12000 X-31.999 Y38.499
G1 F2400 X-32 Y-38.498 E1472.84914
G0 F12000 X-31.5 Y-38.498
G1 F2400 X-31.499 Y38.499 E1476.0503
G0 F12000 X-30.999 Y38.499
G1 F2400 X-31 Y-38.498 E1479.25146
G0 F12000 X-30.5 Y-38.498
G1 F2400 X-30.499 Y38.499 E1482.45263
G0 F12000 X-29.999 Y38.499
G1 F2400 X-30 Y-38.498 E1485.65379
G0 F12000 X-29.5 Y-38.499
G1 F2400 X-29.499 Y38.499 E1488.855
G0 F12000 X-28.999 Y38.499
G1 F2400 X-29 Y-38.499 E1492.0562
G0 F12000 X-28.5 Y-38.499
G1 F2400 X-28.499 Y38.499 E1495.25741
G0 F12000 X-27.999 Y38.499
G1 F2400 X-28 Y-38.499 E1498.45861
G0 F12000 X-27.5 Y-38.499
G1 F2400 X-27.499 Y38.499 E1501.65982
G0 F12000 X-26.999 Y38.499
G1 F2400 X-27 Y-38.499 E1504.86102
G0 F12000 X-26.5 Y-38.499
G1 F2400 X-26.499 Y38.499 E1508.06223
G0 F12000 X-25.999 Y38.499
G1 F2400 X-26 Y-38.499 E1511.26343
G0 F12000 X-25.5 Y-38.499
G1 F2400 X-25.499 Y38.499 E1514.46464
G0 F12000 X-24.999 Y38.499
G1 F2400 X-25 Y-38.499 E1517.66584
G0 F12000 X-24.5 Y-38.499
G1 F2400 X-24.499 Y38.499 E1520.86704
G0 F12000 X-23.999 Y38.499
G1 F2400 X-24 Y-38.499 E1524.06825
G0 F12000 X-23.5 Y-38.499
G1 F2400 X-23.499 Y38.499 E1527.26945
G0 F12000 X-22.999 Y38.499
G1 F2400 X-23 Y-38.499 E1530.47066
G0 F12000 X-22.5 Y-38.499
G1 F2400 X-22.499 Y38.499 E1533.67186
G0 F12000 X-21.999 Y38.499
G1 F2400 X-22 Y-38.499 E1536.87307
G0 F12000 X-21.5 Y-38.499
G1 F2400 X-21.499 Y38.499 E1540.07427
G0 F12000 X-20.999 Y38.499
G1 F2400 X-21 Y-38.499 E1543.27548
G0 F12000 X-20.5 Y-38.499
G1 F2400 X-20.499 Y38.499 E1546.47668
G0 F12000 X-19.999 Y38.499
G1 F2400 X-20 Y-38.499 E1549.67789
G0 F12000 X-19.5 Y-38.499
G1 F2400 X-19.499 Y38.499 E1552.87909
G0 F12000 X-18.999 Y38.499
G1 F2400 X-19 Y-38.499 E1556.0803
G0 F12000 X-18.5 Y-38.499
G1 F2400 X-18.499 Y38.499 E1559.2815
G0 F12000 X-17.999 Y38.499
G1 F2400 X-18 Y-38.499 E1562.48271
G0 F12000 X-17.5 Y-38.499
G1 F2400 X-17.499 Y38.499 E1565.68391
G0 F12000 X-16.999 Y38.499
G1 F2400 X-17 Y-38.499 E1568.88512
G0 F12000 X-16.5 Y-38.499
G1 F2400 X-16.499 Y38.499 E1572.08632
G0 F12000 X-15.999 Y38.499
G1 F2400 X-16 Y-38.499 E1575.28753
G0 F12000 X-15.5 Y-38.499
G1 F2400 X-15.499 Y38.499 E1578.48873
G0 F12000 X-14.999 Y38.499
G1 F2400 X-15 Y-38.499 E1581.68994
G0 F12000 X-14.5 Y-38.499
G1 F2400 X-14.499 Y38.499 E1584.89114
G0 F12000 X-13.999 Y38.499
G1 F2400 X-14 Y-38.499 E1588.09235
G0 F12000 X-13.5 Y-38.499
G1 F2400 X-13.499 Y38.499 E1591.29355
G0 F12000 X-12.999 Y38.499
G1 F2400 X-13 Y-38.499 E1594.49476
G0 F12000 X-12.5 Y-38.499
G1 F2400 X-12.499 Y38.499 E1597.69596
G0 F12000 X-11.999 Y38.499
G1 F2400 X-12 Y-38.499 E1600.89717
G0 F12000 X-11.5 Y-38.499
G1 F2400 X-11.499 Y38.499 E1604.09837
G0 F12000 X-10.999 Y38.499
G1 F2400 X-11 Y-38.499 E1607.29958
G0 F12000 X-10.5 Y-38.499
G1 F2400 X-10.499 Y38.499 E1610.50078
G0 F12000 X-9.999 Y38.499
G1 F2400 X-10 Y-38.499 E1613.70199
G0 F12000 X-9.5 Y-38.499
G1 F2400 X-9.499 Y38.499 E1616.90319
G0 F12000 X-8.999 Y38.499
G1 F2400 X-9 Y-38.499 E1620.1044
G0 F12000 X-8.5 Y-38.499
G1 F2400 X-8.499 Y38.499 E1623.3056
G0 F12000 X-7.999 Y38.499
G1 F2400 X-8 Y-38.499 E1626.5068
G0 F12000 X-7.5 Y-38.499
G1 F2400 X-7.499 Y38.499 E1629.70801
G0 F12000 X-6.999 Y38.499
G1 F2400 X-7 Y-38.499 E1632.90921
G0 F12000 X-6.5 Y-38.499
G1 F2400 X-6.499 Y38.499 E1636.11042
G0 F12000 X-5.999 Y38.499
G1 F2400 X-6 Y-38.499 E1639.31162
G0 F12000 X-5.5 Y-38.499
G1 F2400 X-5.499 Y38.499 E1642.51283
G0 F12000 X-4.999 Y38.499
G1 F2400 X-5 Y-38.499 E1645.71403
G0 F12000 X-4.5 Y-38.499
G1 F2400 X-4.499 Y38.499 E1648.91524
G0 F12000 X-3.999 Y38.499
G1 F2400 X-4 Y-38.499 E1652.11644
G0 F12000 X-3.5 Y-38.499
G1 F2400 X-3.499 Y38.499 E1655.31765
G0 F12000 X-2.999 Y38.499
G1 F2400 X-3 Y-38.499 E1658.51885
G0 F12000 X-2.5 Y-38.499
G1 F2400 X-2.499 Y38.499 E1661.72006
G0 F12000 X-1.999 Y38.499
G1 F2400 X-2 Y-38.499 E1664.92126
G0 F12000 X-1.5 Y-38.499
G1 F2400 X-1.499 Y38.499 E1668.12247
G0 F12000 X-0.999 Y38.499
G1 F2400 X-1 Y-38.499 E1671.32367
G0 F12000 X-0.5 Y-38.499
G1 F2400 X-0.499 Y38.499 E1674.52488
G0 F12000 X0 Y38.5
G1 F2400 X0 Y-38.499 E1677.72612
G0 F12000 X0.499 Y-38.498
G1 F2400 X0.5 Y38.5 E1680.92733
G0 F12000 X1 Y38.5
G1 F2400 X0.999 Y-38.498 E1684.12853
G0 F12000 X1.499 Y-38.498
G1 F2400 X1.5 Y38.5 E1687.32974
G0 F12000 X2 Y38.5
G1 F2400 X1.999 Y-38.498 E1690.53094
G0 F12000 X2.499 Y-38.498
G1 F2400 X2.5 Y38.5 E1693.73215
G0 F12000 X3 Y38.5
G1 F2400 X2.999 Y-38.498 E1696.93335
G0 F12000 X3.499 Y-38.498
G1 F2400 X3.5 Y38.5 E1700.13456
G0 F12000 X4 Y38.5
G1 F2400 X3.999 Y-38.498 E1703.33576
G0 F12000 X4.499 Y-38.498
G1 F2400 X4.5 Y38.5 E1706.53697
G0 F12000 X5 Y38.5
G1 F2400 X4.999 Y-38.498 E1709.73817
G0 F12000 X5.499 Y-38.498
G1 F2400 X5.5 Y38.5 E1712.93938
G0 F12000 X6 Y38.5
G1 F2400 X5.999 Y-38.498 E1716.14058
G0 F12000 X6.499 Y-38.498
G1 F2400 X6.5 Y38.5 E1719.34179
G0 F12000 X7 Y38.5
G1 F2400 X6.999 Y-38.498 E1722.54299
G0 F12000 X7.499 Y-38.498
G1 F2400 X7.5 Y38.5 E1725.7442
G0 F12000 X8 Y38.5
G1 F2400 X7.999 Y-38.498 E1728.9454
G0 F12000 X8.499 Y-38.498
G1 F2400 X8.5 Y38.5 E1732.14661
G0 F12000 X9 Y38.5
G1 F2400 X8.999 Y-38.498 E1735.34781
G0 F12000 X9.499 Y-38.498
G1 F2400 X9.5 Y38.5 E1738.54902
G0 F12000 X10 Y38.5
G1 F2400 X9.999 Y-38.498 E1741.75022
G0 F12000 X10.499 Y-38.498
G1 F2400 X10.5 Y38.5 E1744.95143
G0 F12000 X11 Y38.5
G1 F2400 X10.999 Y-38.498 E1748.15263
G0 F12000 X11.499 Y-38.498
G1 F2400 X11.5 Y38.5 E1751.35384
G0 F12000 X12 Y38.5
G1 F2400 X11.999 Y-38.498 E1754.55504
G0 F12000 X12.499 Y-38.498
G1 F2400 X12.5 Y38.5 E1757.75625
G0 F12000 X13 Y38.5
G1 F2400 X12.999 Y-38.498 E1760.95745
G0 F12000 X13.499 Y-38.498
G1 F2400 X13.5 Y38.5 E1764.15865
G0 F12000 X14 Y38.5
G1 F2400 X13.999 Y-38.498 E1767.35986
G0 F12000 X14.499 Y-38.498
G1 F2400 X14.5 Y38.5 E1770.56106
G0 F12000 X15 Y38.5
G1 F2400 X14.999 Y-38.498 E1773.76227
G0 F12000 X15.499 Y-38.498
G1 F2400 X15.5 Y38.5 E1776.96347
G0 F12000 X16 Y38.5
G1 F2400 X15.999 Y-38.498 E1780.16468
G0 F12000 X16.499 Y-38.498
G1 F2400 X16.5 Y38.5 E1783.36588
G0 F12000 X17 Y38.5
G1 F2400 X16.999 Y-38.498 E1786.56709
G0 F12000 X17.499 Y-38.498
G1 F2400 X17.5 Y38.5 E1789.76829
G0 F12000 X18 Y38.5
G1 F2400 X17.999 Y-38.498 E1792.9695
G0 F12000 X18.499 Y-38.498
G1 F2400 X18.5 Y38.5 E1796.1707
G0 F12000 X19 Y38.5
G1 F2400 X18.999 Y-38.498 E1799.37191
G0 F12000 X19.499 Y-38.498
G1 F2400 X19.5 Y38.5 E1802.57311
G0 F12000 X20 Y38.5
G1 F2400 X19.999 Y-38.498 E1805.77432
G0 F12000 X20.499 Y-38.498
G1 F2400 X20.5 Y38.5 E1808.97552
G0 F12000 X21 Y38.5
G1 F2400 X20.999 Y-38.498 E1812.17673
G0 F12000 X21.499 Y-38.498
G1 F2400 X21.5 Y38.5 E1815.37793
G0 F12000 X22 Y38.5
G1 F2400 X21.999 Y-38.498 E1818.57914
G0 F12000 X22.499 Y-38.498
G1 F2400 X22.5 Y38.5 E1821.78034
G0 F12000 X23 Y38.5
G1 F2400 X22.999 Y-38.498 E1824.98155
G0 F12000 X23.499 Y-38.498
G1 F2400 X23.5 Y38.5 E1828.18275
G0 F12000 X24 Y38.5
G1 F2400 X23.999 Y-38.498 E1831.38396
G0 F12000 X24.499 Y-38.498
G1 F2400 X24.5 Y38.5 E1834.58516
G0 F12000 X25 Y38.5
G1 F2400 X24.999 Y-38.498 E1837.78637
G0 F12000 X25.499 Y-38.498
G1 F2400 X25.5 Y38.5 E1840.98757
G0 F12000 X26 Y38.5
G1 F2400 X25.999 Y-38.498 E1844.18878
G0 F12000 X26.499 Y-38.498
G1 F2400 X26.5 Y38.5 E1847.38998
G0 F12000 X27 Y38.5
G1 F2400 X26.999 Y-38.498 E1850.59119
G0 F12000 X27.499 Y-38.498
G1 F2400 X27.5 Y38.5 E1853.79239
G0 F12000 X28 Y38.5
G1 F2400 X27.999 Y-38.498 E1856.9936
G0 F12000 X28.499 Y-38.498
G1 F2400 X28.5 Y38.5 E1860.1948
G0 F12000 X29 Y38.5
G1 F2400 X28.999 Y-38.498 E1863.39601
G0 F12000 X29.499 Y-38.498
G1 F2400 X29.5 Y38.5 E1866.59721
G0 F12000 X30 Y38.499
G1 F2400 X29.999 Y-38.498 E1869.79837
G0 F12000 X30.499 Y-38.498
G1 F2400 X30.5 Y38.499 E1872.99954
G0 F12000 X31 Y38.499
G1 F2400 X30.999 Y-38.498 E1876.2007
G0 F12000 X31.499 Y-38.498
G1 F2400 X31.5 Y38.499 E1879.40186
G0 F12000 X32 Y38.499
G1 F2400 X31.999 Y-38.498 E1882.60303
G0 F12000 X32.499 Y-38.498
G1 F2400 X32.5 Y38.499 E1885.80419
G0 F12000 X33 Y38.499
G1 F2400 X32.999 Y-38.498 E1889.00535
G0 F12000 X33.499 Y-38.498
G1 F2400 X33.5 Y38.499 E1892.20652
G0 F12000 X34 Y38.499
G1 F2400 X33.999 Y-38.498 E1895.40768
G0 F12000 X34.499 Y-38.498
G1 F2400 X34.5 Y38.499 E1898.60884
G0 F12000 X35 Y38.499
G1 F2400 X34.999 Y-38.498 E1901.81001
G0 F12000 X35.499 Y-38.498
G1 F2400 X35.5 Y38.499 E1905.01117
G0 F12000 X36 Y38.499
G1 F2400 X35.999 Y-38.498 E1908.21233
G0 F12000 X36.499 Y-38.498
G1 F2400 X36.5 Y38.499 E1911.4135
G0 F12000 X37 Y38.499
G1 F2400 X36.999 Y-38.498 E1914.61466
G0 F12000 X37.499 Y-38.498
G1 F2400 X37.5 Y38.499 E1917.81582
G0 F12000 X38 Y38.499
G1 F2400 X37.999 Y-38.498 E1921.01699
G0 F12000 X38.499 Y-38.498
G1 F2400 X38.5 Y38.499 E1924.21815
G0 F12000 X39 Y38.499
G1 F2400 X38.999 Y-38.498 E1927.41931
G0 F12000 X39.499 Y-38.498
G1 F2400 X39.5 Y38.499 E1930.62048
G0 F12000 X40 Y38.499
G1 F2400 X39.999 Y-38.498 E1933.82164
G0 F12000 X40.499 Y-38.498
G1 F2400 X40.5 Y38.499 E1937.0228
G0 F12000 X41 Y38.499
G1 F2400 X40.999 Y-38.498 E1940.22397
G0 F12000 X41.499 Y-38.498
G1 F2400 X41.5 Y38.499 E1943.42513
G0 F12000 X42 Y38.499
G1 F2400 X41.999 Y-38.498 E1946.62629
G0 F12000 X42.499 Y-38.498
G1 F2400 X42.5 Y38.499 E1949.82746
G0 F12000 X43 Y38.499
G1 F2400 X42.999 Y-38.498 E1953.02862
G0 F12000 X43.499 Y-38.498
G1 F2400 X43.5 Y38.499 E1956.22978
G0 F12000 X44 Y38.499
G1 F2400 X43.999 Y-38.498 E1959.43094
G0 F12000 X44.499 Y-38.498
G1 F2400 X44.5 Y38.499 E1962.63211
G0 F12000 X45 Y38.499
G1 F2400 X44.999 Y-38.498 E1965.83327
G0 F12000 X45.499 Y-38.498
G1 F2400 X45.5 Y38.499 E1969.03443
G0 F12000 X46 Y38.499
G1 F2400 X45.999 Y-38.498 E1972.2356
G0 F12000 X46.499 Y-38.498
G1 F2400 X46.5 Y38.499 E1975.43676
G0 F12000 X47 Y38.499
G1 F2400 X46.999 Y-38.498 E1978.63792
G0 F12000 X47.499 Y-38.498
G1 F2400 X47.5 Y38.499 E1981.83909
G0 F12000 X48 Y38.499
G1 F2400 X47.999 Y-38.498 E1985.04025
G0 F12000 X48.499 Y-38.498
G1 F2400 X48.5 Y38.499 E1988.24141
G0 F12000 X49 Y38.499
G1 F2400 X48.999 Y-38.498 E1991.44258
G0 F12000 X49.499 Y-38.498
G1 F2400 X49.5 Y38.499 E1994.64374
G0 F12000 X50 Y38.499
G1 F2400 X49.999 Y-38.498 E1997.8449
G0 F12000 X50.499 Y-38.498
G1 F2400 X50.5 Y38.499 E2001.04607
G0 F12000 X51 Y38.499
G1 F2400 X50.999 Y-38.498 E2004.24723
G0 F12000 X51.499 Y-38.498
G1 F2400 X51.5 Y38.499 E2007.44839
G0 F12000 X52 Y38.499
G1 F2400 X51.999 Y-38.498 E2010.64956
G0 F12000 X52.499 Y-38.498
G1 F2400 X52.5 Y38.499 E2013.85072
G0 F12000 X53 Y38.499
G1 F2400 X52.999 Y-38.498 E2017.05188
G0 F12000 X53.499 Y-38.498
G1 F2400 X53.5 Y38.499 E2020.25305
G0 F12000 X54 Y38.499
G1 F2400 X53.999 Y-38.498 E2023.45421
G0 F12000 X54.499 Y-38.498
G1 F2400 X54.5 Y38.499 E2026.65537
G0 F12000 X55 Y38.499
G1 F2400 X54.999 Y-38.498 E2029.85654
G0 F12000 X55.499 Y-38.498
G1 F2400 X55.5 Y38.499 E2033.0577
G0 F12000 X56 Y38.499
G1 F2400 X55.999 Y-38.498 E2036.25886
G0 F12000 X56.499 Y-38.498
G1 F2400 X56.5 Y38.499 E2039.46003
G0 F12000 X57 Y38.499
G1 F2400 X56.999 Y-38.498 E2042.66119
G0 F12000 X57.499 Y-38.498
G1 F2400 X57.5 Y38.499 E2045.86235
G0 F12000 X58 Y38.499
G1 F2400 X57.999 Y-38.498 E2049.06352
; Layer Change GCode
; LAYER:2
G0 F12000 X-59.331 Y39.296 Z0.7
G0 X-59.664 Y39.517
G0 X-59.489 Y39.4
G0 X-59.489 Y39.4
G0 X-59.749 Y39.75
G0 X-59.749 Y39.75
G0 X-58.749 Y38.75
; TYPE:WALL-INNER
G1 F2400 X-58.749 Y38.75 E2049.06352
G1 X-58.749 Y-38.749 E2052.28555
G1 X58.75 Y-38.749 E2057.17059
G1 X58.75 Y38.75 E2060.39263
G1 X-58.749 Y38.75 E2065.27767
G0 F12000 X-59.249 Y39.25
G1 F2400 X-59.249 Y39.25 E2065.27767
G1 X-59.249 Y-39.249 E2068.54128
G1 X59.25 Y-39.249 E2073.46789
G1 X59.25 Y39.25 E2076.7315
G1 X-59.249 Y39.25 E2081.65812
G0 F12000 X-59.749 Y39.75
; TYPE:WALL-OUTER
G1 F1800 X-59.749 Y39.75 E2081.65812
G1 X-59.749 Y-39.749 E2084.9633
G1 X59.75 Y-39.749 E2089.93149
G1 X59.75 Y39.75 E2093.23668
G1 X-59.749 Y39.75 E2098.20487
G0 F12000 X-59.489 Y39.4
G0 X-58.499 Y38
G0 X-58.499 Y38
; TYPE:FILL
G1 F2400 X58.5 Y38 E2103.06912
G0 F12000 X58.5 Y37.5
G1 F2400 X-58.499 Y37.5 E2107.93337
G0 F12000 X-58.499 Y37
G1 F2400 X58.5 Y37 E2112.79763
G0 F12000 X58.5 Y36.5
G1 F2400 X-58.499 Y36.5 E2117.66188
G0 F12000 X-58.499 Y36
G1 F2400 X58.5 Y36 E2122.52613
G0 F12000 X58.5 Y35.5
G1 F2400 X-58.499 Y35.5 E2127.39039
G0 F12000 X-58.499 Y35
G1 F2400 X58.5 Y35 E2132.25464
G0 F12000 X58.5 Y34.5
G1 F2400 X-58.499 Y34.5 E2137.11889
G0 F12000 X-58.499 Y34
G1 F2400 X58.5 Y34 E2141.98315
G0 F12000 X58.5 Y33.5
G1 F2400 X-58.499 Y33.5 E2146.8474
G0 F12000 X-58.499 Y33
G1 F2400 X58.5 Y33 E2151.71165
G0 F12000 X58.5 Y32.499
G1 F2400 X-58.499 Y32.5 E2156.57591
G0 F12000 X-58.499 Y32
G1 F2400 X58.5 Y31.999 E2161.44016
G0 F12000 X58.5 Y31.499
G1 F2400 X-58.499 Y31.5 E2166.30441
G0 F12000 X-58.499 Y31
G1 F2400 X58.5 Y30.999 E2171.16866
G0 F12000 X58.5 Y30.499
G1 F2400 X-58.499 Y30.5 E2176.03292
G0 F12000 X-58.499 Y30
G1 F2400 X58.5 Y29.999 E2180.89717
G0 F12000 X58.5 Y29.499
G1 F2400 X-58.499 Y29.5 E2185.76142
G0 F12000 X-58.499 Y29
G1 F2400 X58.5 Y28.999 E2190.62568
G0 F12000 X58.5 Y28.499
G1 F2400 X-58.499 Y28.5 E2195.48993
G0 F12000 X-58.499 Y28
G1 F2400 X58.5 Y27.999 E2200.35418
G0 F12000 X58.5 Y27.499
G1 F2400 X-58.499 Y27.5 E2205.21844
G0 F12000 X-58.499 Y27
G1 F2400 X58.5 Y26.999 E2210.08269
G0 F12000 X58.5 Y26.499
G1 F2400 X-58.499 Y26.5 E2214.94694
G0 F12000 X-58.499 Y26
G1 F2400 X58.5 Y25.999 E2219.8112
G0 F12000 X58.5 Y25.499
G1 F2400 X-58.499 Y25.5 E2224.67545
G0 F12000 X-58.499 Y25
G1 F2400 X58.5 Y24.999 E2229.5397
G0 F12000 X58.5 Y24.499
G1 F2400 X-58.499 Y24.5 E2234.40396
G0 F12000 X-58.499 Y24
G1 F2400 X58.5 Y23.999 E2239.26821
G0 F12000 X58.5 Y23.499
G1 F2400 X-58.499 Y23.5 E2244.13246
G0 F12000 X-58.499 Y23
G1 F2400 X58.5 Y22.999 E2248.99672
G0 F12000 X58.5 Y22.499
G1 F2400 X-58.499 Y22.5 E2253.86097
G0 F12000 X-58.499 Y22
G1 F2400 X58.5 Y21.999 E2258.72522
G0 F12000 X58.5 Y21.499
G1 F2400 X-58.499 Y21.5 E2263.58948
G0 F12000 X-58.499 Y21
G1 F2400 X58.5 Y20.999 E2268.45373
G0 F12000 X58.5 Y20.499
G1 F2400 X-58.499 Y20.5 E2273.31798
G0 F12000 X-58.499 Y20
G1 F2400 X58.5 Y19.999 E2278.18223
G0 F12000 X58.5 Y19.499
G1 F2400 X-58.499 Y19.5 E2283.04649
G0 F12000 X-58.499 Y19
G1 F2400 X58.5 Y18.999 E2287.91074
G0 F12000 X58.5 Y18.499
G1 F2400 X-58.499 Y18.5 E2292.77499
G0 F12000 X-58.499 Y18
G1 F2400 X58.5 Y17.999 E2297.63925
G0 F12000 X58.5 Y17.499
G1 F2400 X-58.499 Y17.5 E2302.5035
G0 F12000 X-58.499 Y17
G1 F2400 X58.5 Y16.999 E2307.36775
G0 F12000 X58.5 Y16.499
G1 F2400 X-58.499 Y16.5 E2312.23201
G0 F12000 X-58.499 Y16
G1 F2400 X58.5 Y15.999 E2317.09626
G0 F12000 X58.5 Y15.499
G1 F2400 X-58.499 Y15.5 E2321.96051
G0 F12000 X-58.499 Y15
G1 F2400 X58.5 Y14.999 E2326.82477
G0 F12000 X58.5 Y14.499
G1 F2400 X-58.499 Y14.5 E2331.68902
G0 F12000 X-58.499 Y14
G1 F2400 X58.5 Y13.999 E2336.55327
G0 F12000 X58.5 Y13.499
G1 F2400 X-58.499 Y13.5 E2341.41753
G0 F12000 X-58.499 Y13
G1 F2400 X58.5 Y12.999 E2346.28178
G0 F12000 X58.5 Y12.499
G1 F2400 X-58.499 Y12.5 E2351.14603
G0 F12000 X-58.499 Y12
G1 F2400 X58.5 Y11.999 E2356.01029
G0 F12000 X58.5 Y11.499
G1 F2400 X-58.499 Y11.5 E2360.87454
G0 F12000 X-58.499 Y11
G1 F2400 X58.5 Y10.999 E2365.73879
G0 F12000 X58.5 Y10.499
G1 F2400 X-58.499 Y10.5 E2370.60304
G0 F12000 X-58.499 Y10
G1 F2400 X58.5 Y9.999 E2375.4673
G0 F12000 X58.5 Y9.499
G1 F2400 X-58.499 Y9.5 E2380.33155
G0 F12000 X-58.499 Y9
G1 F2400 X58.5 Y8.999 E2385.1958
G0 F12000 X58.5 Y8.499
G1 F2400 X-58.499 Y8.5 E2390.06006
G0 F12000 X-58.499 Y8
G1 F2400 X58.5 Y7.999 E2394.92431
G0 F12000 X58.5 Y7.499
G1 F2400 X-58.499 Y7.5 E2399.78856
G0 F12000 X-58.499 Y7
G1 F2400 X58.5 Y6.999 E2404.65282
G0 F12000 X58.5 Y6.499
G1 F2400 X-58.499 Y6.5 E2409.51707
G0 F12000 X-58.499 Y6
G1 F2400 X58.5 Y5.999 E2414.38132
G0 F12000 X58.5 Y5.499
G1 F2400 X-58.499 Y5.5 E2419.24558
G0 F12000 X-58.499 Y5
G1 F2400 X58.5 Y4.999 E2424.10983
G0 F12000 X58.5 Y4.499
G1 F2400 X-58.499 Y4.5 E2428.97408
G0 F12000 X-58.499 Y4
G1 F2400 X58.5 Y3.999 E2433.83834
G0 F12000 X58.5 Y3.499
G1 F2400 X-58.499 Y3.5 E2438.70259
G0 F12000 X-58.499 Y3
G1 F2400 X58.5 Y2.999 E2443.56684
G0 F12000 X58.5 Y2.499
G1 F2400 X-58.499 Y2.5 E2448.4311
G0 F12000 X-58.499 Y2
G1 F2400 X58.5 Y1.999 E2453.29535
G0 F12000 X58.5 Y1.499
G1 F2400 X-58.499 Y1.5 E2458.1596
G0 F12000 X-58.499 Y1
G1 F2400 X58.5 Y0.999 E2463.02386
G0 F12000 X58.5 Y0.499
G1 F2400 X-58.499 Y0.5 E2467.88811
G0 F12000 X-58.499 Y0
G1 F2400 X58.5 Y0 E2472.75236
G0 F12000 X58.5 Y-0.5
G1 F2400 X-58.499 Y-0.499 E2477.61661
G0 F12000 X-58.499 Y-0.999
G1 F2400 X58.5 Y-1 E2482.48087
G0 F12000 X58.5 Y-1.5
G1 F2400 X-58.499 Y-1.499 E2487.34512
G0 F12000 X-58.499 Y-1.999
G1 F2400 X58.5 Y-2 E2492.20937
G0 F12000 X58.5 Y-2.5
G1 F2400 X-58.499 Y-2.499 E2497.07363
G0 F12000 X-58.499 Y-2.999
G1 F2400 X58.5 Y-3 E2501.93788
G0 F12000 X58.5 Y-3.5
G1 F2400 X-58.499 Y-3.499 E2506.80213
G0 F12000 X-58.499 Y-3.999
G1 F2400 X58.5 Y-4 E2511.66639
G0 F12000 X58.5 Y-4.5
G1 F2400 X-58.499 Y-4.499 E2516.53064
G0 F12000 X-58.499 Y-4.999
G1 F2400 X58.5 Y-5 E2521.39489
G0 F12000 X58.5 Y-5.5
G1 F2400 X-58.499 Y-5.499 E2526.25915
G0 F12000 X-58.499 Y-5.999
G1 F2400 X58.5 Y-6 E2531.1234
G0 F12000 X58.5 Y-6.5
G1 F2400 X-58.499 Y-6.499 E2535.98765
G0 F12000 X-58.499 Y-6.999
G1 F2400 X58.5 Y-7 E2540.85191
G0 F12000 X58.5 Y-7.5
G1 F2400 X-58.499 Y-7.499 E2545.71616
G0 F12000 X-58.499 Y-7.999
G1 F2400 X58.5 Y-8 E2550.58041
G0 F12000 X58.5 Y-8.5
G1 F2400 X-58.499 Y-8.499 E2555.44467
G0 F12000 X-58.499 Y-8.999
G1 F2400 X58.5 Y-9 E2560.30892
G0 F12000 X58.5 Y-9.5
G1 F2400 X-58.499 Y-9.499 E2565.17317
G0 F12000 X-58.499 Y-9.999
G1 F2400 X58.5 Y-10 E2570.03743
G0 F12000 X58.5 Y-10.5
G1 F2400 X-58.499 Y-10.499 E2574.90168
G0 F12000 X-58.499 Y-10.999
G1 F2400 X58.5 Y-11 E2579.76593
G0 F12000 X58.5 Y-11.5
G1 F2400 X-58.499 Y-11.499 E2584.63018
G0 F12000 X-58.499 Y-11.999
G1 F2400 X58.5 Y-12 E2589.49444
G0 F12000 X58.5 Y-12.5
G1 F2400 X-58.499 Y-12.499 E2594.35869
G0 F12000 X-58.499 Y-12.999
G1 F2400 X58.5 Y-13 E2599.22294
G0 F12000 X58.5 Y-13.5
G1 F2400 X-58.499 Y-13.499 E2604.0872
G0 F12000 X-58.499 Y-13.999
G1 F2400 X58.5 Y-14 E2608.95145
G0 F12000 X58.5 Y-14.5
G1 F2400 X-58.499 Y-14.499 E2613.8157
G0 F12000 X-58.499 Y-14.999
G1 F2400 X58.5 Y-15 E2618.67996
G0 F12000 X58.5 Y-15.5
G1 F2400 X-58.499 Y-15.499 E2623.54421
G0 F12000 X-58.499 Y-15.999
G1 F2400 X58.5 Y-16 E2628.40846
G0 F12000 X58.5 Y-16.5
G1 F2400 X-58.499 Y-16.499 E2633.27272
G0 F12000 X-58.499 Y-16.999
G1 F2400 X58.5 Y-17 E2638.13697
G0 F12000 X58.5 Y-17.5
G1 F2400 X-58.499 Y-17.499 E2643.00122
G0 F12000 X-58.499 Y-17.999
G1 F2400 X58.5 Y-18 E2647.86548
G0 F12000 X58.5 Y-18.5
G1 F2400 X-58.499 Y-18.499 E2652.72973
G0 F12000 X-58.499 Y-18.999
G1 F2400 X58.5 Y-19 E2657.59398
G0 F12000 X58.5 Y-19.5
G1 F2400 X-58.499 Y-19.499 E2662.45824
G0 F12000 X-58.499 Y-19.999
G1 F2400 X58.5 Y-20 E2667.32249
G0 F12000 X58.5 Y-20.5
G1 F2400 X-58.499 Y-20.499 E2672.18674
G0 F12000 X-58.499 Y-20.999
G1 F2400 X58.5 Y-21 E2677.05099
G0 F12000 X58.5 Y-21.5
G1 F2400 X-58.499 Y-21.499 E2681.91525
G0 F12000 X-58.499 Y-21.999
G1 F2400 X58.5 Y-22 E2686.7795
G0 F12000 X58.5 Y-22.5
G1 F2400 X-58.499 Y-22.499 E2691.64375
G0 F12000 X-58.499 Y-22.999
G1 F2400 X58.5 Y-23 E2696.50801
G0 F12000 X58.5 Y-23.5
G1 F2400 X-58.499 Y-23.499 E2701.37226
G0 F12000 X-58.499 Y-23.999
G1 F2400 X58.5 Y-24 E2706.23651
G0 F12000 X58.5 Y-24.5
G1 F2400 X-58.499 Y-24.499 E2711.10077
G0 F12000 X-58.499 Y-24.999
G1 F2400 X58.5 Y-25 E2715.96502
G0 F12000 X58.5 Y-25.5
G1 F2400 X-58.499 Y-25.499 E2720.82927
G0 F12000 X-58.499 Y-25.999
G1 F2400 X58.5 Y-26 E2725.69353
G0 F12000 X58.5 Y-26.5
G1 F2400 X-58.499 Y-26.499 E2730.55778
G0 F12000 X-58.499 Y-26.999
G1 F2400 X58.5 Y-27 E2735.42203
G0 F12000 X58.5 Y-27.5
G1 F2400 X-58.499 Y-27.499 E2740.28629
G0 F12000 X-58.499 Y-27.999
G1 F2400 X58.5 Y-28 E2745.15054
G0 F12000 X58.5 Y-28.5
G1 F2400 X-58.499 Y-28.499 E2750.01479
G0 F12000 X-58.499 Y-28.999
G1 F2400 X58.5 Y-29 E2754.87905
G0 F12000 X58.5 Y-29.5
G1 F2400 X-58.499 Y-29.499 E2759.7433
G0 F12000 X-58.499 Y-29.999
G1 F2400 X58.5 Y-30 E2764.60755
G0 F12000 X58.5 Y-30.5
G1 F2400 X-58.499 Y-30.499 E2769.47181
G0 F12000 X-58.499 Y-30.999
G1 F2400 X58.5 Y-31 E2774.33606
G0 F12000 X58.5 Y-31.5
G1 F2400 X-58.499 Y-31.499 E2779.20031
G0 F12000 X-58.499 Y-31.999
G1 F2400 X58.5 Y-32 E2784.06456
G0 F12000 X58.5 Y-32.5
G1 F2400 X-58.499 Y-32.499 E2788.92882
G0 F12000 X-58.499 Y-33
G1 F2400 X58.5 Y-33 E2793.79307
G0 F12000 X58.5 Y-33.5
G1 F2400 X-58.499 Y-33.5 E2798.65732
G0 F12000 X-58.499 Y-34
G1 F2400 X58.5 Y-34 E2803.52158
G0 F12000 X58.5 Y-34.5
G1 F2400 X-58.499 Y-34.5 E2808.38583
G0 F12000 X-58.499 Y-35
G1 F2400 X58.5 Y-35 E2813.25008
G0 F12000 X58.5 Y-35.5
G1 F2400 X-58.499 Y-35.5 E2818.11434
G0 F12000 X-58.499 Y-36
G1 F2400 X58.5 Y-36 E2822.97859
G0 F12000 X58.5 Y-36.5
G1 F2400 X-58.499 Y-36.5 E2827.84284
G0 F12000 X-58.499 Y-37
G1 F2400 X58.5 Y-37 E2832.7071
G0 F12000 X58.5 Y-37.5
G1 F2400 X-58.499 Y-37.5 E2837.57135
G0 F12000 X-58.499 Y-38
G1 F2400 X58.5 Y-38 E2842.4356
; Layer Change GCode
; LAYER:3
G4 P0
M106 S153
G0 F12000 X-59.331 Y39.296 Z0.9
G0 X-59.665 Y39.515
G0 X-59.489 Y39.4
G0 X-59.489 Y39.4
G0 X-59.749 Y39.75
G0 X-59.749 Y39.75
G0 X-58.749 Y38.75
; TYPE:WALL-INNER
G1 F2400 X-58.749 Y38.75 E2842.4356
G1 X-58.749 Y-38.749 E2845.65764
G1 X58.75 Y-38.749 E2850.54268
G1 X58.75 Y38.75 E2853.76471
G1 X-58.749 Y38.75 E2858.64975
G0 F12000 X-59.249 Y39.25
G1 F2400 X-59.249 Y39.25 E2858.64975
G1 X-59.249 Y-39.249 E2861.91336
G1 X59.25 Y-39.249 E2866.83998
G1 X59.25 Y39.25 E2870.10359
G1 X-59.249 Y39.25 E2875.0302
G0 F12000 X-59.749 Y39.75
; TYPE:WALL-OUTER
G1 F1800 X-59.749 Y39.75 E2875.0302
G1 X-59.749 Y-39.749 E2878.33539
G1 X59.75 Y-39.749 E2883.30358
G1 X59.75 Y39.75 E2886.60876
G1 X-59.749 Y39.75 E2891.57695
G0 F12000 X-59.489 Y39.4
G0 X-57.999 Y38.499
G0 X-57.999 Y38.499
; TYPE:FILL
G1 F2400 X-58 Y-38.498 E2894.77812
G0 F12000 X-57.5 Y-38.498
G1 F2400 X-57.499 Y38.499 E2897.97928
G0 F12000 X-56.999 Y38.499
G1 F2400 X-57 Y-38.498 E2901.18044
G0 F12000 X-56.5 Y-38.498
G1 F2400 X-56.499 Y38.499 E2904.38161
G0 F12000 X-55.999 Y38.499
G1 F2400 X-56 Y-38.498 E2907.58277
G0 F12000 X-55.5 Y-38.498
G1 F2400 X-55.499 Y38.499 E2910.78393
G0 F12000 X-54.999 Y38.499
G1 F2400 X-55 Y-38.498 E2913.9851
G0 F12000 X-54.5 Y-38.498
G1 F2400 X-54.499 Y38.499 E2917.18626
G0 F12000 X-53.999 Y38.499
G1 F2400 X-54 Y-38.498 E2920.38742
G0 F12000 X-53.5 Y-38.498
G1 F2400 X-53.499 Y38.499 E2923.58859
G0 F12000 X-52.999 Y38.499
G1 F2400 X-53 Y-38.498 E2926.78975
G0 F12000 X-52.5 Y-38.498
G1 F2400 X-52.499 Y38.499 E2929.99091
G0 F12000 X-51.999 Y38.499
G1 F2400 X-52 Y-38.498 E2933.19208
G0 F12000 X-51.5 Y-38.498
G1 F2400 X-51.499 Y38.499 E2936.39324
G0 F12000 X-50.999 Y38.499
G1 F2400 X-51 Y-38.498 E2939.5944
G0 F12000 X-50.5 Y-38.498
G1 F2400 X-50.499 Y38.499 E2942.79557
G0 F12000 X-49.999 Y38.499
G1 F2400 X-50 Y-38.498 E2945.99673
G0 F12000 X-49.5 Y-38.498
G1 F2400 X-49.499 Y38.499 E2949.19789
G0 F12000 X-48.999 Y38.499
G1 F2400 X-49 Y-38.498 E2952.39906
G0 F12000 X-48.5 Y-38.498
G1 F2400 X-48.499 Y38.499 E2955.60022
G0 F12000 X-47.999 Y38.499
G1 F2400 X-48 Y-38.498 E2958.80138
G0 F12000 X-47.5 Y-38.498
G1 F2400 X-47.499 Y38.499 E2962.00255
G0 F12000 X-46.999 Y38.499
G1 F2400 X-47 Y-38.498 E2965.20371
G0 F12000 X-46.5 Y-38.498
G1 F2400 X-46.499 Y38.499 E2968.40487
G0 F12000 X-45.999 Y38.499
G1 F2400 X-46 Y-38.498 E2971.60604
G0 F12000 X-45.5 Y-38.498
G1 F2400 X-45.499 Y38.499 E2974.8072
G0 F12000 X-44.999 Y38.499
G1 F2400 X-45 Y-38.498 E2978.00836
G0 F12000 X-44.5 Y-38.498
G1 F2400 X-44.499 Y38.499 E2981.20953
G0 F12000 X-43.999 Y38.499
G1 F2400 X-44 Y-38.498 E2984.41069
G0 F12000 X-43.5 Y-38.498
G1 F2400 X-43.499 Y38.499 E2987.61185
G0 F12000 X-42.999 Y38.499
G1 F2400 X-43 Y-38.498 E2990.81302
G0 F12000 X-42.5 Y-38.498
G1 F2400 X-42.499 Y38.499 E2994.01418
G0 F12000 X-41.999 Y38.499
G1 F2400 X-42 Y-38.498 E2997.21534
G0 F12000 X-41.5 Y-38.498
G1 F2400 X-41.499 Y38.499 E3000.4165
G0 F12000 X-40.999 Y38.499
G1 F2400 X-41 Y-38.498 E3003.61767
G0 F12000 X-40.5 Y-38.498
G1 F2400 X-40.499 Y38.499 E3006.81883
G0 F12000 X-39.999 Y38.499
G1 F2400 X-40 Y-38.498 E3010.01999
G0 F12000 X-39.5 Y-38.498
G1 F2400 X-39.499 Y38.499 E3013.22116
G0 F12000 X-38.999 Y38.499
G1 F2400 X-39 Y-38.498 E3016.42232
G0 F12000 X-38.5 Y-38.498
G1 F2400 X-38.499 Y38.499 E3019.62348
G0 F12000 X-37.999 Y38.499
G1 F2400 X-38 Y-38.498 E3022.82465
G0 F12000 X-37.5 Y-38.498
G1 F2400 X-37.499 Y38.499 E3026.02581
G0 F12000 X-36.999 Y38.499
G1 F2400 X-37 Y-38.498 E3029.22697
G0 F12000 X-36.5 Y-38.498
G1 F2400 X-36.499 Y38.499 E3032.42814
G0 F12000 X-35.999 Y38.499
G1 F2400 X-36 Y-38.498 E3035.6293
G0 F12000 X-35.5 Y-38.498
G1 F2400 X-35.499 Y38.499 E3038.83046
G0 F12000 X-34.999 Y38.499
G1 F2400 X-35 Y-38.498 E3042.03163
G0 F12000 X-34.5 Y-38.498
G1 F2400 X-34.499 Y38.499 E3045.23279
G0 F12000 X-33.999 Y38.499
G1 F2400 X-34 Y-38.498 E3048.43395
G0 F12000 X-33.5 Y-38.498
G1 F2400 X-33.499 Y38.499 E3051.63512
G0 F12000 X-32.999 Y38.499
G1 F2400 X-33 Y-38.498 E3054.83628
G0 F12000 X-32.5 Y-38.498
G1 F2400 X-32.499 Y38.499 E3058.03744
G0 F12000 X-31.999 Y38.499
G1 F2400 X-32 Y-38.498 E3061.23861
G0 F12000 X-31.5 Y-38.498
G1 F2400 X-31.499 Y38.499 E3064.43977
G0 F12000 X-30.999 Y38.499
G1 F2400 X-31 Y-38.498 E3067.64093
G0 F12000 X-30.5 Y-38.498
G1 F2400 X-30.499 Y38.499 E3070.8421
G0 F12000 X-29.999 Y38.499
G1 F2400 X-30 Y-38.498 E3074.04326
G0 F12000 X-29.5 Y-38.499
G1 F2400 X-29.499 Y38.499 E3077.24446
G0 F12000 X-28.999 Y38.499
G1 F2400 X-29 Y-38.499 E3080.44567
G0 F12000 X-28.5 Y-38.499
G1 F2400 X-28.499 Y38.499 E3083.64687
G0 F12000 X-27.999 Y38.499
G1 F2400 X-28 Y-38.499 E3086.84808
G0 F12000 X-27.5 Y-38.499
G1 F2400 X-27.499 Y38.499 E3090.04928
G0 F12000 X-26.999 Y38.499
G1 F2400 X-27 Y-38.499 E3093.25049
G0 F12000 X-26.5 Y-38.499
G1 F2400 X-26.499 Y38.499 E3096.45169
G0 F12000 X-25.999 Y38.499
G1 F2400 X-26 Y-38.499 E3099.6529
G0 F12000 X-25.5 Y-38.499
G1 F2400 X-25.499 Y38.499 E3102.8541
G0 F12000 X-24.999 Y38.499
G1 F2400 X-25 Y-38.499 E3106.05531
G0 F12000 X-24.5 Y-38.499
G1 F2400 X-24.499 Y38.499 E3109.25651
G0 F12000 X-23.999 Y38.499
G1 F2400 X-24 Y-38.499 E3112.45772
G0 F12000 X-23.5 Y-38.499
G1 F2400 X-23.499 Y38.499 E3115.65892
G0 F12000 X-22.999 Y38.499
G1 F2400 X-23 Y-38.499 E3118.86013
G0 F12000 X-22.5 Y-38.499
G1 F2400 X-22.499 Y38.499 E3122.06133
G0 F12000 X-21.999 Y38.499
G1 F2400 X-22 Y-38.499 E3125.26254
G0 F12000 X-21.5 Y-38.499
G1 F2400 X-21.499 Y38.499 E3128.46374
G0 F12000 X-20.999 Y38.499
G1 F2400 X-21 Y-38.499 E3131.66495
G0 F12000 X-20.5 Y-38.499
G1 F2400 X-20.499 Y38.499 E3134.86615
G0 F12000 X-19.999 Y38.499
G1 F2400 X-20 Y-38.499 E3138.06736
G0 F12000 X-19.5 Y-38.499
G1 F2400 X-19.499 Y38.499 E3141.26856
G0 F12000 X-18.999 Y38.499
G1 F2400 X-19 Y-38.499 E3144.46977
G0 F12000 X-18.5 Y-38.499
G1 F2400 X-18.499 Y38.499 E3147.67097
G0 F12000 X-17.999 Y38.499
G1 F2400 X-18 Y-38.499 E3150.87218
G0 F12000 X-17.5 Y-38.499
G1 F2400 X-17.499 Y38.499 E3154.07338
G0 F12000 X-16.999 Y38.499
G1 F2400 X-17 Y-38.499 E3157.27459
G0 F12000 X-16.5 Y-38.499
G1 F2400 X-16.499 Y38.499 E3160.47579
G0 F12000 X-15.999 Y38.499
G1 F2400 X-16 Y-38.499 E3163.677
G0 F12000 X-15.5 Y-38.499
G1 F2400 X-15.499 Y38.499 E3166.8782
G0 F12000 X-14.999 Y38.499
G1 F2400 X-15 Y-38.499 E3170.07941
G0 F12000 X-14.5 Y-38.499
G1 F2400 X-14.499 Y38.499 E3173.28061
G0 F12000 X-13.999 Y38.499
G1 F2400 X-14 Y-38.499 E3176.48182
G0 F12000 X-13.5 Y-38.499
G1 F2400 X-13.499 Y38.499 E3179.68302
G0 F12000 X-12.999 Y38.499
G1 F2400 X-13 Y-38.499 E3182.88422
G0 F12000 X-12.5 Y-38.499
G1 F2400 X-12.499 Y38.499 E3186.08543
G0 F12000 X-11.999 Y38.499
G1 F2400 X-12 Y-38.499 E3189.28663
G0 F12000 X-11.5 Y-38.499
G1 F2400 X-11.499 Y38.499 E3192.48784
G0 F12000 X-10.999 Y38.499
G1 F2400 X-11 Y-38.499 E3195.68904
G0 F12000 X-10.5 Y-38.499
G1 F2400 X-10.499 Y38.499 E3198.89025
G0 F12000 X-9.999 Y38.499
G1 F2400 X-10 Y-38.499 E3202.09145
G0 F12000 X-9.5 Y-38.499
G1 F2400 X-9.499 Y38.499 E3205.29266
G0 F12000 X-8.999 Y38.499
G1 F2400 X-9 Y-38.499 E3208.49386
G0 F12000 X-8.5 Y-38.499
G1 F2400 X-8.499 Y38.499 E3211.69507
G0 F12000 X-7.999 Y38.499
G1 F2400 X-8 Y-38.499 E3214.89627
G0 F12000 X-7.5 Y-38.499
G1 F2400 X-7.499 Y38.499 E3218.09748
G0 F12000 X-6.999 Y38.499
G1 F2400 X-7 Y-38.499 E3221.29868
G0 F12000 X-6.5 Y-38.499
G1 F2400 X-6.499 Y38.499 E3224.49989
G0 F12000 X-5.999 Y38.499
G1 F2400 X-6 Y-38.499 E3227.70109
G0 F12000 X-5.5 Y-38.499
G1 F2400 X-5.499 Y38.499 E3230.9023
G0 F12000 X-4.999 Y38.499
G1 F2400 X-5 Y-38.499 E3234.1035
G0 F12000 X-4.5 Y-38.499
G1 F2400 X-4.499 Y38.499 E3237.30471
G0 F12000 X-3.999 Y38.499
G1 F2400 X-4 Y-38.499 E3240.50591
G0 F12000 X-3.5 Y-38.499
G1 F2400 X-3.499 Y38.499 E3243.70712
G0 F12000 X-2.999 Y38.499
G1 F2400 X-3 Y-38.499 E3246.90832
G0 F12000 X-2.5 Y-38.499
G1 F2400 X-2.499 Y38.499 E3250.10953
G0 F12000 X-1.999 Y38.499
G1 F2400 X-2 Y-38.499 E3253.31073
G0 F12000 X-1.5 Y-38.499
G1 F2400 X-1.499 Y38.499 E3256.51194
G0 F12000 X-0.999 Y38.499
G1 F2400 X-1 Y-38.499 E3259.71314
G0 F12000 X-0.5 Y-38.499
G1 F2400 X-0.499 Y38.499 E3262.91435
G0 F12000 X0 Y38.5
G1 F2400 X0 Y-38.499 E3266.11559
G0 F12000 X0.499 Y-38.498
G1 F2400 X0.5 Y38.5 E3269.3168
G0 F12000 X1 Y38.5
G1 F2400 X0.999 Y-38.498 E3272.518
G0 F12000 X1.499 Y-38.498
G1 F2400 X1.5 Y38.5 E3275.71921
G0 F12000 X2 Y38.5
G1 F2400 X1.999 Y-38.498 E3278.92041
G0 F12000 X2.499 Y-38.498
G1 F2400 X2.5 Y38.5 E3282.12162
G0 F12000 X3 Y38.5
G1 F2400 X2.999 Y-38.498 E3285.32282
G0 F12000 X3.499 Y-38.498
G1 F2400 X3.5 Y38.5 E3288.52403
G0 F12000 X4 Y38.5
G1 F2400 X3.999 Y-38.498 E3291.72523
G0 F12000 X4.499 Y-38.498
G1 F2400 X4.5 Y38.5 E3294.92644
G0 F12000 X5 Y38.5
G1 F2400 X4.999 Y-38.498 E3298.12764
G0 F12000 X5.499 Y-38.498
G1 F2400 X5.5 Y38.5 E3301.32885
G0 F12000 X6 Y38.5
G1 F2400 X5.999 Y-38.498 E3304.53005
G0 F12000 X6.499 Y-38.498
G1 F2400 X6.5 Y38.5 E3307.73126
G0 F12000 X7 Y38.5
G1 F2400 X6.999 Y-38.498 E3310.93246
G0 F12000 X7.499 Y-38.498
G1 F2400 X7.5 Y38.5 E3314.13367
G0 F12000 X8 Y38.5
G1 F2400 X7.999 Y-38.498 E3317.33487
G0 F12000 X8.499 Y-38.498
G1 F2400 X8.5 Y38.5 E3320.53608
G0 F12000 X9 Y38.5
G1 F2400 X8.999 Y-38.498 E3323.73728
G0 F12000 X9.499 Y-38.498
G1 F2400 X9.5 Y38.5 E3326.93848
G0 F12000 X10 Y38.5
G1 F2400 X9.999 Y-38.498 E3330.13969
G0 F12000 X10.499 Y-38.498
G1 F2400 X10.5 Y38.5 E3333.34089
G0 F12000 X11 Y38.5
G1 F2400 X10.999 Y-38.498 E3336.5421
G0 F12000 X11.499 Y-38.498
G1 F2400 X11.5 Y38.5 E3339.7433
G0 F12000 X12 Y38.5
G1 F2400 X11.999 Y-38.498 E3342.94451
G0 F12000 X12.499 Y-38.498
G1 F2400 X12.5 Y38.5 E3346.14571
G0 F12000 X13 Y38.5
G1 F2400 X12.999 Y-38.498 E3349.34692
G0 F12000 X13.499 Y-38.498
G1 F2400 X13.5 Y38.5 E3352.54812
G0 F12000 X14 Y38.5
G1 F2400 X13.999 Y-38.498 E3355.74933
G0 F12000 X14.499 Y-38.498
G1 F2400 X14.5 Y38.5 E3358.95053
G0 F12000 X15 Y38.5
G1 F2400 X14.999 Y-38.498 E3362.15174
G0 F12000 X15.499 Y-38.498
G1 F2400 X15.5 Y38.5 E3365.35294
G0 F12000 X16 Y38.5
G1 F2400 X15.999 Y-38.498 E3368.55415
G0 F12000 X16.499 Y-38.498
G1 F2400 X16.5 Y38.5 E3371.75535
G0 F12000 X17 Y38.5
G1 F2400 X16.999 Y-38.498 E3374.95656
G0 F12000 X17.499 Y-38.498
G1 F2400 X17.5 Y38.5 E3378.15776
G0 F12000 X18 Y38.5
G1 F2400 X17.999 Y-38.498 E3381.35897
G0 F12000 X18.499 Y-38.498
G1 F2400 X18.5 Y38.5 E3384.56017
G0 F12000 X19 Y38.5
G1 F2400 X18.999 Y-38.498 E3387.76138
G0 F12000 X19.499 Y-38.498
G1 F2400 X19.5 Y38.5 E3390.96258
G0 F12000 X20 Y38.5
G1 F2400 X19.999 Y-38.498 E3394.16379
G0 F12000 X20.499 Y-38.498
G1 F2400 X20.5 Y38.5 E3397.36499
G0 F12000 X21 Y38.5
G1 F2400 X20.999 Y-38.498 E3400.5662
G0 F12000 X21.499 Y-38.498
G1 F2400 X21.5 Y38.5 E3403.7674
G0 F12000 X22 Y38.5
G1 F2400 X21.999 Y-38.498 E3406.96861
G0 F12000 X22.499 Y-38.498
G1 F2400 X22.5 Y38.5 E3410.16981
G0 F12000 X23 Y38.5
G1 F2400 X22.999 Y-38.498 E3413.37102
G0 F12000 X23.499 Y-38.498
G1 F2400 X23.5 Y38.5 E3416.57222
G0 F12000 X24 Y38.5
G1 F2400 X23.999 Y-38.498 E3419.77343
G0 F12000 X24.499 Y-38.498
G1 F2400 X24.5 Y38.5 E3422.97463
G0 F12000 X25 Y38.5
G1 F2400 X24.999 Y-38.498 E3426.17584
G0 F12000 X25.499 Y-38.498
G1 F2400 X25.5 Y38.5 E3429.37704
G0 F12000 X26 Y38.5
G1 F2400 X25.999 Y-38.498 E3432.57824
G0 F12000 X26.499 Y-38.498
G1 F2400 X26.5 Y38.5 E3435.77945
G0 F12000 X27 Y38.5
G1 F2400 X26.999 Y-38.498 E3438.98065
G0 F12000 X27.499 Y-38.498
G1 F2400 X27.5 Y38.5 E3442.18186
G0 F12000 X28 Y38.5
G1 F2400 X27.999 Y-38.498 E3445.38306
G0 F12000 X28.499 Y-38.498
G1 F2400 X28.5 Y38.5 E3448.58427
G0 F12000 X29 Y38.5
G1 F2400 X28.999 Y-38.498 E3451.78547
G0 F12000 X29.499 Y-38.498
G1 F2400 X29.5 Y38.5 E3454.98668
G0 F12000 X30 Y38.499
G1 F2400 X29.999 Y-38.498 E3458.18784
G0 F12000 X30.499 Y-38.498
G1 F2400 X30.5 Y38.499 E3461.38901
G0 F12000 X31 Y38.499
G1 F2400 X30.999 Y-38.498 E3464.59017
G0 F12000 X31.499 Y-38.498
G1 F2400 X31.5 Y38.499 E3467.79133
G0 F12000 X32 Y38.499
G1 F2400 X31.999 Y-38.498 E3470.9925
G0 F12000 X32.499 Y-38.498
G1 F2400 X32.5 Y38.499 E3474.19366
G0 F12000 X33 Y38.499
G1 F2400 X32.999 Y-38.498 E3477.39482
G0 F12000 X33.499 Y-38.498
G1 F2400 X33.5 Y38.499 E3480.59598
G0 F12000 X34 Y38.499
G1 F2400 X33.999 Y-38.498 E3483.79715
G0 F12000 X34.499 Y-38.498
G1 F2400 X34.5 Y38.499 E3486.99831
G0 F12000 X35 Y38.499
G1 F2400 X34.999 Y-38.498 E3490.19947
G0 F12000 X35.499 Y-38.498
G1 F2400 X35.5 Y38.499 E3493.40064
G0 F12000 X36 Y38.499
G1 F2400 X35.999 Y-38.498 E3496.6018
G0 F12000 X36.499 Y-38.498
G1 F2400 X36.5 Y38.499 E3499.80296
G0 F12000 X37 Y38.499
G1 F2400 X36.999 Y-38.498 E3503.00413
G0 F12000 X37.499 Y-38.498
G1 F2400 X37.5 Y38.499 E3506.20529
G0 F12000 X38 Y38.499
G1 F2400 X37.999 Y-38.498 E3509.40645
G0 F12000 X38.499 Y-38.498
G1 F2400 X38.5 Y38.499 E3512.60762
G0 F12000 X39 Y38.499
G1 F2400 X38.999 Y-38.498 E3515.80878
G0 F12000 X39.499 Y-38.498
G1 F2400 X39.5 Y38.499 E3519.00994
G0 F12000 X40 Y38.499
G1 F2400 X39.999 Y-38.498 E3522.21111
G0 F12000 X40.499 Y-38.498
G1 F2400 X40.5 Y38.499 E3525.41227
G0 F12000 X41 Y38.499
G1 F2400 X40.999 Y-38.498 E3528.61343
G0 F12000 X41.499 Y-38.498
G1 F2400 X41.5 Y38.499 E3531.8146
G0 F12000 X42 Y38.499
G1 F2400 X41.999 Y-38.498 E3535.01576
G0 F12000 X42.499 Y-38.498
G1 F2400 X42.5 Y38.499 E3538.21692
G0 F12000 X43 Y38.499
G1 F2400 X42.999 Y-38.498 E3541.41809
G0 F12000 X43.499 Y-38.498
G1 F2400 X43.5 Y38.499 E3544.61925
G0 F12000 X44 Y38.499
G1 F2400 X43.999 Y-38.498 E3547.82041
G0 F12000 X44.499 Y-38.498
G1 F2400 X44.5 Y38.499 E3551.02158
G0 F12000 X45 Y38.499
G1 F2400 X44.999 Y-38.498 E3554.22274
G0 F12000 X45.499 Y-38.498
G1 F2400 X45.5 Y38.499 E3557.4239
G0 F12000 X46 Y38.499
G1 F2400 X45.999 Y-38.498 E3560.62507
G0 F12000 X46.499 Y-38.498
G1 F2400 X46.5 Y38.499 E3563.82623
G0 F12000 X47 Y38.499
G1 F2400 X46.999 Y-38.498 E3567.02739
G0 F12000 X47.499 Y-38.498
G1 F2400 X47.5 Y38.499 E3570.22856
G0 F12000 X48 Y38.499
G1 F2400 X47.999 Y-38.498 E3573.42972
G0 F12000 X48.499 Y-38.498
G1 F2400 X48.5 Y38.499 E3576.63088
G0 F12000 X49 Y38.499
G1 F2400 X48.999 Y-38.498 E3579.83205
G0 F12000 X49.499 Y-38.498
G1 F2400 X49.5 Y38.499 E3583.03321
G0 F12000 X50 Y38.499
G1 F2400 X49.999 Y-38.498 E3586.23437
G0 F12000 X50.499 Y-38.498
G1 F2400 X50.5 Y38.499 E3589.43554
G0 F12000 X51 Y38.499
G1 F2400 X50.999 Y-38.498 E3592.6367
G0 F12000 X51.499 Y-38.498
G1 F2400 X51.5 Y38.499 E3595.83786
G0 F12000 X52 Y38.499
G1 F2400 X51.999 Y-38.498 E3599.03903
G0 F12000 X52.499 Y-38.498
G1 F2400 X52.5 Y38.499 E3602.24019
G0 F12000 X53 Y38.499
G1 F2400 X52.999 Y-38.498 E3605.44135
G0 F12000 X53.499 Y-38.498
G1 F2400 X53.5 Y38.499 E3608.64252
G0 F12000 X54 Y38.499
G1 F2400 X53.999 Y-38.498 E3611.84368
G0 F12000 X54.499 Y-38.498
G1 F2400 X54.5 Y38.499 E3615.04484
G0 F12000 X55 Y38.499
G1 F2400 X54.999 Y-38.498 E3618.24601
G0 F12000 X55.499 Y-38.498
G1 F2400 X55.5 Y38.499 E3621.44717
G0 F12000 X56 Y38.499
G1 F2400 X55.999 Y-38.498 E3624.64833
G0 F12000 X56.499 Y-38.498
G1 F2400 X56.5 Y38.499 E3627.8495
G0 F12000 X57 Y38.499
G1 F2400 X56.999 Y-38.498 E3631.05066
G0 F12000 X57.499 Y-38.498
G1 F2400 X57.5 Y38.499 E3634.25182
G0 F12000 X58 Y38.499
G1 F2400 X57.999 Y-38.498 E3637.45299
; Layer Change GCode
; LAYER:4
G0 F12000 X-59.331 Y39.296 Z1.1
G0 X-59.664 Y39.517
G0 X-59.489 Y39.4
G0 X-59.489 Y39.4
G0 X-59.749 Y39.75
G0 X-59.749 Y39.75
G0 X-58.749 Y38.75
; TYPE:WALL-INNER
G1 F2400 X-58.749 Y38.75 E3637.45299
G1 X-58.749 Y-38.749 E3640.67502
G1 X58.75 Y-38.749 E3645.56006
G1 X58.75 Y38.75 E3648.78209
G1 X-58.749 Y38.75 E3653.66713
G0 F12000 X-59.249 Y39.25
G1 F2400 X-59.249 Y39.25 E3653.66713
G1 X-59.249 Y-39.249 E3656.93074
G1 X59.25 Y-39.249 E3661.85736
G1 X59.25 Y39.25 E3665.12097
G1 X-59.249 Y39.25 E3670.04758
G0 F12000 X-59.749 Y39.75
; TYPE:WALL-OUTER
G1 F1800 X-59.749 Y39.75 E3670.04758
G1 X-59.749 Y-39.749 E3673.35277
G1 X59.75 Y-39.749 E3678.32096
G1 X59.75 Y39.75 E3681.62614
G1 X-59.749 Y39.75 E3686.59434
G0 F12000 X-59.489 Y39.4
G0 X-58.499 Y38
G0 X-58.499 Y38
; TYPE:FILL
G1 F2400 X58.5 Y38 E3691.45859
G0 F12000 X58.5 Y37.5
G1 F2400 X-58.499 Y37.5 E3696.32284
G0 F12000 X-58.499 Y37
G1 F2400 X58.5 Y37 E3701.1871
G0 F12000 X58.5 Y36.5
G1 F2400 X-58.499 Y36.5 E3706.05135
G0 F12000 X-58.499 Y36
G1 F2400 X58.5 Y36 E3710.9156
G0 F12000 X58.5 Y35.5
G1 F2400 X-58.499 Y35.5 E3715.77985
G0 F12000 X-58.499 Y35
G1 F2400 X58.5 Y35 E3720.64411
G0 F12000 X58.5 Y34.5
G1 F2400 X-58.499 Y34.5 E3725.50836
G0 F12000 X-58.499 Y34
G1 F2400 X58.5 Y34 E3730.37261
G0 F12000 X58.5 Y33.5
G1 F2400 X-58.499 Y33.5 E3735.23687
G0 F12000 X-58.499 Y33
G1 F2400 X58.5 Y33 E3740.10112
G0 F12000 X58.5 Y32.499
G1 F2400 X-58.499 Y32.5 E3744.96537
G0 F12000 X-58.499 Y32
G1 F2400 X58.5 Y31.999 E3749.82963
G0 F12000 X58.5 Y31.499
G1 F2400 X-58.499 Y31.5 E3754.69388
G0 F12000 X-58.499 Y31
G1 F2400 X58.5 Y30.999 E3759.55813
G0 F12000 X58.5 Y30.499
G1 F2400 X-58.499 Y30.5 E3764.42239
G0 F12000 X-58.499 Y30
G1 F2400 X58.5 Y29.999 E3769.28664
G0 F12000 X58.5 Y29.499
G1 F2400 X-58.499 Y29.5 E3774.15089
G0 F12000 X-58.499 Y29
G1 F2400 X58.5 Y28.999 E3779.01515
G0 F12000 X58.5 Y28.499
G1 F2400 X-58.499 Y28.5 E3783.8794
G0 F12000 X-58.499 Y28
G1 F2400 X58.5 Y27.999 E3788.74365
G0 F12000 X58.5 Y27.499
G1 F2400 X-58.499 Y27.5 E3793.60791
G0 F12000 X-58.499 Y27
G1 F2400 X58.5 Y26.999 E3798.47216
G0 F12000 X58.5 Y26.499
G1 F2400 X-58.499 Y26.5 E3803.33641
G0 F12000 X-58.499 Y26
G1 F2400 X58.5 Y25.999 E3808.20067
G0 F12000 X58.5 Y25.499
G1 F2400 X-58.499 Y25.5 E3813.06492
G0 F12000 X-58.499 Y25
G1 F2400 X58.5 Y24.999 E3817.92917
G0 F12000 X58.5 Y24.499
G1 F2400 X-58.499 Y24.5 E3822.79342
G0 F12000 X-58.499 Y24
G1 F2400 X58.5 Y23.999 E3827.65768
G0 F12000 X58.5 Y23.499
G1 F2400 X-58.499 Y23.5 E3832.52193
G0 F12000 X-58.499 Y23
G1 F2400 X58.5 Y22.999 E3837.38618
G0 F12000 X58.5 Y22.499
G1 F2400 X-58.499 Y22.5 E3842.25044
G0 F12000 X-58.499 Y22
G1 F2400 X58.5 Y21.999 E3847.11469
G0 F12000 X58.5 Y21.499
G1 F2400 X-58.499 Y21.5 E3851.97894
G0 F12000 X-58.499 Y21
G1 F2400 X58.5 Y20.999 E3856.8432
G0 F12000 X58.5 Y20.499
G1 F2400 X-58.499 Y20.5 E3861.70745
G0 F12000 X-58.499 Y20
G1 F2400 X58.5 Y19.999 E3866.5717
G0 F12000 X58.5 Y19.499
G1 F2400 X-58.499 Y19.5 E3871.43596
G0 F12000 X-58.499 Y19
G1 F2400 X58.5 Y18.999 E3876.30021
G0 F12000 X58.5 Y18.499
G1 F2400 X-58.499 Y18.5 E3881.16446
G0 F12000 X-58.499 Y18
G1 F2400 X58.5 Y17.999 E3886.02872
G0 F12000 X58.5 Y17.499
G1 F2400 X-58.499 Y17.5 E3890.89297
G0 F12000 X-58.499 Y17
G1 F2400 X58.5 Y16.999 E3895.75722
G0 F12000 X58.5 Y16.499
G1 F2400 X-58.499 Y16.5 E3900.62148
G0 F12000 X-58.499 Y16
G1 F2400 X58.5 Y15.999 E3905.48573
G0 F12000 X58.5 Y15.499
G1 F2400 X-58.499 Y15.5 E3910.34998
G0 F12000 X-58.499 Y15
G1 F2400 X58.5 Y14.999 E3915.21424
G0 F12000 X58.5 Y14.499
G1 F2400 X-58.499 Y14.5 E3920.07849
G0 F12000 X-58.499 Y14
G1 F2400 X58.5 Y13.999 E3924.94274
G0 F12000 X58.5 Y13.499
G1 F2400 X-58.499 Y13.5 E3929.80699
G0 F12000 X-58.499 Y13
G1 F2400 X58.5 Y12.999 E3934.67125
G0 F12000 X58.5 Y12.499
G1 F2400 X-58.499 Y12.5 E3939.5355
G0 F12000 X-58.499 Y12
G1 F2400 X58.5 Y11.999 E3944.39975
G0 F12000 X58.5 Y11.499
G1 F2400 X-58.499 Y11.5 E3949.26401
G0 F12000 X-58.499 Y11
G1 F2400 X58.5 Y10.999 E3954.12826
G0 F12000 X58.5 Y10.499
G1 F2400 X-58.499 Y10.5 E3958.99251
G0 F12000 X-58.499 Y10
G1 F2400 X58.5 Y9.999 E3963.85677
G0 F12000 X58.5 Y9.499
G1 F2400 X-58.499 Y9.5 E3968.72102
G0 F12000 X-58.499 Y9
G1 F2400 X58.5 Y8.999 E3973.58527
G0 F12000 X58.5 Y8.499
G1 F2400 X-58.499 Y8.5 E3978.44953
G0 F12000 X-58.499 Y8
G1 F2400 X58.5 Y7.999 E3983.31378
G0 F12000 X58.5 Y7.499
G1 F2400 X-58.499 Y7.5 E3988.17803
G0 F12000 X-58.499 Y7
G1 F2400 X58.5 Y6.999 E3993.04229
G0 F12000 X58.5 Y6.499
G1 F2400 X-58.499 Y6.5 E3997.90654
G0 F12000 X-58.499 Y6
G1 F2400 X58.5 Y5.999 E4002.77079
G0 F12000 X58.5 Y5.499
G1 F2400 X-58.499 Y5.5 E4007.63505
G0 F12000 X-58.499 Y5
G1 F2400 X58.5 Y4.999 E4012.4993
G0 F12000 X58.5 Y4.499
G1 F2400 X-58.499 Y4.5 E4017.36355
G0 F12000 X-58.499 Y4
G1 F2400 X58.5 Y3.999 E4022.2278
G0 F12000 X58.5 Y3.499
G1 F2400 X-58.499 Y3.5 E4027.09206
G0 F12000 X-58.499 Y3
G1 F2400 X58.5 Y2.999 E4031.95631
G0 F12000 X58.5 Y2.499
G1 F2400 X-58.499 Y2.5 E4036.82056
G0 F12000 X-58.499 Y2
G1 F2400 X58.5 Y1.999 E4041.68482
G0 F12000 X58.5 Y1.499
G1 F2400 X-58.499 Y1.5 E4046.54907
G0 F12000 X-58.499 Y1
G1 F2400 X58.5 Y0.999 E4051.41332
G0 F12000 X58.5 Y0.499
G1 F2400 X-58.499 Y0.5 E4056.27758
G0 F12000 X-58.499 Y0
G1 F2400 X58.5 Y0 E4061.14183
G0 F12000 X58.5 Y-0.5
G1 F2400 X-58.499 Y-0.499 E4066.00608
G0 F12000 X-58.499 Y-0.999
G1 F2400 X58.5 Y-1 E4070.87034
G0 F12000 X58.5 Y-1.5
G1 F2400 X-58.499 Y-1.499 E4075.73459
G0 F12000 X-58.499 Y-1.999
G1 F2400 X58.5 Y-2 E4080.59884
G0 F12000 X58.5 Y-2.5
G1 F2400 X-58.499 Y-2.499 E4085.4631
G0 F12000 X-58.499 Y-2.999
G1 F2400 X58.5 Y-3 E4090.32735
G0 F12000 X58.5 Y-3.5
G1 F2400 X-58.499 Y-3.499 E4095.1916
G0 F12000 X-58.499 Y-3.999
G1 F2400 X58.5 Y-4 E4100.05586
G0 F12000 X58.5 Y-4.5
G1 F2400 X-58.499 Y-4.499 E4104.92011
G0 F12000 X-58.499 Y-4.999
G1 F2400 X58.5 Y-5 E4109.78436
G0 F12000 X58.5 Y-5.5
G1 F2400 X-58.499 Y-5.499 E4114.64862
G0 F12000 X-58.499 Y-5.999
G1 F2400 X58.5 Y-6 E4119.51287
G0 F12000 X58.5 Y-6.5
G1 F2400 X-58.499 Y-6.499 E4124.37712
G0 F12000 X-58.499 Y-6.999
G1 F2400 X58.5 Y-7 E4129.24137
G0 F12000 X58.5 Y-7.5
G1 F2400 X-58.499 Y-7.499 E4134.10563
G0 F12000 X-58.499 Y-7.999
G1 F2400 X58.5 Y-8 E4138.96988
G0 F12000 X58.5 Y-8.5
G1 F2400 X-58.499 Y-8.499 E4143.83413
G0 F12000 X-58.499 Y-8.999
G1 F2400 X58.5 Y-9 E4148.69839
G0 F12000 X58.5 Y-9.5
G1 F2400 X-58.499 Y-9.499 E4153.56264
G0 F12000 X-58.499 Y-9.999
G1 F2400 X58.5 Y-10 E4158.42689
G0 F12000 X58.5 Y-10.5
G1 F2400 X-58.499 Y-10.499 E4163.29115
G0 F12000 X-58.499 Y-10.999
G1 F2400 X58.5 Y-11 E4168.1554
G0 F12000 X58.5 Y-11.5
G1 F2400 X-58.499 Y-11.499 E4173.01965
G0 F12000 X-58.499 Y-11.999
G1 F2400 X58.5 Y-12 E4177.88391
G0 F12000 X58.5 Y-12.5
G1 F2400 X-58.499 Y-12.499 E4182.74816
G0 F12000 X-58.499 Y-12.999
G1 F2400 X58.5 Y-13 E4187.61241
G0 F12000 X58.5 Y-13.5
G1 F2400 X-58.499 Y-13.499 E4192.47667
G0 F12000 X-58.499 Y-13.999
G1 F2400 X58.5 Y-14 E4197.34092
G0 F12000 X58.5 Y-14.5
G1 F2400 X-58.499 Y-14.499 E4202.20517
G0 F12000 X-58.499 Y-14.999
G1 F2400 X58.5 Y-15 E4207.06943
G0 F12000 X58.5 Y-15.5
G1 F2400 X-58.499 Y-15.499 E4211.93368
G0 F12000 X-58.499 Y-15.999
G1 F2400 X58.5 Y-16 E4216.79793
G0 F12000 X58.5 Y-16.5
G1 F2400 X-58.499 Y-16.499 E4221.66219
G0 F12000 X-58.499 Y-16.999
G1 F2400 X58.5 Y-17 E4226.52644
G0 F12000 X58.5 Y-17.5
G1 F2400 X-58.499 Y-17.499 E4231.39069
G0 F12000 X-58.499 Y-17.999
G1 F2400 X58.5 Y-18 E4236.25494
G0 F12000 X58.5 Y-18.5
G1 F2400 X-58.499 Y-18.499 E4241.1192
G0 F12000 X-58.499 Y-18.999
G1 F2400 X58.5 Y-19 E4245.98345
G0 F12000 X58.5 Y-19.5
G1 F2400 X-58.499 Y-19.499 E4250.8477
G0 F12000 X-58.499 Y-19.999
G1 F2400 X58.5 Y-20 E4255.71196
G0 F12000 X58.5 Y-20.5
G1 F2400 X-58.499 Y-20.499 E4260.57621
G0 F12000 X-58.499 Y-20.999
G1 F2400 X58.5 Y-21 E4265.44046
G0 F12000 X58.5 Y-21.5
G1 F2400 X-58.499 Y-21.499 E4270.30472
G0 F12000 X-58.499 Y-21.999
G1 F2400 X58.5 Y-22 E4275.16897
G0 F12000 X58.5 Y-22.5
G1 F2400 X-58.499 Y-22.499 E4280.03322
G0 F12000 X-58.499 Y-22.999
G1 F2400 X58.5 Y-23 E4284.89748
G0 F12000 X58.5 Y-23.5
G1 F2400 X-58.499 Y-23.499 E4289.76173
G0 F12000 X-58.499 Y-23.999
G1 F2400 X58.5 Y-24 E4294.62598
G0 F12000 X58.5 Y-24.5
G1 F2400 X-58.499 Y-24.499 E4299.49024
G0 F12000 X-58.499 Y-24.999
G1 F2400 X58.5 Y-25 E4304.35449
G0 F12000 X58.5 Y-25.5
G1 F2400 X-58.499 Y-25.499 E4309.21874
G0 F12000 X-58.499 Y-25.999
G1 F2400 X58.5 Y-26 E4314.083
G0 F12000 X58.5 Y-26.5
G1 F2400 X-58.499 Y-26.499 E4318.94725
G0 F12000 X-58.499 Y-26.999
G1 F2400 X58.5 Y-27 E4323.8115
G0 F12000 X58.5 Y-27.5
G1 F2400 X-58.499 Y-27.499 E4328.67575
G0 F12000 X-58.499 Y-27.999
G1 F2400 X58.5 Y-28 E4333.54001
G0 F12000 X58.5 Y-28.5
G1 F2400 X-58.499 Y-28.499 E4338.40426
G0 F12000 X-58.499 Y-28.999
G1 F2400 X58.5 Y-29 E4343.26851
G0 F12000 X58.5 Y-29.5
G1 F2400 X-58.499 Y-29.499 E4348.13277
G0 F12000 X-58.499 Y-29.999
G1 F2400 X58.5 Y-30 E4352.99702
G0 F12000 X58.5 Y-30.5
G1 F2400 X-58.499 Y-30.499 E4357.86127
G0 F12000 X-58.499 Y-30.999
G1 F2400 X58.5 Y-31 E4362.72553
G0 F12000 X58.5 Y-31.5
G1 F2400 X-58.499 Y-31.499 E4367.58978
G0 F12000 X-58.499 Y-31.999
G1 F2400 X58.5 Y-32 E4372.45403
G0 F12000 X58.5 Y-32.5
G1 F2400 X-58.499 Y-32.499 E4377.31829
G0 F12000 X-58.499 Y-33
G1 F2400 X58.5 Y-33 E4382.18254
G0 F12000 X58.5 Y-33.5
G1 F2400 X-58.499 Y-33.5 E4387.04679
G0 F12000 X-58.499 Y-34
G1 F2400 X58.5 Y-34 E4391.91105
G0 F12000 X58.5 Y-34.5
G1 F2400 X-58.499 Y-34.5 E4396.7753
G0 F12000 X-58.499 Y-35
G1 F2400 X58.5 Y-35 E4401.63955
G0 F12000 X58.5 Y-35.5
G1 F2400 X-58.499 Y-35.5 E4406.50381
G0 F12000 X-58.499 Y-36
G1 F2400 X58.5 Y-36 E4411.36806
G0 F12000 X58.5 Y-36.5
G1 F2400 X-58.499 Y-36.5 E4416.23231
G0 F12000 X-58.499 Y-37
G1 F2400 X58.5 Y-37 E4421.09657
G0 F12000 X58.5 Y-37.5
G1 F2400 X-58.499 Y-37.5 E4425.96082
G0 F12000 X-58.499 Y-38
G1 F2400 X58.5 Y-38 E4430.82507
; Layer Change GCode
; LAYER:5
G0 F12000 X-59.331 Y39.296 Z1.3
G0 X-59.665 Y39.515
G0 X-59.489 Y39.4
G0 X-59.489 Y39.4
G0 X-59.749 Y39.75
G0 X-59.749 Y39.75
G0 X-58.749 Y38.75
; TYPE:WALL-INNER
G1 F2400 X-58.749 Y38.75 E4430.82507
G1 X-58.749 Y-38.749 E4434.04711
G1 X58.75 Y-38.749 E4438.93215
G1 X58.75 Y38.75 E4442.15418
G1 X-58.749 Y38.75 E4447.03922
G0 F12000 X-59.249 Y39.25
G1 F2400 X-59.249 Y39.25 E4447.03922
G1 X-59.249 Y-39.249 E4450.30283
G1 X59.25 Y-39.249 E4455.22945
G1 X59.25 Y39.25 E4458.49306
G1 X-59.249 Y39.25 E4463.41967
G0 F12000 X-59.749 Y39.75
; TYPE:WALL-OUTER
G1 F1800 X-59.749 Y39.75 E4463.41967
G1 X-59.749 Y-39.749 E4466.72486
G1 X59.75 Y-39.749 E4471.69305
G1 X59.75 Y39.75 E4474.99823
G1 X-59.749 Y39.75 E4479.96642
G0 F12000 X-59.489 Y39.4
G0 X-57.999 Y38.499
G0 X-57.999 Y38.499
; TYPE:FILL
G1 F2400 X-58 Y25.999 E4480.48611
G0 F12000 X-57.5 Y25.999
G1 F2400 X-57.499 Y38.499 E4481.0058
G0 F12000 X-56.999 Y38.499
G1 F2400 X-57 Y25.999 E4481.52549
G0 F12000 X-56.5 Y25.999
G1 F2400 X-56.499 Y38.499 E4482.04518
G0 F12000 X-55.999 Y38.499
G1 F2400 X-56 Y25.999 E4482.56487
G0 F12000 X-55.5 Y25.999
G1 F2400 X-55.499 Y38.499 E4483.08456
G0 F12000 X-54.999 Y38.499
G1 F2400 X-55 Y25.999 E4483.60425
G0 F12000 X-54.5 Y25.999
G1 F2400 X-54.499 Y38.499 E4484.12394
G0 F12000 X-53.999 Y38.499
G1 F2400 X-54 Y25.999 E4484.64363
G0 F12000 X-54 Y25.499
G1 F2400 X-54 Y-25.499 E4486.76388
G0 F12000 X-54 Y-25.998
G1 F2400 X-54 Y-38.498 E4487.28357
G0 F12000 X-54.5 Y-38.498
G1 F2400 X-54.5 Y-25.998 E4487.80326
G0 F12000 X-54.5 Y-25.499
G1 F2400 X-54.5 Y25.499 E4489.92351
G0 F12000 X-53.5 Y25.499
G1 F2400 X-53.5 Y-25.499 E4492.04376
G0 F12000 X-53.5 Y-25.998
G1 F2400 X-53.5 Y-38.498 E4492.56345
G0 F12000 X-53 Y-38.498
G1 F2400 X-53 Y-25.998 E4493.08314
G0 F12000 X-53 Y-25.499
G1 F2400 X-53 Y25.499 E4495.20339
G0 F12000 X-52.5 Y25.499
G1 F2400 X-52.5 Y-25.499 E4497.32364
G0 F12000 X-52.5 Y-25.998
G1 F2400 X-52.5 Y-38.498 E4497.84333
G0 F12000 X-52 Y-38.498
G1 F2400 X-52 Y-25.998 E4498.36302
G0 F12000 X-52 Y-25.499
G1 F2400 X-52 Y25.499 E4500.48327
G0 F12000 X-52 Y25.998
G1 F2400 X-51.999 Y38.499 E4501.003
G0 F12000 X-52.499 Y38.499
G1 F2400 X-52.5 Y25.998 E4501.52273
G0 F12000 X-53 Y25.999
G1 F2400 X-52.999 Y38.499 E4502.04242
G0 F12000 X-53.499 Y38.499
G1 F2400 X-53.5 Y25.999 E4502.56211
G0 F12000 X-53.982 Y26.499
G1 F2400 X-58.498 Y18.678 E4502.93758
G0 F12000 X-58.499 Y20
G1 F2400 X-54.5 Y20 E4503.10384
G0 F12000 X-58.498 Y21.322
G0 X-58.498 Y21.322
G1 F2400 X-54.499 Y14.395 E4503.43638
G0 F12000 X-54.5 Y15
G1 F2400 X-58.499 Y15 E4503.60264
G0 F12000 X-58.498 Y11.322
G1 F2400 X-54.499 Y4.396 E4503.93514
G0 F12000 X-54.5 Y5
G1 F2400 X-58.499 Y5 E4504.1014
G0 F12000 X-58.498 Y8.677
G1 F2400 X-54.499 Y15.604 E4504.43394
G0 F12000 X-54.5 Y10
G1 F2400 X-58.499 Y10 E4504.6002
G0 F12000 X-54.499 Y5.604
G1 F2400 X-58.498 Y-1.321 E4504.93266
G0 F12000 X-58.499 Y0
G1 F2400 X-54.5 Y0 E4505.09892
G0 F12000 X-58.498 Y1.321
G1 F2400 X-54.499 Y-5.604 E4505.43139
G0 F12000 X-54.5 Y-4.999
G1 F2400 X-58.499 Y-4.999 E4505.59764
G0 F12000 X-58.498 Y-8.677
G1 F2400 X-54.499 Y-15.604 E4505.93018
G0 F12000 X-54.5 Y-14.999
G1 F2400 X-58.499 Y-14.999 E4506.09644
G0 F12000 X-58.498 Y-11.322
G1 F2400 X-54.499 Y-4.396 E4506.42894
G0 F12000 X-54.5 Y-9.999
G1 F2400 X-58.499 Y-9.999 E4506.5952
G0 F12000 X-54.499 Y-14.395
G1 F2400 X-58.498 Y-21.322 E4506.92774
G0 F12000 X-58.499 Y-19.999
G1 F2400 X-54.5 Y-19.999 E4507.094
G0 F12000 X-58.498 Y-18.677
G1 F2400 X-53.982 Y-26.499 E4507.46951
G0 F12000 X-55 Y-25.998
G1 F2400 X-55 Y-38.498 E4507.9892
G0 F12000 X-55.5 Y-38.498
G1 F2400 X-55.5 Y-25.998 E4508.50889
G0 F12000 X-56 Y-25.998
G1 F2400 X-56 Y-38.498 E4509.02858
G0 F12000 X-56.5 Y-38.498
G1 F2400 X-56.5 Y-25.998 E4509.54827
G0 F12000 X-57 Y-25.998
G1 F2400 X-57 Y-38.498 E4510.06795
G0 F12000 X-57.5 Y-38.498
G1 F2400 X-57.5 Y-25.998 E4510.58764
G0 F12000 X-58 Y-25.998
G1 F2400 X-58 Y-38.498 E4511.10733
G0 F12000 X-51.5 Y-38.498
G1 F2400 X-51.5 Y-25.998 E4511.62702
G0 F12000 X-51.5 Y-25.499
G1 F2400 X-51.5 Y25.499 E4513.74727
G0 F12000 X-51.5 Y25.998
G1 F2400 X-51.499 Y38.499 E4514.26701
G0 F12000 X-50.999 Y38.499
G1 F2400 X-51 Y25.998 E4514.78674
G0 F12000 X-51 Y25.499
G1 F2400 X-51 Y-25.499 E4516.90699
G0 F12000 X-51 Y-25.998
G1 F2400 X-51 Y-38.498 E4517.42668
G0 F12000 X-50.5 Y-38.498
G1 F2400 X-50.5 Y-25.998 E4517.94637
G0 F12000 X-50.5 Y-25.499
G1 F2400 X-50.5 Y25.499 E4520.06662
G0 F12000 X-50.5 Y25.998
G1 F2400 X-50.499 Y38.499 E4520.58635
G0 F12000 X-49.999 Y38.499
G1 F2400 X-50 Y25.998 E4521.10608
G0 F12000 X-50 Y25.499
G1 F2400 X-50 Y-25.499 E4523.22633
G0 F12000 X-50 Y-25.998
G1 F2400 X-50 Y-38.498 E4523.74602
G0 F12000 X-49.5 Y-38.498
G1 F2400 X-49.5 Y-25.998 E4524.26571
G0 F12000 X-49.5 Y-25.499
G1 F2400 X-49.5 Y25.499 E4526.38596
G0 F12000 X-49.5 Y25.998
G1 F2400 X-49.499 Y38.499 E4526.90569
G0 F12000 X-48.999 Y38.499
G1 F2400 X-49 Y25.998 E4527.42542
G0 F12000 X-49 Y25.499
G1 F2400 X-49 Y-25.499 E4529.54567
G0 F12000 X-49 Y-25.998
G1 F2400 X-49 Y-38.498 E4530.06536
G0 F12000 X-48.5 Y-38.498
G1 F2400 X-48.5 Y-25.998 E4530.58505
G0 F12000 X-48.5 Y-25.499
G1 F2400 X-48.5 Y25.499 E4532.7053
G0 F12000 X-48.5 Y25.998
G1 F2400 X-48.499 Y38.499 E4533.22503
G0 F12000 X-47.999 Y38.499
G1 F2400 X-48 Y25.998 E4533.74476
G0 F12000 X-48 Y25.499
G1 F2400 X-48 Y-25.499 E4535.86501
G0 F12000 X-48 Y-25.998
G1 F2400 X-48 Y-38.498 E4536.3847
G0 F12000 X-47.5 Y-38.498
G1 F2400 X-47.5 Y-25.998 E4536.90439
G0 F12000 X-47.5 Y-25.499
G1 F2400 X-47.5 Y25.499 E4539.02464
G0 F12000 X-47.5 Y25.998
G1 F2400 X-47.499 Y38.499 E4539.54438
G0 F12000 X-46.999 Y38.499
G1 F2400 X-47 Y25.998 E4540.06411
G0 F12000 X-47 Y25.499
G1 F2400 X-47 Y-25.499 E4542.18436
G0 F12000 X-47 Y-25.998
G1 F2400 X-47 Y-38.498 E4542.70405
G0 F12000 X-46.5 Y-38.498
G1 F2400 X-46.5 Y-25.998 E4543.22374
G0 F12000 X-46.5 Y-25.499
G1 F2400 X-46.5 Y25.499 E4545.34399
G0 F12000 X-46.5 Y25.998
G1 F2400 X-46.499 Y38.499 E4545.86372
G0 F12000 X-45.999 Y38.499
G1 F2400 X-46 Y25.998 E4546.38345
G0 F12000 X-46 Y25.499
G1 F2400 X-46 Y-25.499 E4548.5037
G0 F12000 X-46 Y-25.998
G1 F2400 X-46 Y-38.498 E4549.02339
G0 F12000 X-45.5 Y-38.498
G1 F2400 X-45.5 Y-25.998 E4549.54308
G0 F12000 X-45.5 Y-25.499
G1 F2400 X-45.5 Y25.499 E4551.66333
G0 F12000 X-45.5 Y25.998
G1 F2400 X-45.499 Y38.499 E4552.18306
G0 F12000 X-44.999 Y38.499
G1 F2400 X-45 Y25.998 E4552.70279
G0 F12000 X-45 Y25.499
G1 F2400 X-45 Y-25.499 E4554.82304
G0 F12000 X-45 Y-25.998
G1 F2400 X-45 Y-38.498 E4555.34273
G0 F12000 X-44.5 Y-38.498
G1 F2400 X-44.5 Y-25.998 E4555.86242
G0 F12000 X-44.5 Y-25.499
G1 F2400 X-44.5 Y25.499 E4557.98267
G0 F12000 X-44.5 Y25.998
G1 F2400 X-44.499 Y38.499 E4558.5024
G0 F12000 X-43.999 Y38.499
G1 F2400 X-44 Y25.998 E4559.02213
G0 F12000 X-44 Y25.499
G1 F2400 X-44 Y-25.499 E4561.14238
G0 F12000 X-44 Y-25.998
G1 F2400 X-44 Y-38.498 E4561.66207
G0 F12000 X-43.5 Y-38.498
G1 F2400 X-43.5 Y-25.998 E4562.18176
G0 F12000 X-43.5 Y-25.499
G1 F2400 X-43.5 Y25.499 E4564.30201
G0 F12000 X-43.5 Y25.998
G1 F2400 X-43.499 Y38.499 E4564.82175
G0 F12000 X-42.999 Y38.499
G1 F2400 X-43 Y25.998 E4565.34148
G0 F12000 X-43 Y25.499
G1 F2400 X-43 Y-25.499 E4567.46173
G0 F12000 X-43 Y-25.998
G1 F2400 X-43 Y-38.498 E4567.98142
G0 F12000 X-42.5 Y-38.498
G1 F2400 X-42.5 Y-25.998 E4568.50111
G0 F12000 X-42.5 Y-25.499
G1 F2400 X-42.5 Y25.499 E4570.62136
G0 F12000 X-42.5 Y25.998
G1 F2400 X-42.499 Y38.499 E4571.14109
G0 F12000 X-41.999 Y38.499
G1 F2400 X-42 Y25.998 E4571.66082
G0 F12000 X-42 Y25.499
G1 F2400 X-42 Y-25.499 E4573.78107
G0 F12000 X-42 Y-25.998
G1 F2400 X-42 Y-38.498 E4574.30076
G0 F12000 X-41.5 Y-38.498
G1 F2400 X-41.5 Y-25.998 E4574.82045
G0 F12000 X-41.5 Y-25.499
G1 F2400 X-41.5 Y25.499 E4576.9407
G0 F12000 X-41.5 Y25.997
G1 F2400 X-41.499 Y38.499 E4577.46047
G0 F12000 X-40.999 Y38.499
G1 F2400 X-41 Y25.997 E4577.98024
G0 F12000 X-41 Y25.499
G1 F2400 X-41 Y-25.499 E4580.1005
G0 F12000 X-41 Y-25.998
G1 F2400 X-41 Y-38.498 E4580.62018
G0 F12000 X-40.5 Y-38.498
G1 F2400 X-40.5 Y-25.998 E4581.13987
G0 F12000 X-40.5 Y-25.499
G1 F2400 X-40.5 Y25.499 E4583.26012
G0 F12000 X-40.5 Y25.997
G1 F2400 X-40.499 Y38.499 E4583.7799
G0 F12000 X-39.999 Y38.499
G1 F2400 X-40 Y25.997 E4584.29967
G0 F12000 X-40 Y25.499
G1 F2400 X-40 Y-25.499 E4586.41992
G0 F12000 X-40 Y-25.998
G1 F2400 X-40 Y-38.498 E4586.93961
G0 F12000 X-39.5 Y-38.498
G1 F2400 X-39.5 Y-25.998 E4587.4593
G0 F12000 X-39.5 Y-25.499
G1 F2400 X-39.5 Y25.499 E4589.57955
G0 F12000 X-39.5 Y25.997
G1 F2400 X-39.499 Y38.499 E4590.09932
G0 F12000 X-38.999 Y38.499
G1 F2400 X-39 Y25.997 E4590.6191
G0 F12000 X-39 Y25.499
G1 F2400 X-39 Y-25.499 E4592.73935
G0 F12000 X-39 Y-25.998
G1 F2400 X-39 Y-38.498 E4593.25904
G0 F12000 X-38.5 Y-38.498
G1 F2400 X-38.5 Y-25.998 E4593.77873
G0 F12000 X-38.5 Y-25.499
G1 F2400 X-38.5 Y25.499 E4595.89898
G0 F12000 X-38.5 Y25.997
G1 F2400 X-38.499 Y38.499 E4596.41875
G0 F12000 X-37.999 Y38.499
G1 F2400 X-38 Y25.997 E4596.93852
G0 F12000 X-38 Y25.499
G1 F2400 X-38 Y-25.499 E4599.05877
G0 F12000 X-38 Y-25.998
G1 F2400 X-38 Y-38.498 E4599.57846
G0 F12000 X-37.5 Y-38.498
G1 F2400 X-37.5 Y-25.998 E4600.09815
G0 F12000 X-37.5 Y-25.499
G1 F2400 X-37.5 Y25.499 E4602.2184
G0 F12000 X-37.5 Y25.997
G1 F2400 X-37.499 Y38.499 E4602.73817
G0 F12000 X-36.999 Y38.499
G1 F2400 X-37 Y25.997 E4603.25795
G0 F12000 X-37 Y25.499
G1 F2400 X-37 Y-25.499 E4605.3782
G0 F12000 X-37 Y-25.998
G1 F2400 X-37 Y-38.498 E4605.89789
G0 F12000 X-36.5 Y-38.498
G1 F2400 X-36.5 Y-25.998 E4606.41758
G0 F12000 X-36.5 Y-25.499
G1 F2400 X-36.5 Y25.499 E4608.53783
G0 F12000 X-36.5 Y25.997
G1 F2400 X-36.499 Y38.499 E4609.0576
G0 F12000 X-35.999 Y38.499
G1 F2400 X-36 Y25.997 E4609.57737
G0 F12000 X-36 Y25.499
G1 F2400 X-36 Y-25.499 E4611.69762
G0 F12000 X-36 Y-25.998
G1 F2400 X-36 Y-38.498 E4612.21731
G0 F12000 X-35.5 Y-38.498
G1 F2400 X-35.5 Y-25.998 E4612.737
G0 F12000 X-35.5 Y-25.499
G1 F2400 X-35.5 Y25.499 E4614.85725
G0 F12000 X-35.5 Y25.997
G1 F2400 X-35.499 Y38.499 E4615.37703
G0 F12000 X-34.999 Y38.499
G1 F2400 X-35 Y25.997 E4615.8968
G0 F12000 X-35 Y25.499
G1 F2400 X-35 Y-25.499 E4618.01705
G0 F12000 X-35 Y-25.998
G1 F2400 X-35 Y-38.498 E4618.53674
G0 F12000 X-34.5 Y-38.498
G1 F2400 X-34.5 Y-25.998 E4619.05643
G0 F12000 X-34.5 Y-25.499
G1 F2400 X-34.5 Y25.499 E4621.17668
G0 F12000 X-34.5 Y25.997
G1 F2400 X-34.499 Y38.499 E4621.69645
G0 F12000 X-33.999 Y38.499
G1 F2400 X-34 Y25.997 E4622.21622
G0 F12000 X-34 Y25.499
G1 F2400 X-34 Y-25.499 E4624.33647
G0 F12000 X-34 Y-25.998
G1 F2400 X-34 Y-38.498 E4624.85616
G0 F12000 X-33.5 Y-38.498
G1 F2400 X-33.5 Y-25.998 E4625.37585
G0 F12000 X-33.5 Y-25.499
G1 F2400 X-33.5 Y25.499 E4627.4961
G0 F12000 X-33.5 Y25.997
G1 F2400 X-33.499 Y38.499 E4628.01588
G0 F12000 X-32.999 Y38.499
G1 F2400 X-33 Y25.997 E4628.53565
G0 F12000 X-33 Y25.499
G1 F2400 X-33 Y-25.499 E4630.6559
G0 F12000 X-33 Y-25.998
G1 F2400 X-33 Y-38.498 E4631.17559
G0 F12000 X-32.5 Y-38.498
G1 F2400 X-32.5 Y-25.998 E4631.69528
G0 F12000 X-32.5 Y-25.499
G1 F2400 X-32.499 Y25.499 E4633.81553
G0 F12000 X-32.499 Y25.997
G1 F2400 X-32.499 Y38.499 E4634.3353
G0 F12000 X-31.999 Y38.499
G1 F2400 X-31.999 Y25.997 E4634.85508
G0 F12000 X-31.999 Y25.499
G1 F2400 X-32 Y-25.499 E4636.97533
G0 F12000 X-32 Y-25.998
G1 F2400 X-32 Y-38.498 E4637.49502
G0 F12000 X-31.5 Y-38.498
G1 F2400 X-31.5 Y-25.998 E4638.01471
G0 F12000 X-31.5 Y-25.499
G1 F2400 X-31.499 Y25.499 E4640.13496
G0 F12000 X-31.499 Y25.997
G1 F2400 X-31.499 Y38.499 E4640.65473
G0 F12000 X-30.999 Y38.499
G1 F2400 X-30.999 Y25.997 E4641.1745
G0 F12000 X-30.999 Y25.499
G1 F2400 X-31 Y-25.499 E4643.29475
G0 F12000 X-31 Y-25.998
G1 F2400 X-31 Y-38.498 E4643.81444
G0 F12000 X-30.5 Y-38.498
G1 F2400 X-30.5 Y-25.998 E4644.33413
G0 F12000 X-30.5 Y-25.499
G1 F2400 X-30.499 Y25.499 E4646.45438
G0 F12000 X-30.499 Y25.996
G1 F2400 X-30.499 Y38.499 E4646.9742
G0 F12000 X-29.999 Y38.499
G1 F2400 X-29.999 Y25.996 E4647.49401
G0 F12000 X-29.999 Y25.499
G1 F2400 X-30 Y-25.499 E4649.61426
G0 F12000 X-30 Y-25.998
G1 F2400 X-30 Y-38.498 E4650.13395
G0 F12000 X-29.5 Y-38.499
G1 F2400 X-29.5 Y-25.998 E4650.65368
G0 F12000 X-29.5 Y-25.499
G1 F2400 X-29.499 Y25.499 E4652.77393
G0 F12000 X-29.499 Y25.996
G1 F2400 X-29.499 Y38.499 E4653.29375
G0 F12000 X-28.999 Y38.499
G1 F2400 X-28.999 Y25.996 E4653.81356
G0 F12000 X-28.999 Y25.499
G1 F2400 X-29 Y-25.499 E4655.93381
G0 F12000 X-29 Y-25.998
G1 F2400 X-29 Y-38.499 E4656.45354
G0 F12000 X-28.5 Y-38.499
G1 F2400 X-28.5 Y-25.998 E4656.97327
G0 F12000 X-28.5 Y-25.499
G1 F2400 X-28.499 Y25.499 E4659.09352
G0 F12000 X-28.499 Y25.996
G1 F2400 X-28.499 Y38.499 E4659.61334
G0 F12000 X-27.999 Y38.499
G1 F2400 X-27.999 Y25.996 E4660.13315
G0 F12000 X-27.999 Y25.499
G1 F2400 X-28 Y-25.499 E4662.2534
G0 F12000 X-28 Y-25.998
G1 F2400 X-28 Y-38.499 E4662.77313
G0 F12000 X-27.5 Y-38.499
G1 F2400 X-27.5 Y-25.998 E4663.29287
G0 F12000 X-27.5 Y-25.499
G1 F2400 X-27.499 Y25.499 E4665.41312
G0 F12000 X-27.499 Y25.996
G1 F2400 X-27.499 Y38.499 E4665.93293
G0 F12000 X-26.999 Y38.499
G1 F2400 X-26.999 Y25.996 E4666.45274
G0 F12000 X-26.999 Y25.499
G1 F2400 X-27 Y-25.499 E4668.57299
G0 F12000 X-27 Y-25.998
G1 F2400 X-27 Y-38.499 E4669.09273
G0 F12000 X-26.5 Y-38.499
G1 F2400 X-26.5 Y-25.998 E4669.61246
G0 F12000 X-26.5 Y-25.499
G1 F2400 X-26.499 Y25.499 E4671.73271
G0 F12000 X-26.499 Y25.996
G1 F2400 X-26.499 Y38.499 E4672.25252
G0 F12000 X-25.999 Y38.499
G1 F2400 X-25.999 Y25.996 E4672.77234
G0 F12000 X-25.999 Y25.499
G1 F2400 X-26 Y-25.499 E4674.89259
G0 F12000 X-26 Y-25.998
G1 F2400 X-26 Y-38.499 E4675.41232
G0 F12000 X-25.5 Y-38.499
G1 F2400 X-25.5 Y-25.998 E4675.93205
G0 F12000 X-25.5 Y-25.499
G1 F2400 X-25.499 Y25.499 E4678.0523
G0 F12000 X-25.499 Y25.996
G1 F2400 X-25.499 Y38.499 E4678.57211
G0 F12000 X-24.999 Y38.499
G1 F2400 X-24.999 Y25.996 E4679.09193
G0 F12000 X-24.999 Y25.499
G1 F2400 X-25 Y-25.499 E4681.21218
G0 F12000 X-25 Y-25.998
G1 F2400 X-25 Y-38.499 E4681.73191
G0 F12000 X-24.5 Y-38.499
G1 F2400 X-24.5 Y-25.998 E4682.25164
G0 F12000 X-24.5 Y-25.499
G1 F2400 X-24.499 Y25.499 E4684.37189
G0 F12000 X-24.499 Y25.996
G1 F2400 X-24.499 Y38.499 E4684.89171
G0 F12000 X-23.999 Y38.499
G1 F2400 X-23.999 Y25.996 E4685.41152
G0 F12000 X-23.999 Y25.499
G1 F2400 X-24 Y-25.499 E4687.53177
G0 F12000 X-24 Y-25.998
G1 F2400 X-24 Y-38.499 E4688.0515
G0 F12000 X-23.5 Y-38.499
G1 F2400 X-23.5 Y-25.998 E4688.57123
G0 F12000 X-23.5 Y-25.499
G1 F2400 X-23.499 Y25.499 E4690.69148
G0 F12000 X-23.499 Y25.996
G1 F2400 X-23.499 Y38.499 E4691.2113
G0 F12000 X-22.999 Y38.499
G1 F2400 X-22.999 Y25.996 E4691.73111
G0 F12000 X-22.999 Y25.499
G1 F2400 X-23 Y-25.499 E4693.85136
G0 F12000 X-23 Y-25.998
G1 F2400 X-23 Y-38.499 E4694.37109
G0 F12000 X-22.5 Y-38.499
G1 F2400 X-22.5 Y-25.998 E4694.89083
G0 F12000 X-22.5 Y-25.499
G1 F2400 X-22.499 Y25.499 E4697.01108
G0 F12000 X-22.499 Y25.996
G1 F2400 X-22.499 Y38.499 E4697.53089
G0 F12000 X-21.999 Y38.499
G1 F2400 X-21.999 Y25.996 E4698.0507
G0 F12000 X-21.999 Y25.499
G1 F2400 X-22 Y-25.499 E4700.17095
G0 F12000 X-22 Y-25.998
G1 F2400 X-22 Y-38.499 E4700.69069
G0 F12000 X-21.5 Y-38.499
G1 F2400 X-21.5 Y-25.998 E4701.21042
G0 F12000 X-21.5 Y-25.499
G1 F2400 X-21.499 Y25.499 E4703.33067
G0 F12000 X-21.499 Y25.996
G1 F2400 X-21.499 Y38.499 E4703.85048
G0 F12000 X-20.999 Y38.499
G1 F2400 X-20.999 Y25.996 E4704.3703
G0 F12000 X-20.999 Y25.499
G1 F2400 X-21 Y-25.499 E4706.49055
G0 F12000 X-21 Y-25.998
G1 F2400 X-21 Y-38.499 E4707.01028
G0 F12000 X-20.5 Y-38.499
G1 F2400 X-20.5 Y-25.998 E4707.53001
G0 F12000 X-20.5 Y-25.499
G1 F2400 X-20.499 Y25.499 E4709.65026
G0 F12000 X-20.499 Y25.996
G1 F2400 X-20.499 Y38.499 E4710.17007
G0 F12000 X-19.999 Y38.499
G1 F2400 X-19.999 Y25.996 E4710.68989
G0 F12000 X-19.999 Y25.499
G1 F2400 X-20 Y-25.499 E4712.81014
G0 F12000 X-20 Y-25.998
G1 F2400 X-20 Y-38.499 E4713.32987
G0 F12000 X-19.5 Y-38.499
G1 F2400 X-19.5 Y-25.997 E4713.84964
G0 F12000 X-19.5 Y-25.499
G1 F2400 X-19.499 Y25.499 E4715.96989
G0 F12000 X-19.499 Y25.995
G1 F2400 X-19.499 Y38.499 E4716.48975
G0 F12000 X-18.999 Y38.499
G1 F2400 X-18.999 Y25.995 E4717.0096
G0 F12000 X-18.999 Y25.499
G1 F2400 X-19 Y-25.499 E4719.12986
G0 F12000 X-19 Y-25.997
G1 F2400 X-19 Y-38.499 E4719.64963
G0 F12000 X-18.5 Y-38.499
G1 F2400 X-18.5 Y-25.997 E4720.1694
G0 F12000 X-18.5 Y-25.498
G1 F2400 X-18.499 Y25.5 E4722.28965
G0 F12000 X-18.499 Y25.995
G1 F2400 X-18.499 Y38.499 E4722.80951
G0 F12000 X-17.999 Y38.499
G1 F2400 X-17.999 Y25.995 E4723.32936
G0 F12000 X-17.999 Y25.5
G1 F2400 X-18 Y-25.498 E4725.44961
G0 F12000 X-18 Y-25.997
G1 F2400 X-18 Y-38.499 E4725.96939
G0 F12000 X-17.5 Y-38.499
G1 F2400 X-17.5 Y-25.997 E4726.48916
G0 F12000 X-17.5 Y-25.498
G1 F2400 X-17.499 Y25.5 E4728.60941
G0 F12000 X-17.499 Y25.995
G1 F2400 X-17.499 Y38.499 E4729.12927
G0 F12000 X-16.999 Y38.499
G1 F2400 X-16.999 Y25.995 E4729.64912
G0 F12000 X-16.999 Y25.5
G1 F2400 X-17 Y-25.498 E4731.76937
G0 F12000 X-17 Y-25.997
G1 F2400 X-17 Y-38.499 E4732.28914
G0 F12000 X-16.5 Y-38.499
G1 F2400 X-16.5 Y-25.997 E4732.80892
G0 F12000 X-16.5 Y-25.498
G1 F2400 X-16.499 Y25.5 E4734.92917
G0 F12000 X-16.499 Y25.995
G1 F2400 X-16.499 Y38.499 E4735.44902
G0 F12000 X-15.999 Y38.499
G1 F2400 X-15.999 Y25.995 E4735.96888
G0 F12000 X-15.999 Y25.5
G1 F2400 X-16 Y-25.498 E4738.08913
G0 F12000 X-16 Y-25.997
G1 F2400 X-16 Y-38.499 E4738.6089
G0 F12000 X-15.5 Y-38.499
G1 F2400 X-15.5 Y-25.997 E4739.12868
G0 F12000 X-15.5 Y-25.498
G1 F2400 X-15.499 Y25.5 E4741.24893
G0 F12000 X-15.499 Y25.995
G1 F2400 X-15.499 Y38.499 E4741.76878
G0 F12000 X-14.999 Y38.499
G1 F2400 X-14.999 Y25.995 E4742.28864
G0 F12000 X-14.999 Y25.5
G1 F2400 X-15 Y-25.498 E4744.40889
G0 F12000 X-15 Y-25.997
G1 F2400 X-15 Y-38.499 E4744.92866
G0 F12000 X-14.5 Y-38.499
G1 F2400 X-14.5 Y-25.998 E4745.44839
G0 F12000 X-14.5 Y-25.499
G1 F2400 X-14.499 Y25.5 E4747.56868
G0 F12000 X-14.499 Y25.995
G1 F2400 X-14.499 Y38.499 E4748.08854
G0 F12000 X-13.999 Y38.499
G1 F2400 X-13.999 Y25.995 E4748.6084
G0 F12000 X-13.999 Y25.5
G1 F2400 X-14 Y-25.499 E4750.72869
G0 F12000 X-14 Y-25.998
G1 F2400 X-14 Y-38.499 E4751.24842
G0 F12000 X-13.5 Y-38.499
G1 F2400 X-13.5 Y-25.998 E4751.76815
G0 F12000 X-13.5 Y-25.499
G1 F2400 X-13.499 Y25.5 E4753.88844
G0 F12000 X-13.499 Y25.995
G1 F2400 X-13.499 Y38.499 E4754.4083
G0 F12000 X-12.999 Y38.499
G1 F2400 X-12.999 Y25.995 E4754.92815
G0 F12000 X-12.999 Y25.5
G1 F2400 X-13 Y-25.499 E4757.04845
G0 F12000 X-13 Y-25.998
G1 F2400 X-13 Y-38.499 E4757.56818
G0 F12000 X-12.5 Y-38.499
G1 F2400 X-12.5 Y-25.998 E4758.08791
G0 F12000 X-12.5 Y-25.499
G1 F2400 X-12.499 Y25.5 E4760.2082
G0 F12000 X-12.499 Y25.995
G1 F2400 X-12.499 Y38.499 E4760.72806
G0 F12000 X-11.999 Y38.499
G1 F2400 X-11.999 Y25.995 E4761.24791
G0 F12000 X-11.999 Y25.5
G1 F2400 X-12 Y-25.499 E4763.3682
G0 F12000 X-12 Y-25.998
G1 F2400 X-12 Y-38.499 E4763.88794
G0 F12000 X-11.5 Y-38.499
G1 F2400 X-11.5 Y-25.998 E4764.40767
G0 F12000 X-11.5 Y-25.499
G1 F2400 X-11.499 Y25.5 E4766.52796
G0 F12000 X-11.499 Y25.995
G1 F2400 X-11.499 Y38.499 E4767.04781
G0 F12000 X-10.999 Y38.499
G1 F2400 X-10.999 Y25.995 E4767.56767
G0 F12000 X-10.999 Y25.5
G1 F2400 X-11 Y-25.499 E4769.68796
G0 F12000 X-11 Y-25.998
G1 F2400 X-11 Y-38.499 E4770.20769
G0 F12000 X-10.5 Y-38.499
G1 F2400 X-10.5 Y-25.998 E4770.72743
G0 F12000 X-10.5 Y-25.499
G1 F2400 X-10.499 Y25.5 E4772.84772
G0 F12000 X-10.499 Y25.995
G1 F2400 X-10.499 Y38.499 E4773.36757
G0 F12000 X-9.999 Y38.499
G1 F2400 X-9.999 Y25.995 E4773.88743
G0 F12000 X-9.999 Y25.5
G1 F2400 X-10 Y-25.499 E4776.00772
G0 F12000 X-10 Y-25.998
G1 F2400 X-10 Y-38.499 E4776.52745
G0 F12000 X-9.5 Y-38.499
G1 F2400 X-9.5 Y-25.998 E4777.04718
G0 F12000 X-9.5 Y-25.499
G1 F2400 X-9.499 Y25.5 E4779.16748
G0 F12000 X-9.499 Y25.995
G1 F2400 X-9.499 Y38.499 E4779.68733
G0 F12000 X-8.999 Y38.499
G1 F2400 X-8.999 Y25.995 E4780.20719
G0 F12000 X-8.999 Y25.5
G1 F2400 X-9 Y-25.499 E4782.32748
G0 F12000 X-9 Y-25.998
G1 F2400 X-9 Y-38.499 E4782.84721
G0 F12000 X-8.5 Y-38.499
G1 F2400 X-8.5 Y-25.998 E4783.36694
G0 F12000 X-8.5 Y-25.499
G1 F2400 X-8.499 Y25.5 E4785.48723
G0 F12000 X-8.499 Y25.994
G1 F2400 X-8.499 Y38.499 E4786.00713
G0 F12000 X-7.999 Y38.499
G1 F2400 X-7.999 Y25.994 E4786.52703
G0 F12000 X-7.999 Y25.5
G1 F2400 X-8 Y-25.499 E4788.64732
G0 F12000 X-8 Y-25.998
G1 F2400 X-8 Y-38.499 E4789.16705
G0 F12000 X-7.5 Y-38.499
G1 F2400 X-7.5 Y-25.998 E4789.68678
G0 F12000 X-7.5 Y-25.499
G1 F2400 X-7.499 Y25.5 E4791.80708
G0 F12000 X-7.499 Y25.994
G1 F2400 X-7.499 Y38.499 E4792.32697
G0 F12000 X-6.999 Y38.499
G1 F2400 X-6.999 Y25.994 E4792.84687
G0 F12000 X-6.999 Y25.5
G1 F2400 X-7 Y-25.499 E4794.96716
G0 F12000 X-7 Y-25.998
G1 F2400 X-7 Y-38.499 E4795.48689
G0 F12000 X-6.5 Y-38.499
G1 F2400 X-6.5 Y-25.998 E4796.00662
G0 F12000 X-6.5 Y-25.499
G1 F2400 X-6.499 Y25.5 E4798.12692
G0 F12000 X-6.499 Y25.994
G1 F2400 X-6.499 Y38.499 E4798.64681
G0 F12000 X-5.999 Y38.499
G1 F2400 X-5.999 Y25.994 E4799.16671
G0 F12000 X-5.999 Y25.5
G1 F2400 X-6 Y-25.499 E4801.287
G0 F12000 X-6 Y-25.998
G1 F2400 X-6 Y-38.499 E4801.80673
G0 F12000 X-5.5 Y-38.499
G1 F2400 X-5.5 Y-25.998 E4802.32647
G0 F12000 X-5.5 Y-25.499
G1 F2400 X-5.499 Y25.5 E4804.44676
G0 F12000 X-5.499 Y25.994
G1 F2400 X-5.499 Y38.499 E4804.96666
G0 F12000 X-4.999 Y38.499
G1 F2400 X-4.999 Y25.994 E4805.48655
G0 F12000 X-4.999 Y25.5
G1 F2400 X-5 Y-25.499 E4807.60685
G0 F12000 X-5 Y-25.998
G1 F2400 X-5 Y-38.499 E4808.12658
G0 F12000 X-4.5 Y-38.499
G1 F2400 X-4.5 Y-25.998 E4808.64631
G0 F12000 X-4.5 Y-25.499
G1 F2400 X-4.499 Y25.5 E4810.7666
G0 F12000 X-4.499 Y25.994
G1 F2400 X-4.499 Y38.499 E4811.2865
G0 F12000 X-3.999 Y38.499
G1 F2400 X-3.999 Y25.994 E4811.80639
G0 F12000 X-3.999 Y25.5
G1 F2400 X-4 Y-25.499 E4813.92669
G0 F12000 X-4 Y-25.998
G1 F2400 X-4 Y-38.499 E4814.44642
G0 F12000 X-3.5 Y-38.499
G1 F2400 X-3.5 Y-25.998 E4814.96615
G0 F12000 X-3.5 Y-25.499
G1 F2400 X-3.499 Y25.5 E4817.08644
G0 F12000 X-3.499 Y25.994
G1 F2400 X-3.499 Y38.499 E4817.60634
G0 F12000 X-2.999 Y38.499
G1 F2400 X-2.999 Y25.994 E4818.12624
G0 F12000 X-2.999 Y25.5
G1 F2400 X-3 Y-25.499 E4820.24653
G0 F12000 X-3 Y-25.998
G1 F2400 X-3 Y-38.499 E4820.76626
G0 F12000 X-2.5 Y-38.499
G1 F2400 X-2.5 Y-25.998 E4821.28599
G0 F12000 X-2.5 Y-25.499
G1 F2400 X-2.499 Y25.5 E4823.40628
G0 F12000 X-2.499 Y25.994
G1 F2400 X-2.499 Y38.499 E4823.92618
G0 F12000 X-1.999 Y38.499
G1 F2400 X-1.999 Y25.994 E4824.44608
G0 F12000 X-1.999 Y25.5
G1 F2400 X-2 Y-25.499 E4826.56637
G0 F12000 X-2 Y-25.998
G1 F2400 X-2 Y-38.499 E4827.0861
G0 F12000 X-1.5 Y-38.499
G1 F2400 X-1.5 Y-25.998 E4827.60583
G0 F12000 X-1.5 Y-25.499
G1 F2400 X-1.499 Y25.5 E4829.72612
G0 F12000 X-1.499 Y25.994
G1 F2400 X-1.499 Y38.499 E4830.24602
G0 F12000 X-0.999 Y38.499
G1 F2400 X-0.999 Y25.994 E4830.76592
G0 F12000 X-0.999 Y25.5
G1 F2400 X-1 Y-25.499 E4832.88621
G0 F12000 X-1 Y-25.998
G1 F2400 X-1 Y-38.499 E4833.40594
G0 F12000 X-0.5 Y-38.499
G1 F2400 X-0.5 Y-25.998 E4833.92567
G0 F12000 X-0.5 Y-25.499
G1 F2400 X-0.499 Y25.5 E4836.04597
G0 F12000 X-0.499 Y25.994
G1 F2400 X-0.499 Y38.499 E4836.56586
G0 F12000 X0 Y38.5
G1 F2400 X0 Y25.994 E4837.0858
G0 F12000 X0 Y25.5
G1 F2400 X0 Y-25.499 E4839.20609
G0 F12000 X0 Y-25.998
G1 F2400 X0 Y-38.499 E4839.72582
G0 F12000 X0.499 Y-38.498
G1 F2400 X0.499 Y-25.998 E4840.24551
G0 F12000 X0.499 Y-25.499
G1 F2400 X0.5 Y25.5 E4842.36581
G0 F12000 X0.5 Y25.994
G1 F2400 X0.5 Y38.5 E4842.88575
G0 F12000 X1 Y38.5
G1 F2400 X1 Y25.994 E4843.40568
G0 F12000 X1 Y25.5
G1 F2400 X0.999 Y-25.499 E4845.52598
G0 F12000 X0.999 Y-25.998
G1 F2400 X0.999 Y-38.498 E4846.04567
G0 F12000 X1.499 Y-38.498
G1 F2400 X1.499 Y-25.998 E4846.56536
G0 F12000 X1.499 Y-25.499
G1 F2400 X1.5 Y25.5 E4848.68565
G0 F12000 X1.5 Y25.994
G1 F2400 X1.5 Y38.5 E4849.20559
G0 F12000 X2 Y38.5
G1 F2400 X2 Y25.994 E4849.72553
G0 F12000 X2 Y25.5
G1 F2400 X1.999 Y-25.499 E4851.84582
G0 F12000 X1.999 Y-25.998
G1 F2400 X1.999 Y-38.498 E4852.36551
G0 F12000 X2.499 Y-38.498
G1 F2400 X2.499 Y-25.998 E4852.8852
G0 F12000 X2.499 Y-25.499
G1 F2400 X2.5 Y25.5 E4855.00549
G0 F12000 X2.5 Y25.993
G1 F2400 X2.5 Y38.5 E4855.52547
G0 F12000 X3 Y38.5
G1 F2400 X3 Y25.993 E4856.04545
G0 F12000 X3 Y25.5
G1 F2400 X2.999 Y-25.499 E4858.16574
G0 F12000 X2.999 Y-25.998
G1 F2400 X2.999 Y-38.498 E4858.68543
G0 F12000 X3.499 Y-38.498
G1 F2400 X3.499 Y-25.998 E4859.20512
G0 F12000 X3.499 Y-25.499
G1 F2400 X3.5 Y25.5 E4861.32541
G0 F12000 X3.5 Y25.993
G1 F2400 X3.5 Y38.5 E4861.84539
G0 F12000 X4 Y38.5
G1 F2400 X4 Y25.993 E4862.36538
G0 F12000 X4 Y25.5
G1 F2400 X3.999 Y-25.499 E4864.48567
G0 F12000 X3.999 Y-25.998
G1 F2400 X3.999 Y-38.498 E4865.00536
G0 F12000 X4.499 Y-38.498
G1 F2400 X4.499 Y-25.998 E4865.52505
G0 F12000 X4.499 Y-25.499
G1 F2400 X4.5 Y25.5 E4867.64534
G0 F12000 X4.5 Y25.993
G1 F2400 X4.5 Y38.5 E4868.16532
G0 F12000 X5 Y38.5
G1 F2400 X5 Y25.993 E4868.6853
G0 F12000 X5 Y25.5
G1 F2400 X4.999 Y-25.499 E4870.80559
G0 F12000 X4.999 Y-25.998
G1 F2400 X4.999 Y-38.498 E4871.32528
G0 F12000 X5.499 Y-38.498
G1 F2400 X5.499 Y-25.998 E4871.84497
G0 F12000 X5.499 Y-25.499
G1 F2400 X5.5 Y25.5 E4873.96526
G0 F12000 X5.5 Y25.993
G1 F2400 X5.5 Y38.5 E4874.48524
G0 F12000 X6 Y38.5
G1 F2400 X6 Y25.993 E4875.00522
G0 F12000 X6 Y25.5
G1 F2400 X5.999 Y-25.499 E4877.12552
G0 F12000 X5.999 Y-25.998
G1 F2400 X5.999 Y-38.498 E4877.64521
G0 F12000 X6.499 Y-38.498
G1 F2400 X6.499 Y-25.998 E4878.1649
G0 F12000 X6.499 Y-25.499
G1 F2400 X6.5 Y25.5 E4880.28519
G0 F12000 X6.5 Y25.993
G1 F2400 X6.5 Y38.5 E4880.80517
G0 F12000 X7 Y38.5
G1 F2400 X7 Y25.993 E4881.32515
G0 F12000 X7 Y25.5
G1 F2400 X6.999 Y-25.499 E4883.44544
G0 F12000 X6.999 Y-25.998
G1 F2400 X6.999 Y-38.498 E4883.96513
G0 F12000 X7.499 Y-38.498
G1 F2400 X7.499 Y-25.998 E4884.48482
G0 F12000 X7.499 Y-25.499
G1 F2400 X7.5 Y25.5 E4886.60511
G0 F12000 X7.5 Y25.993
G1 F2400 X7.5 Y38.5 E4887.12509
G0 F12000 X8 Y38.5
G1 F2400 X8 Y25.993 E4887.64507
G0 F12000 X8 Y25.5
G1 F2400 X7.999 Y-25.499 E4889.76537
G0 F12000 X7.999 Y-25.998
G1 F2400 X7.999 Y-38.498 E4890.28506
G0 F12000 X8.499 Y-38.498
G1 F2400 X8.499 Y-25.998 E4890.80474
G0 F12000 X8.499 Y-25.499
G1 F2400 X8.5 Y25.5 E4892.92504
G0 F12000 X8.5 Y25.993
G1 F2400 X8.5 Y38.5 E4893.44502
G0 F12000 X9 Y38.5
G1 F2400 X9 Y25.993 E4893.965
G0 F12000 X9 Y25.5
G1 F2400 X8.999 Y-25.499 E4896.08529
G0 F12000 X8.999 Y-25.998
G1 F2400 X8.999 Y-38.498 E4896.60498
G0 F12000 X9.499 Y-38.498
G1 F2400 X9.499 Y-25.998 E4897.12467
G0 F12000 X9.499 Y-25.499
G1 F2400 X9.5 Y25.5 E4899.24496
G0 F12000 X9.5 Y25.993
G1 F2400 X9.5 Y38.5 E4899.76494
G0 F12000 X10 Y38.5
G1 F2400 X10 Y25.993 E4900.28492
G0 F12000 X10 Y25.5
G1 F2400 X9.999 Y-25.499 E4902.40521
G0 F12000 X9.999 Y-25.998
G1 F2400 X9.999 Y-38.498 E4902.9249
G0 F12000 X10.499 Y-38.498
G1 F2400 X10.499 Y-25.998 E4903.44459
G0 F12000 X10.499 Y-25.499
G1 F2400 X10.5 Y25.5 E4905.56489
G0 F12000 X10.5 Y25.993
G1 F2400 X10.5 Y38.5 E4906.08487
G0 F12000 X11 Y38.5
G1 F2400 X11 Y25.993 E4906.60485
G0 F12000 X11 Y25.5
G1 F2400 X10.999 Y-25.499 E4908.72514
G0 F12000 X10.999 Y-25.998
G1 F2400 X10.999 Y-38.498 E4909.24483
G0 F12000 X11.499 Y-38.498
G1 F2400 X11.499 Y-25.998 E4909.76452
G0 F12000 X11.499 Y-25.499
G1 F2400 X11.5 Y25.5 E4911.88481
G0 F12000 X11.5 Y25.993
G1 F2400 X11.5 Y38.5 E4912.40479
G0 F12000 X12 Y38.5
G1 F2400 X12 Y25.993 E4912.92477
G0 F12000 X12 Y25.5
G1 F2400 X11.999 Y-25.499 E4915.04506
G0 F12000 X11.999 Y-25.998
G1 F2400 X11.999 Y-38.498 E4915.56475
G0 F12000 X12.499 Y-38.498
G1 F2400 X12.499 Y-25.998 E4916.08444
G0 F12000 X12.499 Y-25.499
G1 F2400 X12.5 Y25.5 E4918.20473
G0 F12000 X12.5 Y25.993
G1 F2400 X12.5 Y38.5 E4918.72472
G0 F12000 X13 Y38.5
G1 F2400 X13 Y25.993 E4919.2447
G0 F12000 X13 Y25.5
G1 F2400 X12.999 Y-25.499 E4921.36499
G0 F12000 X12.999 Y-25.998
G1 F2400 X12.999 Y-38.498 E4921.88468
G0 F12000 X13.499 Y-38.498
G1 F2400 X13.499 Y-25.998 E4922.40437
G0 F12000 X13.499 Y-25.499
G1 F2400 X13.5 Y25.5 E4924.52466
G0 F12000 X13.5 Y25.992
G1 F2400 X13.5 Y38.5 E4925.04468
G0 F12000 X14 Y38.5
G1 F2400 X14 Y25.992 E4925.5647
G0 F12000 X14 Y25.5
G1 F2400 X13.999 Y-25.499 E4927.685
G0 F12000 X13.999 Y-25.998
G1 F2400 X13.999 Y-38.498 E4928.20469
G0 F12000 X14.499 Y-38.498
G1 F2400 X14.499 Y-25.998 E4928.72438
G0 F12000 X14.499 Y-25.499
G1 F2400 X14.5 Y25.5 E4930.84467
G0 F12000 X14.5 Y25.992
G1 F2400 X14.5 Y38.5 E4931.36469
G0 F12000 X15 Y38.5
G1 F2400 X15 Y25.991 E4931.88475
G0 F12000 X15 Y25.499
G1 F2400 X14.999 Y-25.499 E4934.005
G0 F12000 X14.999 Y-25.998
G1 F2400 X14.999 Y-38.498 E4934.52469
G0 F12000 X15.499 Y-38.498
G1 F2400 X15.499 Y-25.998 E4935.04438
G0 F12000 X15.499 Y-25.499
G1 F2400 X15.5 Y25.499 E4937.16463
G0 F12000 X15.5 Y25.991
G1 F2400 X15.5 Y38.5 E4937.6847
G0 F12000 X16 Y38.5
G1 F2400 X16 Y25.991 E4938.20476
G0 F12000 X16 Y25.499
G1 F2400 X15.999 Y-25.499 E4940.32501
G0 F12000 X15.999 Y-25.998
G1 F2400 X15.999 Y-38.498 E4940.8447
G0 F12000 X16.499 Y-38.498
G1 F2400 X16.499 Y-25.998 E4941.36439
G0 F12000 X16.499 Y-25.499
G1 F2400 X16.5 Y25.499 E4943.48464
G0 F12000 X16.5 Y25.991
G1 F2400 X16.5 Y38.5 E4944.0047
G0 F12000 X17 Y38.5
G1 F2400 X17 Y25.991 E4944.52477
G0 F12000 X17 Y25.499
G1 F2400 X16.999 Y-25.499 E4946.64502
G0 F12000 X16.999 Y-25.998
G1 F2400 X16.999 Y-38.498 E4947.16471
G0 F12000 X17.499 Y-38.498
G1 F2400 X17.499 Y-25.998 E4947.6844
G0 F12000 X17.999 Y-25.998
G1 F2400 X17.999 Y-38.498 E4948.20409
G0 F12000 X18.499 Y-38.498
G1 F2400 X18.499 Y-25.998 E4948.72378
G0 F12000 X19.342 Y-26.498
G1 F2400 X19.499 Y-26.225 E4948.73687
G0 F12000 X19.5 Y-25
G1 F2400 X-58.499 Y-24.999 E4951.97969
G0 F12000 X-55.713 Y-26.498
G1 F2400 X-54.499 Y-24.395 E4952.08065
G0 F12000 X-49.94 Y-26.499
G1 F2400 X-49.074 Y-24.999 E4952.15266
G1 X-48.208 Y-26.499 E4952.22467
G0 F12000 X-44.166 Y-26.498
G1 F2400 X-43.301 Y-24.999 E4952.29662
G0 F12000 X-43.301 Y-25
G1 F2400 X-42.435 Y-26.499 E4952.36859
G0 F12000 X-38.393 Y-26.498
G1 F2400 X-37.527 Y-24.999 E4952.44057
G0 F12000 X-37.527 Y-25
G1 F2400 X-36.662 Y-26.499 E4952.51252
G0 F12000 X-32.619 Y-26.498
G1 F2400 X-31.753 Y-24.999 E4952.58449
G0 F12000 X-31.754 Y-24.999
G1 F2400 X-30.888 Y-26.499 E4952.6565
G0 F12000 X-26.845 Y-26.498
G1 F2400 X-25.98 Y-24.999 E4952.72846
G1 X-25.115 Y-26.498 E4952.80041
G0 F12000 X-21.072 Y-26.497
G1 F2400 X-20.207 Y-24.999 E4952.87233
G1 X-19.341 Y-26.499 E4952.94434
G0 F12000 X-15.298 Y-26.498
G1 F2400 X-14.433 Y-24.999 E4953.01629
G0 F12000 X-14.433 Y-25
G1 F2400 X-13.568 Y-26.499 E4953.08824
G0 F12000 X-9.525 Y-26.498
G1 F2400 X-8.659 Y-24.999 E4953.16022
G0 F12000 X-8.66 Y-24.999
G1 F2400 X-7.795 Y-26.498 E4953.23217
G0 F12000 X-3.751 Y-26.498
G1 F2400 X-2.886 Y-24.999 E4953.30412
G1 X-2.021 Y-26.498 E4953.37608
G0 F12000 X2.021 Y-26.497
G1 F2400 X2.887 Y-24.998 E4953.44805
G0 F12000 X2.886 Y-24.999
G1 F2400 X3.752 Y-26.499 E4953.52006
G0 F12000 X7.795 Y-26.497
G1 F2400 X8.66 Y-24.999 E4953.59198
G0 F12000 X8.659 Y-24.999
G1 F2400 X9.525 Y-26.499 E4953.66399
G0 F12000 X13.569 Y-26.497
G1 F2400 X14.434 Y-24.999 E4953.7359
G0 F12000 X14.433 Y-24.999
G1 F2400 X15.299 Y-26.498 E4953.80788
G0 F12000 X19.498 Y-23.772
G1 F2400 X16.999 Y-19.444 E4954.01565
G0 F12000 X17 Y-20
G1 F2400 X19.5 Y-20 E4954.11959
G0 F12000 X17 Y-20.554
G1 F2400 X19.499 Y-16.225 E4954.32741
G0 F12000 X19.5 Y-15
G1 F2400 X17 Y-15 E4954.43135
G0 F12000 X19.499 Y-13.773
G1 F2400 X16.999 Y-9.444 E4954.63918
G0 F12000 X17 Y-10
G1 F2400 X19.5 Y-10 E4954.74312
G0 F12000 X17 Y-10.555
G1 F2400 X19.499 Y-6.225 E4954.95097
G0 F12000 X19.5 Y-5
G1 F2400 X17 Y-5 E4955.05491
G0 F12000 X19.499 Y-3.773
G1 F2400 X16.999 Y0.555 E4955.26271
G0 F12000 X17 Y0
G1 F2400 X19.5 Y0 E4955.36664
G0 F12000 X16.999 Y-0.555
G1 F2400 X19.499 Y3.773 E4955.57444
G0 F12000 X19.5 Y4.999
G1 F2400 X17 Y4.999 E4955.67838
G0 F12000 X19.499 Y6.225
G1 F2400 X17 Y10.555 E4955.88623
G0 F12000 X17 Y9.999
G1 F2400 X19.5 Y9.999 E4955.99017
G0 F12000 X16.999 Y9.444
G1 F2400 X19.499 Y13.773 E4956.198
G0 F12000 X19.5 Y14.999
G1 F2400 X17 Y14.999 E4956.30194
G0 F12000 X19.499 Y16.225
G1 F2400 X17 Y20.554 E4956.50976
G0 F12000 X17 Y20
G1 F2400 X19.5 Y20 E4956.6137
G0 F12000 X16.999 Y19.444
G1 F2400 X19.499 Y23.773 E4956.82153
G0 F12000 X19.5 Y25
G1 F2400 X-58.499 Y25 E4960.06435
G0 F12000 X-55.714 Y26.5
G0 X-55.714 Y26.5
G1 F2400 X-54.499 Y24.395 E4960.1654
G0 F12000 X-49.94 Y26.499
G1 F2400 X-49.074 Y24.999 E4960.23741
G1 X-48.209 Y26.498 E4960.30936
G0 F12000 X-44.166 Y26.498
G1 F2400 X-43.301 Y24.999 E4960.38132
G1 X-42.436 Y26.498 E4960.45327
G0 F12000 X-38.392 Y26.497
G1 F2400 X-37.527 Y24.999 E4960.52519
G0 F12000 X-37.527 Y25
G1 F2400 X-36.663 Y26.497 E4960.59705
G0 F12000 X-32.618 Y26.497
G1 F2400 X-31.753 Y24.999 E4960.66896
G0 F12000 X-31.754 Y24.999
G1 F2400 X-30.89 Y26.496 E4960.74082
G0 F12000 X-26.844 Y26.496
G1 F2400 X-25.98 Y24.999 E4960.81268
G1 X-25.116 Y26.496 E4960.88454
G0 F12000 X-21.07 Y26.495
G1 F2400 X-20.207 Y24.999 E4960.95635
G1 X-19.343 Y26.495 E4961.02817
G0 F12000 X-15.297 Y26.495
G1 F2400 X-14.433 Y24.999 E4961.09999
G0 F12000 X-14.433 Y25
G1 F2400 X-13.57 Y26.494 E4961.17173
G0 F12000 X-9.522 Y26.494
G1 F2400 X-8.659 Y24.999 E4961.24349
G0 F12000 X-8.66 Y24.999
G1 F2400 X-7.797 Y26.494 E4961.31526
G0 F12000 X-3.749 Y26.493
G1 F2400 X-2.886 Y24.999 E4961.38699
G1 X-2.024 Y26.493 E4961.4587
G0 F12000 X2.024 Y26.492
G1 F2400 X2.887 Y24.998 E4961.53043
G0 F12000 X2.886 Y24.999
G1 F2400 X3.748 Y26.493 E4961.60215
G0 F12000 X7.798 Y26.492
G1 F2400 X8.66 Y24.999 E4961.67382
G0 F12000 X8.659 Y24.999
G1 F2400 X9.521 Y26.492 E4961.74549
G0 F12000 X13.572 Y26.491
G1 F2400 X14.434 Y24.999 E4961.81713
G0 F12000 X14.433 Y24.999
G1 F2400 X15.294 Y26.491 E4961.88875
G0 F12000 X17.5 Y25.991
G1 F2400 X17.5 Y38.5 E4962.40881
G0 F12000 X18 Y38.5
G1 F2400 X18 Y25.991 E4962.92888
G0 F12000 X18.5 Y25.991
G1 F2400 X18.5 Y38.5 E4963.44894
G0 F12000 X19 Y38.5
G1 F2400 X18.999 Y-38.498 E4966.65015
G0 F12000 X19.499 Y-38.498
G1 F2400 X19.5 Y38.5 E4969.85135
G0 F12000 X20 Y38.5
G1 F2400 X19.999 Y-38.498 E4973.05256
G0 F12000 X20.499 Y-38.498
G1 F2400 X20.5 Y38.5 E4976.25376
G0 F12000 X21 Y38.5
G1 F2400 X20.999 Y-38.498 E4979.45497
G0 F12000 X21.499 Y-38.498
G1 F2400 X21.5 Y38.5 E4982.65617
G0 F12000 X22 Y38.5
G1 F2400 X21.999 Y-38.498 E4985.85738
G0 F12000 X22.499 Y-38.498
G1 F2400 X22.5 Y38.5 E4989.05858
G0 F12000 X23 Y38.5
G1 F2400 X22.999 Y-38.498 E4992.25979
G0 F12000 X23.499 Y-38.498
G1 F2400 X23.5 Y38.5 E4995.46099
G0 F12000 X24 Y38.5
G1 F2400 X23.999 Y-38.498 E4998.6622
G0 F12000 X24.499 Y-38.498
G1 F2400 X24.5 Y38.5 E5001.8634
G0 F12000 X25 Y38.5
G1 F2400 X24.999 Y-38.498 E5005.0646
G0 F12000 X25.499 Y-38.498
G1 F2400 X25.5 Y38.5 E5008.26581
G0 F12000 X26 Y38.5
G1 F2400 X25.999 Y-38.498 E5011.46701
G0 F12000 X26.499 Y-38.498
G1 F2400 X26.5 Y38.5 E5014.66822
G0 F12000 X27 Y38.5
G1 F2400 X26.999 Y-38.498 E5017.86942
G0 F12000 X27.499 Y-38.498
G1 F2400 X27.5 Y38.5 E5021.07063
G0 F12000 X28 Y38.5
G1 F2400 X27.999 Y-38.498 E5024.27183
G0 F12000 X28.499 Y-38.498
G1 F2400 X28.5 Y38.5 E5027.47304
G0 F12000 X29 Y38.5
G1 F2400 X28.999 Y-38.498 E5030.67424
G0 F12000 X29.499 Y-38.498
G1 F2400 X29.5 Y38.5 E5033.87545
G0 F12000 X30 Y38.499
G1 F2400 X29.999 Y-38.498 E5037.07661
G0 F12000 X30.499 Y-38.498
G1 F2400 X30.5 Y38.499 E5040.27778
G0 F12000 X31 Y38.499
G1 F2400 X30.999 Y-38.498 E5043.47894
G0 F12000 X31.499 Y-38.498
G1 F2400 X31.5 Y38.499 E5046.6801
G0 F12000 X32 Y38.499
G1 F2400 X31.999 Y-38.498 E5049.88126
G0 F12000 X32.499 Y-38.498
G1 F2400 X32.5 Y38.499 E5053.08243
G0 F12000 X33 Y38.499
G1 F2400 X32.999 Y-38.498 E5056.28359
G0 F12000 X33.499 Y-38.498
G1 F2400 X33.5 Y38.499 E5059.48475
G0 F12000 X34 Y38.499
G1 F2400 X33.999 Y-38.498 E5062.68592
G0 F12000 X34.499 Y-38.498
G1 F2400 X34.5 Y38.499 E5065.88708
G0 F12000 X35 Y38.499
G1 F2400 X34.999 Y-38.498 E5069.08824
G0 F12000 X35.499 Y-38.498
G1 F2400 X35.5 Y38.499 E5072.28941
G0 F12000 X36 Y38.499
G1 F2400 X35.999 Y-38.498 E5075.49057
G0 F12000 X36.499 Y-38.498
G1 F2400 X36.5 Y38.499 E5078.69173
G0 F12000 X37 Y38.499
G1 F2400 X36.999 Y-38.498 E5081.8929
G0 F12000 X37.499 Y-38.498
G1 F2400 X37.5 Y38.499 E5085.09406
G0 F12000 X38 Y38.499
G1 F2400 X37.999 Y-38.498 E5088.29522
G0 F12000 X38.499 Y-38.498
G1 F2400 X38.5 Y38.499 E5091.49639
G0 F12000 X39 Y38.499
G1 F2400 X38.999 Y-38.498 E5094.69755
G0 F12000 X39.499 Y-38.498
G1 F2400 X39.5 Y38.499 E5097.89871
G0 F12000 X40 Y38.499
G1 F2400 X39.999 Y-38.498 E5101.09988
G0 F12000 X40.499 Y-38.498
G1 F2400 X40.5 Y38.499 E5104.30104
G0 F12000 X41 Y38.499
G1 F2400 X40.999 Y-38.498 E5107.5022
G0 F12000 X41.499 Y-38.498
G1 F2400 X41.5 Y38.499 E5110.70337
G0 F12000 X42 Y38.499
G1 F2400 X41.999 Y-38.498 E5113.90453
G0 F12000 X42.499 Y-38.498
G1 F2400 X42.5 Y38.499 E5117.10569
G0 F12000 X43 Y38.499
G1 F2400 X42.999 Y-38.498 E5120.30686
G0 F12000 X43.499 Y-38.498
G1 F2400 X43.5 Y38.499 E5123.50802
G0 F12000 X44 Y38.499
G1 F2400 X43.999 Y-38.498 E5126.70918
G0 F12000 X44.499 Y-38.498
G1 F2400 X44.5 Y38.499 E5129.91035
G0 F12000 X45 Y38.499
G1 F2400 X44.999 Y-38.498 E5133.11151
G0 F12000 X45.499 Y-38.498
G1 F2400 X45.5 Y38.499 E5136.31267
G0 F12000 X46 Y38.499
G1 F2400 X45.999 Y-38.498 E5139.51384
G0 F12000 X46.499 Y-38.498
G1 F2400 X46.5 Y38.499 E5142.715
G0 F12000 X47 Y38.499
G1 F2400 X46.999 Y-38.498 E5145.91616
G0 F12000 X47.499 Y-38.498
G1 F2400 X47.5 Y38.499 E5149.11733
G0 F12000 X48 Y38.499
G1 F2400 X47.999 Y-38.498 E5152.31849
G0 F12000 X48.499 Y-38.498
G1 F2400 X48.5 Y38.499 E5155.51965
G0 F12000 X49 Y38.499
G1 F2400 X48.999 Y-38.498 E5158.72082
G0 F12000 X49.499 Y-38.498
G1 F2400 X49.5 Y38.499 E5161.92198
G0 F12000 X50 Y38.499
G1 F2400 X49.999 Y-38.498 E5165.12314
G0 F12000 X50.499 Y-38.498
G1 F2400 X50.5 Y38.499 E5168.32431
G0 F12000 X51 Y38.499
G1 F2400 X50.999 Y-38.498 E5171.52547
G0 F12000 X51.499 Y-38.498
G1 F2400 X51.5 Y38.499 E5174.72663
G0 F12000 X52 Y38.499
G1 F2400 X51.999 Y-38.498 E5177.9278
G0 F12000 X52.499 Y-38.498
G1 F2400 X52.5 Y38.499 E5181.12896
G0 F12000 X53 Y38.499
G1 F2400 X52.999 Y-38.498 E5184.33012
G0 F12000 X53.499 Y-38.498
G1 F2400 X53.5 Y38.499 E5187.53129
G0 F12000 X54 Y38.499
G1 F2400 X53.999 Y-38.498 E5190.73245
G0 F12000 X54.499 Y-38.498
G1 F2400 X54.5 Y38.499 E5193.93361
G0 F12000 X55 Y38.499
G1 F2400 X54.999 Y-38.498 E5197.13478
G0 F12000 X55.499 Y-38.498
G1 F2400 X55.5 Y38.499 E5200.33594
G0 F12000 X56 Y38.499
G1 F2400 X55.999 Y-38.498 E5203.5371
G0 F12000 X56.499 Y-38.498
G1 F2400 X56.5 Y38.499 E5206.73827
G0 F12000 X57 Y38.499
G1 F2400 X56.999 Y-38.498 E5209.93943
G0 F12000 X57.499 Y-38.498
G1 F2400 X57.5 Y38.499 E5213.14059
G0 F12000 X58 Y38.499
G1 F2400 X57.999 Y-38.498 E5216.34176
G0 F12000 X19.499 Y26.225
G1 F2400 X19.346 Y26.491 E5216.35451
; Layer Change GCode
; LAYER:6
G0 F12000 X-59.302 Y39.369 Z1.5
G0 X-59.697 Y39.434
G0 X-59.489 Y39.4
G0 X-59.489 Y39.4
G0 X-59.749 Y39.75
G0 X-59.749 Y39.75
G0 X-58.749 Y38.75
; TYPE:WALL-INNER
G1 F2400 X-58.749 Y38.75 E5216.35451
G1 X-58.749 Y-38.749 E5219.57655
G1 X58.75 Y-38.749 E5224.46159
G1 X58.75 Y38.75 E5227.68362
G1 X-58.749 Y38.75 E5232.56866
G0 F12000 X-59.249 Y39.25
G1 F2400 X-59.249 Y39.25 E5232.56866
G1 X-59.249 Y-39.249 E5235.83227
G1 X59.25 Y-39.249 E5240.75889
G1 X59.25 Y39.25 E5244.0225
G1 X-59.249 Y39.25 E5248.94911
G0 F12000 X-59.749 Y39.75
; TYPE:WALL-OUTER
G1 F1800 X-59.749 Y39.75 E5248.94911
G1 X-59.749 Y-39.749 E5252.2543
G1 X59.75 Y-39.749 E5257.22249
G1 X59.75 Y39.75 E5260.52767
G1 X-59.749 Y39.75 E5265.49586
G0 F12000 X-59.489 Y39.4
G0 X-58.499 Y38
G0 X-58.499 Y38
; TYPE:FILL
G1 F2400 X58.5 Y38 E5270.36012
G0 F12000 X58.5 Y37.5
G1 F2400 X-58.499 Y37.5 E5275.22437
G0 F12000 X-58.499 Y37
G1 F2400 X58.5 Y37 E5280.08862
G0 F12000 X58.5 Y36.5
G1 F2400 X-58.499 Y36.5 E5284.95288
G0 F12000 X-58.499 Y36
G1 F2400 X58.5 Y36 E5289.81713
G0 F12000 X58.5 Y35.5
G1 F2400 X-58.499 Y35.5 E5294.68138
G0 F12000 X-58.499 Y35
G1 F2400 X58.5 Y35 E5299.54564
G0 F12000 X58.5 Y34.5
G1 F2400 X-58.499 Y34.5 E5304.40989
G0 F12000 X-58.499 Y34
G1 F2400 X58.5 Y34 E5309.27414
G0 F12000 X58.5 Y33.5
G1 F2400 X-58.499 Y33.5 E5314.1384
G0 F12000 X-58.499 Y33
G1 F2400 X58.5 Y33 E5319.00265
G0 F12000 X58.5 Y32.499
G1 F2400 X-58.499 Y32.5 E5323.8669
G0 F12000 X-58.499 Y32
G1 F2400 X58.5 Y31.999 E5328.73115
G0 F12000 X58.5 Y31.499
G1 F2400 X-58.499 Y31.5 E5333.59541
G0 F12000 X-58.499 Y31
G1 F2400 X58.5 Y30.999 E5338.45966
G0 F12000 X58.5 Y30.499
G1 F2400 X-58.499 Y30.5 E5343.32391
G0 F12000 X-58.499 Y30
G1 F2400 X58.5 Y29.999 E5348.18817
G0 F12000 X58.5 Y29.499
G1 F2400 X-58.499 Y29.5 E5353.05242
G0 F12000 X-58.499 Y29
G1 F2400 X58.5 Y28.999 E5357.91667
G0 F12000 X58.5 Y28.499
G1 F2400 X-58.499 Y28.5 E5362.78093
G0 F12000 X-58.499 Y28
G1 F2400 X58.5 Y27.999 E5367.64518
G0 F12000 X58.5 Y27.499
G1 F2400 X-58.499 Y27.5 E5372.50943
G0 F12000 X-58.499 Y27
G1 F2400 X58.5 Y26.999 E5377.37369
G0 F12000 X58.5 Y26.499
G1 F2400 X-58.499 Y26.5 E5382.23794
G0 F12000 X-58.499 Y26
G1 F2400 X58.5 Y25.999 E5387.10219
G0 F12000 X58.5 Y25.499
G1 F2400 X19 Y25.5 E5388.74441
G0 F12000 X19 Y25
G1 F2400 X58.5 Y24.999 E5390.38663
G0 F12000 X58.5 Y24.499
G1 F2400 X19 Y24.5 E5392.02885
G0 F12000 X19 Y24
G1 F2400 X58.5 Y23.999 E5393.67107
G0 F12000 X58.5 Y23.499
G1 F2400 X19 Y23.5 E5395.31329
G0 F12000 X19 Y23
G1 F2400 X58.5 Y22.999 E5396.95551
G0 F12000 X58.5 Y22.499
G1 F2400 X19 Y22.5 E5398.59773
G0 F12000 X19 Y22
G1 F2400 X58.5 Y21.999 E5400.23995
G0 F12000 X58.5 Y21.499
G1 F2400 X19 Y21.5 E5401.88217
G0 F12000 X19 Y21
G1 F2400 X58.5 Y20.999 E5403.52438
