; Generated with MatterSlice 1.0
; filamentDiameter = 1.75
; extrusionWidth = 0.5
; firstLayerExtrusionWidth = 0.625
; layerThickness = 0.2
; firstLayerThickness = 0.3
; automatic settings before start_gcode
G21 ; set units to millimeters
M107 ; fan off
M190 S60 ; wait for bed temperature to be reached
M104 T0 S210 ; start heating extruder 1
M109 T0 S210 ; wait for extruder 1
T0 ; set the active extruder to 0
; settings from start_gcode
G28
; automatic settings after start_gcode
T0 ; set the active extruder to 0
G90 ; use absolute coordinates
G92 E0 ; reset the expected extruder position
M82 ; use absolute distance for extrusion
; Layer count: 130
; Layer Change GCode
; LAYER:0
G4 P0
M107
G0 F12000 X60.902 Y-42.492 Z0.8
; TYPE:SKIRT
G1 Z0.3
G1 F6000 E0
G1 F900 X62.398 Y-41.098 E0.1594
G1 X63.066 Y-39.158 E0.31934
G1 X63.066 Y39.161 E6.42458
G1 X62.399 Y41.091 E6.58376
G1 X60.91 Y42.491 E6.74308
G1 X59.115 Y43.066 E6.89001
G1 X-59.115 Y43.066 E16.10645
G1 X-60.91 Y42.491 E16.25338
G1 X-62.399 Y41.091 E16.4127
G1 X-63.066 Y39.161 E16.57188
G1 X-63.066 Y-39.158 E22.67712
G1 X-62.398 Y-41.098 E22.83706
G1 X-60.902 Y-42.492 E22.99646
G1 X-59.115 Y-43.065 E23.14275
G1 X59.115 Y-43.065 E32.35918
G1 X60.902 Y-42.492 E32.50547
G0 F12000 X60.578 Y-41.94
G1 F900 X61.857 Y-40.747 E32.64182
G1 X62.441 Y-39.053 E32.7815
G1 X62.441 Y39.056 E38.87036
G1 X61.859 Y40.742 E39.0094
G1 X60.585 Y41.939 E39.14567
G1 X59.018 Y42.441 E39.27394
G1 X-59.018 Y42.441 E48.47525
G1 X-60.585 Y41.939 E48.60352
G1 X-61.859 Y40.742 E48.73979
G1 X-62.441 Y39.056 E48.87883
G1 X-62.441 Y-39.053 E54.9677
G1 X-61.857 Y-40.747 E55.10738
G1 X-60.578 Y-41.94 E55.24372
G1 X-59.018 Y-42.44 E55.37142
G1 X59.018 Y-42.44 E64.57273
G1 X60.578 Y-41.94 E64.70043
G1 F6000 E62.90043
G1 Z0.8
G0 F12000 X-58.452 Y38.817
; TYPE:WALL-OUTER
G1 Z0.3
G1 F6000 E64.70043
G1 F900 X-58.452 Y38.817 E64.70043
G1 X-58.699 Y38.738 E64.72065
G1 X-58.725 Y38.714 E64.72341
G1 X-58.817 Y38.447 E64.74542
G1 X-58.817 Y-38.446 E70.7395
G1 X-58.725 Y-38.713 E70.76151
G1 X-58.7 Y-38.736 E70.76416
G1 X-58.452 Y-38.816 E70.78447
G1 X58.452 Y-38.816 E79.89754
G1 X58.7 Y-38.736 E79.91786
G1 X58.725 Y-38.713 E79.9205
G1 X58.817 Y-38.446 E79.94252
G1 X58.817 Y38.447 E85.93659
G1 X58.725 Y38.714 E85.95861
G1 X58.699 Y38.738 E85.96136
G1 X58.452 Y38.817 E85.98158
G1 X-58.452 Y38.817 E95.09465
G0 F12000 X-58.193 Y38.193
; TYPE:WALL-INNER
G1 F900 X-58.193 Y38.193 E95.09465
G1 X-58.193 Y-38.192 E101.04912
G1 X58.193 Y-38.192 E110.12181
G1 X58.193 Y38.193 E116.07629
G1 X-58.193 Y38.193 E125.14897
G0 F12000 X-57.569 Y37.569
G1 F900 X-57.569 Y37.569 E125.14897
G1 X-57.569 Y-37.568 E131.00616
G1 X57.569 Y-37.568 E139.98157
G1 X57.569 Y37.569 E145.83875
G1 X-57.569 Y37.569 E154.81416
G0 F12000 X-57.194 Y36.875
; TYPE:BOTTOM-FILL
G1 F900 X57.194 Y36.875 E163.7311
G0 F12000 X57.194 Y36.25
G1 F900 X-57.194 Y36.25 E172.64803
G0 F12000 X-57.194 Y35.625
G1 F900 X57.194 Y35.625 E181.56497
G0 F12000 X57.194 Y35
G1 F900 X-57.194 Y35 E190.48191
G0 F12000 X-57.194 Y34.375
G1 F900 X57.194 Y34.375 E199.39885
G0 F12000 X57.194 Y33.75
G1 F900 X-57.194 Y33.75 E208.31579
G0 F12000 X-57.194 Y33.125
G1 F900 X57.194 Y33.125 E217.23272
G0 F12000 X57.194 Y32.499
G1 F900 X-57.194 Y32.5 E226.14966
G0 F12000 X-57.194 Y31.875
G1 F900 X57.194 Y31.874 E235.0666
G0 F12000 X57.194 Y31.249
G1 F900 X-57.194 Y31.25 E243.98354
G0 F12000 X-57.194 Y30.625
G1 F900 X57.194 Y30.624 E252.90048
G0 F12000 X57.194 Y29.999
G1 F900 X-57.194 Y30 E261.81742
G0 F12000 X-57.194 Y29.375
G1 F900 X57.194 Y29.374 E270.73435
G0 F12000 X57.194 Y28.749
G1 F900 X-57.194 Y28.75 E279.65129
G0 F12000 X-57.194 Y28.125
G1 F900 X57.194 Y28.124 E288.56823
G0 F12000 X57.194 Y27.499
G1 F900 X-57.194 Y27.5 E297.48517
G0 F12000 X-57.194 Y26.875
G1 F900 X57.194 Y26.874 E306.40211
G0 F12000 X57.194 Y26.249
G1 F900 X-57.194 Y26.25 E315.31905
G0 F12000 X-57.194 Y25.625
G1 F900 X57.194 Y25.624 E324.23598
G0 F12000 X57.194 Y24.999
G1 F900 X-57.194 Y25 E333.15292
G0 F12000 X-57.194 Y24.375
G1 F900 X57.194 Y24.374 E342.06986
G0 F12000 X57.194 Y23.749
G1 F900 X-57.194 Y23.75 E350.9868
G0 F12000 X-57.194 Y23.125
G1 F900 X57.194 Y23.124 E359.90374
G0 F12000 X57.194 Y22.499
G1 F900 X-57.194 Y22.5 E368.82068
G0 F12000 X-57.194 Y21.875
G1 F900 X57.194 Y21.874 E377.73761
G0 F12000 X57.194 Y21.249
G1 F900 X-57.194 Y21.25 E386.65455
G0 F12000 X-57.194 Y20.625
G1 F900 X57.194 Y20.624 E395.57149
G0 F12000 X57.194 Y19.999
G1 F900 X-57.194 Y20 E404.48843
G0 F12000 X-57.194 Y19.375
G1 F900 X57.194 Y19.374 E413.40537
G0 F12000 X57.194 Y18.749
G1 F900 X-57.194 Y18.75 E422.3223
G0 F12000 X-57.194 Y18.125
G1 F900 X57.194 Y18.124 E431.23924
G0 F12000 X57.194 Y17.499
G1 F900 X-57.194 Y17.5 E440.15618
G0 F12000 X-57.194 Y16.875
G1 F900 X57.194 Y16.874 E449.07312
G0 F12000 X57.194 Y16.249
G1 F900 X-57.194 Y16.25 E457.99006
G0 F12000 X-57.194 Y15.625
G1 F900 X57.194 Y15.624 E466.907
G0 F12000 X57.194 Y14.999
G1 F900 X-57.194 Y15 E475.82393
G0 F12000 X-57.194 Y14.375
G1 F900 X57.194 Y14.374 E484.74087
G0 F12000 X57.194 Y13.749
G1 F900 X-57.194 Y13.75 E493.65781
G0 F12000 X-57.194 Y13.125
G1 F900 X57.194 Y13.124 E502.57475
G0 F12000 X57.194 Y12.499
G1 F900 X-57.194 Y12.5 E511.49169
G0 F12000 X-57.194 Y11.875
G1 F900 X57.194 Y11.874 E520.40863
G0 F12000 X57.194 Y11.249
G1 F900 X-57.194 Y11.25 E529.32556
G0 F12000 X-57.194 Y10.625
G1 F900 X57.194 Y10.624 E538.2425
G0 F12000 X57.194 Y9.999
G1 F900 X-57.194 Y10 E547.15944
G0 F12000 X-57.194 Y9.375
G1 F900 X57.194 Y9.374 E556.07638
G0 F12000 X57.194 Y8.749
G1 F900 X-57.194 Y8.75 E564.99332
G0 F12000 X-57.194 Y8.125
G1 F900 X57.194 Y8.124 E573.91026
G0 F12000 X57.194 Y7.499
G1 F900 X-57.194 Y7.5 E582.82719
G0 F12000 X-57.194 Y6.875
G1 F900 X57.194 Y6.874 E591.74413
G0 F12000 X57.194 Y6.249
G1 F900 X-57.194 Y6.25 E600.66107
G0 F12000 X-57.194 Y5.625
G1 F900 X57.194 Y5.624 E609.57801
G0 F12000 X57.194 Y4.999
G1 F900 X-57.194 Y5 E618.49495
G0 F12000 X-57.194 Y4.375
G1 F900 X57.194 Y4.374 E627.41189
G0 F12000 X57.194 Y3.749
G1 F900 X-57.194 Y3.75 E636.32882
G0 F12000 X-57.194 Y3.125
G1 F900 X57.194 Y3.124 E645.24576
G0 F12000 X57.194 Y2.499
G1 F900 X-57.194 Y2.5 E654.1627
G0 F12000 X-57.194 Y1.875
G1 F900 X57.194 Y1.874 E663.07964
G0 F12000 X57.194 Y1.249
G1 F900 X-57.194 Y1.25 E671.99658
G0 F12000 X-57.194 Y0.625
G1 F900 X57.194 Y0.624 E680.91351
G0 F12000 X57.194 Y0
G1 F900 X-57.194 Y0 E689.83045
G0 F12000 X-57.194 Y-0.624
G1 F900 X57.194 Y-0.625 E698.74739
G0 F12000 X57.194 Y-1.25
G1 F900 X-57.194 Y-1.249 E707.66433
G0 F12000 X-57.194 Y-1.874
G1 F900 X57.194 Y-1.875 E716.58127
G0 F12000 X57.194 Y-2.5
G1 F900 X-57.194 Y-2.499 E725.49821
G0 F12000 X-57.194 Y-3.124
G1 F900 X57.194 Y-3.125 E734.41514
G0 F12000 X57.194 Y-3.75
G1 F900 X-57.194 Y-3.749 E743.33208
G0 F12000 X-57.194 Y-4.374
G1 F900 X57.194 Y-4.375 E752.24902
G0 F12000 X57.194 Y-5
G1 F900 X-57.194 Y-4.999 E761.16596
G0 F12000 X-57.194 Y-5.624
G1 F900 X57.194 Y-5.625 E770.0829
G0 F12000 X57.194 Y-6.25
G1 F900 X-57.194 Y-6.249 E778.99984
G0 F12000 X-57.194 Y-6.874
G1 F900 X57.194 Y-6.875 E787.91677
G0 F12000 X57.194 Y-7.5
G1 F900 X-57.194 Y-7.499 E796.83371
G0 F12000 X-57.194 Y-8.124
G1 F900 X57.194 Y-8.125 E805.75065
G0 F12000 X57.194 Y-8.75
G1 F900 X-57.194 Y-8.749 E814.66759
G0 F12000 X-57.194 Y-9.374
G1 F900 X57.194 Y-9.375 E823.58453
G0 F12000 X57.194 Y-10
G1 F900 X-57.194 Y-9.999 E832.50147
G0 F12000 X-57.194 Y-10.624
G1 F900 X57.194 Y-10.625 E841.4184
G0 F12000 X57.194 Y-11.25
G1 F900 X-57.194 Y-11.249 E850.33534
G0 F12000 X-57.194 Y-11.874
G1 F900 X57.194 Y-11.875 E859.25228
G0 F12000 X57.194 Y-12.5
G1 F900 X-57.194 Y-12.499 E868.16922
G0 F12000 X-57.194 Y-13.124
G1 F900 X57.194 Y-13.125 E877.08616
G0 F12000 X57.194 Y-13.75
G1 F900 X-57.194 Y-13.749 E886.00309
G0 F12000 X-57.194 Y-14.374
G1 F900 X57.194 Y-14.375 E894.92003
G0 F12000 X57.194 Y-15
G1 F900 X-57.194 Y-14.999 E903.83697
G0 F12000 X-57.194 Y-15.624
G1 F900 X57.194 Y-15.625 E912.75391
G0 F12000 X57.194 Y-16.25
G1 F900 X-57.194 Y-16.249 E921.67085
G0 F12000 X-57.194 Y-16.874
G1 F900 X57.194 Y-16.875 E930.58779
G0 F12000 X57.194 Y-17.5
G1 F900 X-57.194 Y-17.499 E939.50472
G0 F12000 X-57.194 Y-18.124
G1 F900 X57.194 Y-18.125 E948.42166
G0 F12000 X57.194 Y-18.75
G1 F900 X-57.194 Y-18.749 E957.3386
G0 F12000 X-57.194 Y-19.374
G1 F900 X57.194 Y-19.375 E966.25554
G0 F12000 X57.194 Y-20
G1 F900 X-57.194 Y-19.999 E975.17248
G0 F12000 X-57.194 Y-20.624
G1 F900 X57.194 Y-20.625 E984.08942
G0 F12000 X57.194 Y-21.25
G1 F900 X-57.194 Y-21.249 E993.00635
G0 F12000 X-57.194 Y-21.874
G1 F900 X57.194 Y-21.875 E1001.92329
G0 F12000 X57.194 Y-22.5
G1 F900 X-57.194 Y-22.499 E1010.84023
G0 F12000 X-57.194 Y-23.124
G1 F900 X57.194 Y-23.125 E1019.75717
G0 F12000 X57.194 Y-23.75
G1 F900 X-57.194 Y-23.749 E1028.67411
G0 F12000 X-57.194 Y-24.374
G1 F900 X57.194 Y-24.375 E1037.59105
G0 F12000 X57.194 Y-25
G1 F900 X-57.194 Y-24.999 E1046.50798
G0 F12000 X-57.194 Y-25.624
G1 F900 X57.194 Y-25.625 E1055.42492
G0 F12000 X57.194 Y-26.25
G1 F900 X-57.194 Y-26.249 E1064.34186
G0 F12000 X-57.194 Y-26.874
G1 F900 X57.194 Y-26.875 E1073.2588
G0 F12000 X57.194 Y-27.5
G1 F900 X-57.194 Y-27.499 E1082.17574
G0 F12000 X-57.194 Y-28.124
G1 F900 X57.194 Y-28.125 E1091.09268
G0 F12000 X57.194 Y-28.75
G1 F900 X-57.194 Y-28.749 E1100.00961
G0 F12000 X-57.194 Y-29.374
G1 F900 X57.194 Y-29.375 E1108.92655
G0 F12000 X57.194 Y-30
G1 F900 X-57.194 Y-29.999 E1117.84349
G0 F12000 X-57.194 Y-30.624
G1 F900 X57.194 Y-30.625 E1126.76043
G0 F12000 X57.194 Y-31.25
G1 F900 X-57.194 Y-31.249 E1135.67737
G0 F12000 X-57.194 Y-31.874
G1 F900 X57.194 Y-31.875 E1144.5943
G0 F12000 X57.194 Y-32.5
G1 F900 X-57.194 Y-32.499 E1153.51124
G0 F12000 X-57.194 Y-33.125
G1 F900 X57.194 Y-33.125 E1162.42818
G0 F12000 X57.194 Y-33.75
G1 F900 X-57.194 Y-33.75 E1171.34512
G0 F12000 X-57.194 Y-34.375
G1 F900 X57.194 Y-34.375 E1180.26206
G0 F12000 X57.194 Y-35
G1 F900 X-57.194 Y-35 E1189.179
G0 F12000 X-57.194 Y-35.625
G1 F900 X57.194 Y-35.625 E1198.09593
G0 F12000 X57.194 Y-36.25
G1 F900 X-57.194 Y-36.25 E1207.01287
G0 F12000 X-57.194 Y-36.875
G1 F900 X57.194 Y-36.875 E1215.92981
; Layer Change GCode
; LAYER:1
G0 F12000 X-58.45 Y38.91 Z0.5
G0 X-58.45 Y38.91
G0 X-58.482 Y39.259
G0 X-58.482 Y39.259
G0 X-58.259 Y38.259
; TYPE:WALL-INNER
G1 F2400 X-58.259 Y38.259 E1215.92981
G1 X-58.259 Y-38.259 E1219.11106
G1 X58.259 Y-38.259 E1223.95532
G1 X58.259 Y38.259 E1227.13656
G1 X-58.259 Y38.259 E1231.98082
G0 F12000 X-58.759 Y38.422
G1 F2400 X-58.759 Y38.422 E1231.98082
G1 X-58.759 Y-38.422 E1235.17562
G1 X-58.725 Y-38.581 E1235.18238
G1 X-58.649 Y-38.689 E1235.18787
G1 X-58.55 Y-38.74 E1235.1925
G1 X-58.439 Y-38.759 E1235.19718
G1 X58.439 Y-38.759 E1240.05641
G1 X58.55 Y-38.74 E1240.06109
G1 X58.649 Y-38.689 E1240.06572
G1 X58.725 Y-38.581 E1240.07121
G1 X58.759 Y-38.422 E1240.07797
G1 X58.759 Y38.422 E1243.27277
G1 X58.725 Y38.581 E1243.27953
G1 X58.649 Y38.689 E1243.28502
G1 X58.55 Y38.74 E1243.28965
G1 X58.439 Y38.759 E1243.29433
G1 X-58.439 Y38.759 E1248.15356
G1 X-58.55 Y38.74 E1248.15824
G1 X-58.649 Y38.689 E1248.16287
G1 X-58.725 Y38.581 E1248.16836
G1 X-58.759 Y38.422 E1248.17512
G0 F12000 X-58.482 Y39.259
; TYPE:WALL-OUTER
G1 F1800 X-58.482 Y39.259 E1248.17512
G1 X-58.712 Y39.22 E1248.18482
G1 X-58.987 Y39.077 E1248.1977
G1 X-59.193 Y38.785 E1248.21256
G1 X-59.259 Y38.476 E1248.2257
G1 X-59.259 Y-38.475 E1251.42495
G1 X-59.193 Y-38.785 E1251.43812
G1 X-58.987 Y-39.077 E1251.45298
G1 X-58.712 Y-39.22 E1251.46587
G1 X-58.482 Y-39.259 E1251.47557
G1 X58.482 Y-39.259 E1256.33837
G1 X58.712 Y-39.22 E1256.34806
G1 X58.987 Y-39.077 E1256.36095
G1 X59.193 Y-38.785 E1256.37581
G1 X59.259 Y-38.475 E1256.38898
G1 X59.259 Y38.476 E1259.58824
G1 X59.193 Y38.785 E1259.60137
G1 X58.987 Y39.077 E1259.61623
G1 X58.712 Y39.22 E1259.62912
G1 X58.482 Y39.259 E1259.63881
G1 X-58.482 Y39.259 E1264.50161
G0 F12000 X-58.45 Y38.91
G0 X-57.499 Y37.818
G0 X-57.499 Y37.818
; TYPE:FILL
G1 F2400 X-57.5 Y-37.817 E1267.64615
G0 F12000 X-57 Y-37.817
G1 F2400 X-56.999 Y37.818 E1270.79069
G0 F12000 X-56.499 Y37.818
G1 F2400 X-56.5 Y-37.817 E1273.93523
G0 F12000 X-56 Y-37.817
G1 F2400 X-55.999 Y37.818 E1277.07976
G0 F12000 X-55.499 Y37.818
G1 F2400 X-55.5 Y-37.817 E1280.2243
G0 F12000 X-55 Y-37.817
G1 F2400 X-54.999 Y37.818 E1283.36884
G0 F12000 X-54.499 Y37.818
G1 F2400 X-54.5 Y-37.817 E1286.51338
G0 F12000 X-54 Y-37.817
G1 F2400 X-53.999 Y37.818 E1289.65792
G0 F12000 X-53.499 Y37.818
G1 F2400 X-53.5 Y-37.817 E1292.80245
G0 F12000 X-53 Y-37.817
G1 F2400 X-52.999 Y37.818 E1295.94699
G0 F12000 X-52.499 Y37.818
G1 F2400 X-52.5 Y-37.817 E1299.09153
G0 F12000 X-52 Y-37.817
G1 F2400 X-51.999 Y37.818 E1302.23607
G0 F12000 X-51.499 Y37.818
G1 F2400 X-51.5 Y-37.817 E1305.38061
G0 F12000 X-51 Y-37.817
G1 F2400 X-50.999 Y37.818 E1308.52514
G0 F12000 X-50.499 Y37.818
G1 F2400 X-50.5 Y-37.817 E1311.66968
G0 F12000 X-50 Y-37.817
G1 F2400 X-49.999 Y37.818 E1314.81422
G0 F12000 X-49.499 Y37.818
G1 F2400 X-49.5 Y-37.817 E1317.95876
G0 F12000 X-49 Y-37.817
G1 F2400 X-48.999 Y37.818 E1321.10329
G0 F12000 X-48.499 Y37.818
G1 F2400 X-48.5 Y-37.817 E1324.24783
G0 F12000 X-48 Y-37.817
G1 F2400 X-47.999 Y37.818 E1327.39237
G0 F12000 X-47.499 Y37.818
G1 F2400 X-47.5 Y-37.817 E1330.53691
G0 F12000 X-47 Y-37.817
G1 F2400 X-46.999 Y37.818 E1333.68145
G0 F12000 X-46.499 Y37.818
G1 F2400 X-46.5 Y-37.817 E1336.82598
G0 F12000 X-46 Y-37.817
G1 F2400 X-45.999 Y37.818 E1339.97052
G0 F12000 X-45.499 Y37.818
G1 F2400 X-45.5 Y-37.817 E1343.11506
G0 F12000 X-45 Y-37.817
G1 F2400 X-44.999 Y37.818 E1346.2596
G0 F12000 X-44.499 Y37.818
G1 F2400 X-44.5 Y-37.817 E1349.40414
G0 F12000 X-44 Y-37.817
G1 F2400 X-43.999 Y37.818 E1352.54867
G0 F12000 X-43.499 Y37.818
G1 F2400 X-43.5 Y-37.817 E1355.69321
G0 F12000 X-43 Y-37.817
G1 F2400 X-42.999 Y37.818 E1358.83775
G0 F12000 X-42.499 Y37.818
G1 F2400 X-42.5 Y-37.817 E1361.98229
G0 F12000 X-42 Y-37.817
G1 F2400 X-41.999 Y37.818 E1365.12682
G0 F12000 X-41.499 Y37.818
G1 F2400 X-41.5 Y-37.817 E1368.27136
G0 F12000 X-41 Y-37.817
G1 F2400 X-40.999 Y37.818 E1371.4159
G0 F12000 X-40.499 Y37.818
G1 F2400 X-40.5 Y-37.817 E1374.56044
G0 F12000 X-40 Y-37.817
G1 F2400 X-39.999 Y37.818 E1377.70498
G0 F12000 X-39.499 Y37.818
G1 F2400 X-39.5 Y-37.817 E1380.84951
G0 F12000 X-39 Y-37.817
G1 F2400 X-38.999 Y37.818 E1383.99405
G0 F12000 X-38.499 Y37.818
G1 F2400 X-38.5 Y-37.817 E1387.13859
G0 F12000 X-38 Y-37.817
G1 F2400 X-37.999 Y37.818 E1390.28313
G0 F12000 X-37.499 Y37.818
G1 F2400 X-37.5 Y-37.817 E1393.42767
G0 F12000 X-37 Y-37.817
G1 F2400 X-36.999 Y37.818 E1396.5722
G0 F12000 X-36.499 Y37.818
G1 F2400 X-36.5 Y-37.817 E1399.71674
G0 F12000 X-36 Y-37.817
G1 F2400 X-35.999 Y37.818 E1402.86128
G0 F12000 X-35.499 Y37.818
G1 F2400 X-35.5 Y-37.817 E1406.00582
G0 F12000 X-35 Y-37.817
G1 F2400 X-34.999 Y37.818 E1409.15036
G0 F12000 X-34.499 Y37.818
G1 F2400 X-34.5 Y-37.817 E1412.29489
G0 F12000 X-34 Y-37.817
G1 F2400 X-33.999 Y37.818 E1415.43943
G0 F12000 X-33.499 Y37.818
G1 F2400 X-33.5 Y-37.817 E1418.58397
G0 F12000 X-33 Y-37.817
G1 F2400 X-32.999 Y37.818 E1421.72851
G0 F12000 X-32.499 Y37.818
G1 F2400 X-32.5 Y-37.817 E1424.87304
G0 F12000 X-32 Y-37.817
G1 F2400 X-31.999 Y37.818 E1428.01758
G0 F12000 X-31.499 Y37.818
G1 F2400 X-31.5 Y-37.817 E1431.16212
G0 F12000 X-31 Y-37.817
G1 F2400 X-30.999 Y37.818 E1434.30666
G0 F12000 X-30.499 Y37.818
G1 F2400 X-30.5 Y-37.817 E1437.4512
G0 F12000 X-30 Y-37.817
G1 F2400 X-29.999 Y37.818 E1440.59573
G0 F12000 X-29.499 Y37.818
G1 F2400 X-29.5 Y-37.818 E1443.74031
G0 F12000 X-29 Y-37.818
G1 F2400 X-28.999 Y37.818 E1446.88489
G0 F12000 X-28.499 Y37.818
G1 F2400 X-28.5 Y-37.818 E1450.02947
G0 F12000 X-28 Y-37.818
G1 F2400 X-27.999 Y37.818 E1453.17405
G0 F12000 X-27.499 Y37.818
G1 F2400 X-27.5 Y-37.818 E1456.31863
G0 F12000 X-27 Y-37.818
G1 F2400 X-26.999 Y37.818 E1459.46321
G0 F12000 X-26.499 Y37.818
G1 F2400 X-26.5 Y-37.818 E1462.60779
G0 F12000 X-26 Y-37.818
G1 F2400 X-25.999 Y37.818 E1465.75237
G0 F12000 X-25.499 Y37.818
G1 F2400 X-25.5 Y-37.818 E1468.89695
G0 F12000 X-25 Y-37.818
G1 F2400 X-24.999 Y37.818 E1472.04153
G0 F12000 X-24.499 Y37.818
G1 F2400 X-24.5 Y-37.818 E1475.18611
G0 F12000 X-24 Y-37.818
G1 F2400 X-23.999 Y37.818 E1478.33069
G0 F12000 X-23.499 Y37.818
G1 F2400 X-23.5 Y-37.818 E1481.47527
G0 F12000 X-23 Y-37.818
G1 F2400 X-22.999 Y37.818 E1484.61985
G0 F12000 X-22.499 Y37.818
G1 F2400 X-22.5 Y-37.818 E1487.76443
G0 F12000 X-22 Y-37.818
G1 F2400 X-21.999 Y37.818 E1490.90901
G0 F12000 X-21.499 Y37.818
G1 F2400 X-21.5 Y-37.818 E1494.05359
G0 F12000 X-21 Y-37.818
G1 F2400 X-20.999 Y37.818 E1497.19816
G0 F12000 X-20.499 Y37.818
G1 F2400 X-20.5 Y-37.818 E1500.34274
G0 F12000 X-20 Y-37.818
G1 F2400 X-19.999 Y37.818 E1503.48732
G0 F12000 X-19.499 Y37.818
G1 F2400 X-19.5 Y-37.818 E1506.6319
G0 F12000 X-19 Y-37.818
G1 F2400 X-18.999 Y37.818 E1509.77648
G0 F12000 X-18.499 Y37.818
G1 F2400 X-18.5 Y-37.818 E1512.92106
G0 F12000 X-18 Y-37.818
G1 F2400 X-17.999 Y37.818 E1516.06564
G0 F12000 X-17.499 Y37.818
G1 F2400 X-17.5 Y-37.818 E1519.21022
G0 F12000 X-17 Y-37.818
G1 F2400 X-16.999 Y37.818 E1522.3548
G0 F12000 X-16.499 Y37.818
G1 F2400 X-16.5 Y-37.818 E1525.49938
G0 F12000 X-16 Y-37.818
G1 F2400 X-15.999 Y37.818 E1528.64396
G0 F12000 X-15.499 Y37.818
G1 F2400 X-15.5 Y-37.818 E1531.78854
G0 F12000 X-15 Y-37.818
G1 F2400 X-14.999 Y37.818 E1534.93312
G0 F12000 X-14.499 Y37.818
G1 F2400 X-14.5 Y-37.818 E1538.0777
G0 F12000 X-14 Y-37.818
G1 F2400 X-13.999 Y37.818 E1541.22228
G0 F12000 X-13.499 Y37.818
G1 F2400 X-13.5 Y-37.818 E1544.36686
G0 F12000 X-13 Y-37.818
G1 F2400 X-12.999 Y37.818 E1547.51144
G0 F12000 X-12.499 Y37.818
G1 F2400 X-12.5 Y-37.818 E1550.65602
G0 F12000 X-12 Y-37.818
G1 F2400 X-11.999 Y37.818 E1553.8006
G0 F12000 X-11.499 Y37.818
G1 F2400 X-11.5 Y-37.818 E1556.94517
G0 F12000 X-11 Y-37.818
G1 F2400 X-10.999 Y37.818 E1560.08975
G0 F12000 X-10.499 Y37.818
G1 F2400 X-10.5 Y-37.818 E1563.23433
G0 F12000 X-10 Y-37.818
G1 F2400 X-9.999 Y37.818 E1566.37891
G0 F12000 X-9.499 Y37.818
G1 F2400 X-9.5 Y-37.818 E1569.52349
G0 F12000 X-9 Y-37.818
G1 F2400 X-8.999 Y37.818 E1572.66807
G0 F12000 X-8.499 Y37.818
G1 F2400 X-8.5 Y-37.818 E1575.81265
G0 F12000 X-8 Y-37.818
G1 F2400 X-7.999 Y37.818 E1578.95723
G0 F12000 X-7.499 Y37.818
G1 F2400 X-7.5 Y-37.818 E1582.10181
G0 F12000 X-7 Y-37.818
G1 F2400 X-6.999 Y37.818 E1585.24639
G0 F12000 X-6.499 Y37.818
G1 F2400 X-6.5 Y-37.818 E1588.39097
G0 F12000 X-6 Y-37.818
G1 F2400 X-5.999 Y37.818 E1591.53555
G0 F12000 X-5.499 Y37.818
G1 F2400 X-5.5 Y-37.818 E1594.68013
G0 F12000 X-5 Y-37.818
G1 F2400 X-4.999 Y37.818 E1597.82471
G0 F12000 X-4.499 Y37.818
G1 F2400 X-4.5 Y-37.818 E1600.96929
G0 F12000 X-4 Y-37.818
G1 F2400 X-3.999 Y37.818 E1604.11387
G0 F12000 X-3.499 Y37.818
G1 F2400 X-3.5 Y-37.818 E1607.25845
G0 F12000 X-3 Y-37.818
G1 F2400 X-2.999 Y37.818 E1610.40303
G0 F12000 X-2.499 Y37.818
G1 F2400 X-2.5 Y-37.818 E1613.54761
G0 F12000 X-2 Y-37.818
G1 F2400 X-1.999 Y37.818 E1616.69218
G0 F12000 X-1.499 Y37.818
G1 F2400 X-1.5 Y-37.818 E1619.83676
G0 F12000 X-1 Y-37.818
G1 F2400 X-0.999 Y37.818 E1622.98134
G0 F12000 X-0.499 Y37.818
G1 F2400 X-0.5 Y-37.818 E1626.12592
G0 F12000 X0 Y-37.818
G1 F2400 X0 Y37.819 E1629.27054
G0 F12000 X0.5 Y37.819
G1 F2400 X0.499 Y-37.817 E1632.41512
G0 F12000 X0.999 Y-37.817
G1 F2400 X1 Y37.819 E1635.5597
G0 F12000 X1.5 Y37.819
G1 F2400 X1.499 Y-37.817 E1638.70428
G0 F12000 X1.999 Y-37.817
G1 F2400 X2 Y37.819 E1641.84886
G0 F12000 X2.5 Y37.819
G1 F2400 X2.499 Y-37.817 E1644.99344
G0 F12000 X2.999 Y-37.817
G1 F2400 X3 Y37.819 E1648.13802
G0 F12000 X3.5 Y37.819
G1 F2400 X3.499 Y-37.817 E1651.2826
G0 F12000 X3.999 Y-37.817
G1 F2400 X4 Y37.819 E1654.42718
G0 F12000 X4.5 Y37.819
G1 F2400 X4.499 Y-37.817 E1657.57176
G0 F12000 X4.999 Y-37.817
G1 F2400 X5 Y37.819 E1660.71634
G0 F12000 X5.5 Y37.819
G1 F2400 X5.499 Y-37.817 E1663.86092
G0 F12000 X5.999 Y-37.817
G1 F2400 X6 Y37.819 E1667.0055
G0 F12000 X6.5 Y37.819
G1 F2400 X6.499 Y-37.817 E1670.15008
G0 F12000 X6.999 Y-37.817
G1 F2400 X7 Y37.819 E1673.29466
G0 F12000 X7.5 Y37.819
G1 F2400 X7.499 Y-37.817 E1676.43924
G0 F12000 X7.999 Y-37.817
G1 F2400 X8 Y37.819 E1679.58382
G0 F12000 X8.5 Y37.819
G1 F2400 X8.499 Y-37.817 E1682.7284
G0 F12000 X8.999 Y-37.817
G1 F2400 X9 Y37.819 E1685.87297
G0 F12000 X9.5 Y37.819
G1 F2400 X9.499 Y-37.817 E1689.01755
G0 F12000 X9.999 Y-37.817
G1 F2400 X10 Y37.819 E1692.16213
G0 F12000 X10.5 Y37.819
G1 F2400 X10.499 Y-37.817 E1695.30671
G0 F12000 X10.999 Y-37.817
G1 F2400 X11 Y37.819 E1698.45129
G0 F12000 X11.5 Y37.819
G1 F2400 X11.499 Y-37.817 E1701.59587
G0 F12000 X11.999 Y-37.817
G1 F2400 X12 Y37.819 E1704.74045
G0 F12000 X12.5 Y37.819
G1 F2400 X12.499 Y-37.817 E1707.88503
G0 F12000 X12.999 Y-37.817
G1 F2400 X13 Y37.819 E1711.02961
G0 F12000 X13.5 Y37.819
G1 F2400 X13.499 Y-37.817 E1714.17419
G0 F12000 X13.999 Y-37.817
G1 F2400 X14 Y37.819 E1717.31877
G0 F12000 X14.5 Y37.819
G1 F2400 X14.499 Y-37.817 E1720.46335
G0 F12000 X14.999 Y-37.817
G1 F2400 X15 Y37.819 E1723.60793
G0 F12000 X15.5 Y37.819
G1 F2400 X15.499 Y-37.817 E1726.75251
G0 F12000 X15.999 Y-37.817
G1 F2400 X16 Y37.819 E1729.89709
G0 F12000 X16.5 Y37.819
G1 F2400 X16.499 Y-37.817 E1733.04167
G0 F12000 X16.999 Y-37.817
G1 F2400 X17 Y37.819 E1736.18625
G0 F12000 X17.5 Y37.819
G1 F2400 X17.499 Y-37.817 E1739.33083
G0 F12000 X17.999 Y-37.817
G1 F2400 X18 Y37.819 E1742.4754
G0 F12000 X18.5 Y37.819
G1 F2400 X18.499 Y-37.817 E1745.61998
G0 F12000 X18.999 Y-37.817
G1 F2400 X19 Y37.819 E1748.76456
G0 F12000 X19.5 Y37.819
G1 F2400 X19.499 Y-37.817 E1751.90914
G0 F12000 X19.999 Y-37.817
G1 F2400 X20 Y37.819 E1755.05372
G0 F12000 X20.5 Y37.819
G1 F2400 X20.499 Y-37.817 E1758.1983
G0 F12000 X20.999 Y-37.817
G1 F2400 X21 Y37.819 E1761.34288
G0 F12000 X21.5 Y37.819
G1 F2400 X21.499 Y-37.817 E1764.48746
G0 F12000 X21.999 Y-37.817
G1 F2400 X22 Y37.819 E1767.63204
G0 F12000 X22.5 Y37.819
G1 F2400 X22.499 Y-37.817 E1770.77662
G0 F12000 X22.999 Y-37.817
G1 F2400 X23 Y37.819 E1773.9212
G0 F12000 X23.5 Y37.819
G1 F2400 X23.499 Y-37.817 E1777.06578
G0 F12000 X23.999 Y-37.817
G1 F2400 X24 Y37.819 E1780.21036
G0 F12000 X24.5 Y37.819
G1 F2400 X24.499 Y-37.817 E1783.35494
G0 F12000 X24.999 Y-37.817
G1 F2400 X25 Y37.819 E1786.49952
G0 F12000 X25.5 Y37.819
G1 F2400 X25.499 Y-37.817 E1789.6441
G0 F12000 X25.999 Y-37.817
G1 F2400 X26 Y37.819 E1792.78868
G0 F12000 X26.5 Y37.819
G1 F2400 X26.499 Y-37.817 E1795.93326
G0 F12000 X26.999 Y-37.817
G1 F2400 X27 Y37.819 E1799.07784
G0 F12000 X27.5 Y37.819
G1 F2400 X27.499 Y-37.817 E1802.22241
G0 F12000 X27.999 Y-37.817
G1 F2400 X28 Y37.819 E1805.36699
G0 F12000 X28.5 Y37.819
G1 F2400 X28.499 Y-37.817 E1808.51157
G0 F12000 X28.999 Y-37.817
G1 F2400 X29 Y37.819 E1811.65615
G0 F12000 X29.5 Y37.819
G1 F2400 X29.499 Y-37.817 E1814.80073
G0 F12000 X29.999 Y-37.817
G1 F2400 X30 Y37.818 E1817.94527
G0 F12000 X30.5 Y37.818
G1 F2400 X30.499 Y-37.817 E1821.08981
G0 F12000 X30.999 Y-37.817
G1 F2400 X31 Y37.818 E1824.23435
G0 F12000 X31.5 Y37.818
G1 F2400 X31.499 Y-37.817 E1827.37888
G0 F12000 X31.999 Y-37.817
G1 F2400 X32 Y37.818 E1830.52342
G0 F12000 X32.5 Y37.818
G1 F2400 X32.499 Y-37.817 E1833.66796
G0 F12000 X32.999 Y-37.817
G1 F2400 X33 Y37.818 E1836.8125
G0 F12000 X33.5 Y37.818
G1 F2400 X33.499 Y-37.817 E1839.95704
G0 F12000 X33.999 Y-37.817
G1 F2400 X34 Y37.818 E1843.10157
G0 F12000 X34.5 Y37.818
G1 F2400 X34.499 Y-37.817 E1846.24611
G0 F12000 X34.999 Y-37.817
G1 F2400 X35 Y37.818 E1849.39065
G0 F12000 X35.5 Y37.818
G1 F2400 X35.499 Y-37.817 E1852.53519
G0 F12000 X35.999 Y-37.817
G1 F2400 X36 Y37.818 E1855.67973
G0 F12000 X36.5 Y37.818
G1 F2400 X36.499 Y-37.817 E1858.82426
G0 F12000 X36.999 Y-37.817
G1 F2400 X37 Y37.818 E1861.9688
G0 F12000 X37.5 Y37.818
G1 F2400 X37.499 Y-37.817 E1865.11334
G0 F12000 X37.999 Y-37.817
G1 F2400 X38 Y37.818 E1868.25788
G0 F12000 X38.5 Y37.818
G1 F2400 X38.499 Y-37.817 E1871.40241
G0 F12000 X38.999 Y-37.817
G1 F2400 X39 Y37.818 E1874.54695
G0 F12000 X39.5 Y37.818
G1 F2400 X39.499 Y-37.817 E1877.69149
G0 F12000 X39.999 Y-37.817
G1 F2400 X40 Y37.818 E1880.83603
G0 F12000 X40.5 Y37.818
G1 F2400 X40.499 Y-37.817 E1883.98057
G0 F12000 X40.999 Y-37.817
G1 F2400 X41 Y37.818 E1887.1251
G0 F12000 X41.5 Y37.818
G1 F2400 X41.499 Y-37.817 E1890.26964
G0 F12000 X41.999 Y-37.817
G1 F2400 X42 Y37.818 E1893.41418
G0 F12000 X42.5 Y37.818
G1 F2400 X42.499 Y-37.817 E1896.55872
G0 F12000 X42.999 Y-37.817
G1 F2400 X43 Y37.818 E1899.70326
G0 F12000 X43.5 Y37.818
G1 F2400 X43.499 Y-37.817 E1902.84779
G0 F12000 X43.999 Y-37.817
G1 F2400 X44 Y37.818 E1905.99233
G0 F12000 X44.5 Y37.818
G1 F2400 X44.499 Y-37.817 E1909.13687
G0 F12000 X44.999 Y-37.817
G1 F2400 X45 Y37.818 E1912.28141
G0 F12000 X45.5 Y37.818
G1 F2400 X45.499 Y-37.817 E1915.42595
G0 F12000 X45.999 Y-37.817
G1 F2400 X46 Y37.818 E1918.57048
G0 F12000 X46.5 Y37.818
G1 F2400 X46.499 Y-37.817 E1921.71502
G0 F12000 X46.999 Y-37.817
G1 F2400 X47 Y37.818 E1924.85956
G0 F12000 X47.5 Y37.818
G1 F2400 X47.499 Y-37.817 E1928.0041
G0 F12000 X47.999 Y-37.817
G1 F2400 X48 Y37.818 E1931.14863
G0 F12000 X48.5 Y37.818
G1 F2400 X48.499 Y-37.817 E1934.29317
G0 F12000 X48.999 Y-37.817
G1 F2400 X49 Y37.818 E1937.43771
G0 F12000 X49.5 Y37.818
G1 F2400 X49.499 Y-37.817 E1940.58225
G0 F12000 X49.999 Y-37.817
G1 F2400 X50 Y37.818 E1943.72679
G0 F12000 X50.5 Y37.818
G1 F2400 X50.499 Y-37.817 E1946.87132
G0 F12000 X50.999 Y-37.817
G1 F2400 X51 Y37.818 E1950.01586
G0 F12000 X51.5 Y37.818
G1 F2400 X51.499 Y-37.817 E1953.1604
G0 F12000 X51.999 Y-37.817
G1 F2400 X52 Y37.818 E1956.30494
G0 F12000 X52.5 Y37.818
G1 F2400 X52.499 Y-37.817 E1959.44948
G0 F12000 X52.999 Y-37.817
G1 F2400 X53 Y37.818 E1962.59401
G0 F12000 X53.5 Y37.818
G1 F2400 X53.499 Y-37.817 E1965.73855
G0 F12000 X53.999 Y-37.817
G1 F2400 X54 Y37.818 E1968.88309
G0 F12000 X54.5 Y37.818
G1 F2400 X54.499 Y-37.817 E1972.02763
G0 F12000 X54.999 Y-37.817
G1 F2400 X55 Y37.818 E1975.17217
G0 F12000 X55.5 Y37.818
G1 F2400 X55.499 Y-37.817 E1978.3167
G0 F12000 X55.999 Y-37.817
G1 F2400 X56 Y37.818 E1981.46124
G0 F12000 X56.5 Y37.818
G1 F2400 X56.499 Y-37.817 E1984.60578
G0 F12000 X56.999 Y-37.817
G1 F2400 X57 Y37.818 E1987.75032
G0 F12000 X57.5 Y37.818
G1 F2400 X57.499 Y-37.817 E1990.89485
G0 F12000 X58.009 Y-38
; TYPE:BOTTOM-FILL
G1 F2400 X-58.009 Y-38 E1995.71832
G0 F12000 X-58.009 Y-37.5
G1 F2400 X58.009 Y-37.5 E2000.54179
G0 F12000 X58.009 Y-37
G1 F2400 X57.319 Y-36.75 E2000.57047
G1 X58.009 Y-36.25 E2000.5991
G1 X57.319 Y-35.75 E2000.62772
G1 X58.009 Y-35.25 E2000.65635
G1 X57.319 Y-34.75 E2000.68497
G1 X58.009 Y-34.25 E2000.7136
G1 X57.319 Y-33.75 E2000.74222
G1 X58.009 Y-33.25 E2000.77085
G1 X57.319 Y-32.75 E2000.79947
G1 X58.009 Y-32.25 E2000.8281
G1 X57.319 Y-31.75 E2000.85672
G1 X58.009 Y-31.25 E2000.88535
G1 X57.319 Y-30.75 E2000.91397
G1 X58.009 Y-30.25 E2000.9426
G1 X57.319 Y-29.75 E2000.97122
G1 X58.009 Y-29.25 E2000.99984
G1 X57.319 Y-28.75 E2001.02847
G1 X58.009 Y-28.25 E2001.05709
G1 X57.319 Y-27.75 E2001.08572
G1 X58.009 Y-27.25 E2001.11434
G1 X57.319 Y-26.75 E2001.14297
G1 X58.009 Y-26.25 E2001.17159
G1 X57.319 Y-25.75 E2001.20022
G1 X58.009 Y-25.25 E2001.22884
G1 X57.319 Y-24.75 E2001.25747
G1 X58.009 Y-24.25 E2001.28609
G1 X57.319 Y-23.75 E2001.31472
G1 X58.009 Y-23.25 E2001.34334
G1 X57.319 Y-22.75 E2001.37197
G1 X58.009 Y-22.25 E2001.40059
G1 X57.319 Y-21.75 E2001.42922
G1 X58.009 Y-21.25 E2001.45784
G1 X57.319 Y-20.75 E2001.48647
G1 X58.009 Y-20.25 E2001.51509
G1 X57.319 Y-19.75 E2001.54372
G1 X58.009 Y-19.25 E2001.57234
G1 X57.319 Y-18.75 E2001.60097
G1 X58.009 Y-18.25 E2001.62959
G1 X57.319 Y-17.75 E2001.65822
G1 X58.009 Y-17.25 E2001.68684
G1 X57.319 Y-16.75 E2001.71547
G1 X58.009 Y-16.25 E2001.74409
G1 X57.319 Y-15.75 E2001.77272
G1 X58.009 Y-15.25 E2001.80134
G1 X57.319 Y-14.75 E2001.82997
G1 X58.009 Y-14.25 E2001.85859
G1 X57.319 Y-13.75 E2001.88722
G1 X58.009 Y-13.25 E2001.91584
G1 X57.319 Y-12.75 E2001.94447
G1 X58.009 Y-12.25 E2001.97309
G1 X57.319 Y-11.75 E2002.00172
G1 X58.009 Y-11.25 E2002.03034
G1 X57.319 Y-10.75 E2002.05897
G1 X58.009 Y-10.25 E2002.08759
G1 X57.319 Y-9.75 E2002.11621
G1 X58.009 Y-9.25 E2002.14484
G1 X57.319 Y-8.75 E2002.17346
G1 X58.009 Y-8.25 E2002.20209
G1 X57.319 Y-7.75 E2002.23071
G1 X58.009 Y-7.25 E2002.25934
G1 X57.319 Y-6.75 E2002.28796
G1 X58.009 Y-6.25 E2002.31659
G1 X57.319 Y-5.75 E2002.34521
G1 X58.009 Y-5.25 E2002.37384
G1 X57.319 Y-4.75 E2002.40246
G1 X58.009 Y-4.25 E2002.43109
G1 X57.319 Y-3.75 E2002.45971
G1 X58.009 Y-3.25 E2002.48834
G1 X57.319 Y-2.75 E2002.51696
G1 X58.009 Y-2.25 E2002.54559
G1 X57.319 Y-1.75 E2002.57421
G1 X58.009 Y-1.25 E2002.60284
G1 X57.319 Y-0.75 E2002.63146
G1 X58.009 Y-0.25 E2002.66009
G1 X57.319 Y0.249 E2002.68876
G1 X58.009 Y0.749 E2002.71739
G1 X57.319 Y1.249 E2002.74601
G1 X58.009 Y1.749 E2002.77464
G1 X57.319 Y2.249 E2002.80326
G1 X58.009 Y2.749 E2002.83189
G1 X57.319 Y3.249 E2002.86051
G1 X58.009 Y3.749 E2002.88914
G1 X57.319 Y4.249 E2002.91776
G1 X58.009 Y4.749 E2002.94639
G1 X57.319 Y5.249 E2002.97501
G1 X58.009 Y5.749 E2003.00364
G1 X57.319 Y6.249 E2003.03226
G1 X58.009 Y6.749 E2003.06089
G1 X57.319 Y7.249 E2003.08951
G1 X58.009 Y7.749 E2003.11814
G1 X57.319 Y8.249 E2003.14676
G1 X58.009 Y8.749 E2003.17539
G1 X57.319 Y9.249 E2003.20401
G1 X58.009 Y9.749 E2003.23264
G1 X57.319 Y10.249 E2003.26126
G1 X58.009 Y10.749 E2003.28989
G1 X57.319 Y11.249 E2003.31851
G1 X58.009 Y11.749 E2003.34714
G1 X57.319 Y12.249 E2003.37576
G1 X58.009 Y12.749 E2003.40439
G1 X57.319 Y13.249 E2003.43301
G1 X58.009 Y13.749 E2003.46164
G1 X57.319 Y14.249 E2003.49026
G1 X58.009 Y14.749 E2003.51888
G1 X57.319 Y15.249 E2003.54751
G1 X58.009 Y15.749 E2003.57613
G1 X57.319 Y16.249 E2003.60476
G1 X58.009 Y16.749 E2003.63338
G1 X57.319 Y17.249 E2003.66201
G1 X58.009 Y17.749 E2003.69063
G1 X57.319 Y18.249 E2003.71926
G1 X58.009 Y18.749 E2003.74788
G1 X57.319 Y19.249 E2003.77651
G1 X58.009 Y19.749 E2003.80513
G1 X57.319 Y20.249 E2003.83376
G1 X58.009 Y20.749 E2003.86238
G1 X57.319 Y21.249 E2003.89101
G1 X58.009 Y21.749 E2003.91963
G1 X57.319 Y22.249 E2003.94826
G1 X58.009 Y22.749 E2003.97688
G1 X57.319 Y23.249 E2004.00551
G1 X58.009 Y23.749 E2004.03413
G1 X57.319 Y24.249 E2004.06276
G1 X58.009 Y24.749 E2004.09138
G1 X57.319 Y25.249 E2004.12001
G1 X58.009 Y25.749 E2004.14863
G1 X57.319 Y26.249 E2004.17726
G1 X58.009 Y26.749 E2004.20588
G1 X57.319 Y27.249 E2004.23451
G1 X58.009 Y27.749 E2004.26313
G1 X57.319 Y28.249 E2004.29176
G1 X58.009 Y28.749 E2004.32038
G1 X57.319 Y29.249 E2004.34901
G1 X58.009 Y29.749 E2004.37763
G1 X57.319 Y30.249 E2004.40626
G1 X58.009 Y30.749 E2004.43488
G1 X57.319 Y31.249 E2004.46351
G1 X58.009 Y31.749 E2004.49213
G1 X57.319 Y32.249 E2004.52076
G1 X58.009 Y32.749 E2004.54938
G1 X57.319 Y33.25 E2004.57802
G1 X58.009 Y33.75 E2004.60665
G1 X57.319 Y34.25 E2004.63527
G1 X58.009 Y34.75 E2004.6639
G1 X57.319 Y35.25 E2004.69252
G1 X58.009 Y35.75 E2004.72115
G1 X57.319 Y36.25 E2004.74977
G1 X58.009 Y36.75 E2004.7784
G1 X57.319 Y37 E2004.80891
G0 F12000 X58.009 Y37.5
G1 F2400 X-58.009 Y37.5 E2009.63238
G0 F12000 X-58.009 Y37
G1 F2400 X-57.319 Y36.75 E2009.66106
G1 X-58.009 Y36.25 E2009.68968
G1 X-57.319 Y35.75 E2009.71831
G1 X-58.009 Y35.25 E2009.74693
G1 X-57.319 Y34.75 E2009.77556
G1 X-58.009 Y34.25 E2009.80418
G1 X-57.319 Y33.75 E2009.83281
G1 X-58.009 Y33.25 E2009.86143
G1 X-57.319 Y32.75 E2009.89006
G1 X-58.009 Y32.25 E2009.91868
G1 X-57.319 Y31.75 E2009.94731
G1 X-58.009 Y31.25 E2009.97593
G1 X-57.319 Y30.75 E2010.00456
G1 X-58.009 Y30.25 E2010.03318
G1 X-57.319 Y29.75 E2010.06181
G1 X-58.009 Y29.25 E2010.09043
G1 X-57.319 Y28.75 E2010.11906
G1 X-58.009 Y28.25 E2010.14768
G1 X-57.319 Y27.75 E2010.17631
G1 X-58.009 Y27.25 E2010.20493
G1 X-57.319 Y26.75 E2010.23356
G1 X-58.009 Y26.25 E2010.26218
G1 X-57.319 Y25.75 E2010.29081
G1 X-58.009 Y25.25 E2010.31943
G1 X-57.319 Y24.75 E2010.34806
G1 X-58.009 Y24.25 E2010.37668
G1 X-57.319 Y23.75 E2010.40531
G1 X-58.009 Y23.25 E2010.43393
G1 X-57.319 Y22.75 E2010.46256
G1 X-58.009 Y22.25 E2010.49118
G1 X-57.319 Y21.75 E2010.51981
G1 X-58.009 Y21.25 E2010.54843
G1 X-57.319 Y20.75 E2010.57706
G1 X-58.009 Y20.25 E2010.60568
G1 X-57.319 Y19.75 E2010.63431
G1 X-58.009 Y19.25 E2010.66293
G1 X-57.319 Y18.75 E2010.69156
G1 X-58.009 Y18.25 E2010.72018
G1 X-57.319 Y17.75 E2010.74881
G1 X-58.009 Y17.25 E2010.77743
G1 X-57.319 Y16.75 E2010.80605
G1 X-58.009 Y16.25 E2010.83468
G1 X-57.319 Y15.75 E2010.8633
G1 X-58.009 Y15.25 E2010.89193
G1 X-57.319 Y14.75 E2010.92055
G1 X-58.009 Y14.25 E2010.94918
G1 X-57.319 Y13.75 E2010.9778
G1 X-58.009 Y13.25 E2011.00643
G1 X-57.319 Y12.75 E2011.03505
G1 X-58.009 Y12.25 E2011.06368
G1 X-57.319 Y11.75 E2011.0923
G1 X-58.009 Y11.25 E2011.12093
G1 X-57.319 Y10.75 E2011.14955
G1 X-58.009 Y10.25 E2011.17818
G1 X-57.319 Y9.75 E2011.2068
G1 X-58.009 Y9.25 E2011.23543
G1 X-57.319 Y8.75 E2011.26405
G1 X-58.009 Y8.25 E2011.29268
G1 X-57.319 Y7.75 E2011.3213
G1 X-58.009 Y7.25 E2011.34993
G1 X-57.319 Y6.75 E2011.37855
G1 X-58.009 Y6.25 E2011.40718
G1 X-57.319 Y5.75 E2011.4358
G1 X-58.009 Y5.25 E2011.46443
G1 X-57.319 Y4.75 E2011.49305
G1 X-58.009 Y4.25 E2011.52168
G1 X-57.319 Y3.75 E2011.5503
G1 X-58.009 Y3.25 E2011.57893
G1 X-57.319 Y2.75 E2011.60755
G1 X-58.009 Y2.25 E2011.63618
G1 X-57.319 Y1.75 E2011.6648
G1 X-58.009 Y1.25 E2011.69343
G1 X-57.319 Y0.75 E2011.72205
G1 X-58.009 Y0.25 E2011.75068
G1 X-57.319 Y-0.249 E2011.77935
G1 X-58.009 Y-0.749 E2011.80798
G1 X-57.319 Y-1.249 E2011.8366
G1 X-58.009 Y-1.749 E2011.86523
G1 X-57.319 Y-2.249 E2011.89385
G1 X-58.009 Y-2.749 E2011.92248
G1 X-57.319 Y-3.249 E2011.9511
G1 X-58.009 Y-3.749 E2011.97973
G1 X-57.319 Y-4.249 E2012.00835
G1 X-58.009 Y-4.749 E2012.03698
G1 X-57.319 Y-5.249 E2012.0656
G1 X-58.009 Y-5.749 E2012.09423
G1 X-57.319 Y-6.249 E2012.12285
G1 X-58.009 Y-6.749 E2012.15148
G1 X-57.319 Y-7.249 E2012.1801
G1 X-58.009 Y-7.749 E2012.20872
G1 X-57.319 Y-8.249 E2012.23735
G1 X-58.009 Y-8.749 E2012.26597
G1 X-57.319 Y-9.249 E2012.2946
G1 X-58.009 Y-9.749 E2012.32322
G1 X-57.319 Y-10.249 E2012.35185
G1 X-58.009 Y-10.749 E2012.38047
G1 X-57.319 Y-11.249 E2012.4091
G1 X-58.009 Y-11.749 E2012.43772
G1 X-57.319 Y-12.249 E2012.46635
G1 X-58.009 Y-12.749 E2012.49497
G1 X-57.319 Y-13.249 E2012.5236
G1 X-58.009 Y-13.749 E2012.55222
G1 X-57.319 Y-14.249 E2012.58085
G1 X-58.009 Y-14.749 E2012.60947
G1 X-57.319 Y-15.249 E2012.6381
G1 X-58.009 Y-15.749 E2012.66672
G1 X-57.319 Y-16.249 E2012.69535
G1 X-58.009 Y-16.749 E2012.72397
G1 X-57.319 Y-17.249 E2012.7526
G1 X-58.009 Y-17.749 E2012.78122
G1 X-57.319 Y-18.249 E2012.80985
G1 X-58.009 Y-18.749 E2012.83847
G1 X-57.319 Y-19.249 E2012.8671
G1 X-58.009 Y-19.749 E2012.89572
G1 X-57.319 Y-20.249 E2012.92435
G1 X-58.009 Y-20.749 E2012.95297
G1 X-57.319 Y-21.249 E2012.9816
G1 X-58.009 Y-21.749 E2013.01022
G1 X-57.319 Y-22.249 E2013.03885
G1 X-58.009 Y-22.749 E2013.06747
G1 X-57.319 Y-23.249 E2013.0961
G1 X-58.009 Y-23.749 E2013.12472
G1 X-57.319 Y-24.249 E2013.15335
G1 X-58.009 Y-24.749 E2013.18197
G1 X-57.319 Y-25.249 E2013.2106
G1 X-58.009 Y-25.749 E2013.23922
G1 X-57.319 Y-26.249 E2013.26785
G1 X-58.009 Y-26.749 E2013.29647
G1 X-57.319 Y-27.249 E2013.32509
G1 X-58.009 Y-27.749 E2013.35372
G1 X-57.319 Y-28.249 E2013.38234
G1 X-58.009 Y-28.749 E2013.41097
G1 X-57.319 Y-29.249 E2013.43959
G1 X-58.009 Y-29.749 E2013.46822
G1 X-57.319 Y-30.249 E2013.49684
G1 X-58.009 Y-30.749 E2013.52547
G1 X-57.319 Y-31.249 E2013.55409
G1 X-58.009 Y-31.749 E2013.58272
G1 X-57.319 Y-32.249 E2013.61134
G1 X-58.009 Y-32.749 E2013.63997
G1 X-57.319 Y-33.25 E2013.66861
G1 X-58.009 Y-33.75 E2013.69724
G1 X-57.319 Y-34.25 E2013.72586
G1 X-58.009 Y-34.75 E2013.75449
G1 X-57.319 Y-35.25 E2013.78311
G1 X-58.009 Y-35.75 E2013.81174
G1 X-57.319 Y-36.25 E2013.84036
G1 X-58.009 Y-36.75 E2013.86899
G1 X-57.319 Y-37 E2013.8995
G0 F12000 X-58.009 Y38
G0 X-58.009 Y38
G1 F2400 X58.009 Y38 E2018.72297
; Layer Change GCode
; LAYER:2
G0 F12000 X-58.471 Y39.084 Z0.7
G0 X-58.471 Y39.084
G0 X-58.485 Y39.434
G0 X-58.485 Y39.434
G0 X-58.428 Y38.434
; TYPE:WALL-INNER
G1 F2400 X-58.428 Y38.434 E2018.72297
G1 X-58.428 Y-38.434 E2021.91877
G1 X58.428 Y-38.434 E2026.77708
G1 X58.428 Y38.434 E2029.97288
G1 X-58.428 Y38.434 E2034.83118
G0 F12000 X-58.466 Y38.934
G1 F2400 X-58.466 Y38.934 E2034.83118
G1 X-58.585 Y38.922 E2034.83616
G1 X-58.691 Y38.888 E2034.84078
G1 X-58.839 Y38.767 E2034.84873
G1 X-58.899 Y38.65 E2034.8542
G1 X-58.934 Y38.439 E2034.86309
G1 X-58.934 Y-38.438 E2038.05926
G1 X-58.899 Y-38.649 E2038.06816
G1 X-58.841 Y-38.761 E2038.0734
G1 X-58.667 Y-38.899 E2038.08263
G1 X-58.466 Y-38.934 E2038.09112
G1 X58.466 Y-38.934 E2042.95258
G1 X58.585 Y-38.922 E2042.95756
G1 X58.69 Y-38.888 E2042.96214
G1 X58.838 Y-38.767 E2042.97009
G1 X58.899 Y-38.649 E2042.97562
G1 X58.934 Y-38.438 E2042.98451
G1 X58.934 Y38.439 E2046.18068
G1 X58.899 Y38.65 E2046.18957
G1 X58.842 Y38.76 E2046.19472
G1 X58.667 Y38.899 E2046.20402
G1 X58.466 Y38.934 E2046.2125
G1 X-58.466 Y38.934 E2051.07397
G0 F12000 X-58.485 Y39.434
; TYPE:WALL-OUTER
G1 F1800 X-58.485 Y39.434 E2051.07397
G1 X-58.692 Y39.413 E2051.08262
G1 X-58.933 Y39.337 E2051.09312
G1 X-59.235 Y39.089 E2051.10937
G1 X-59.379 Y38.809 E2051.12246
G1 X-59.434 Y38.477 E2051.13645
G1 X-59.434 Y-38.476 E2054.33578
G1 X-59.379 Y-38.809 E2054.34982
G1 X-59.236 Y-39.087 E2054.36281
G1 X-58.903 Y-39.35 E2054.38046
G1 X-58.691 Y-39.414 E2054.38966
G1 X-58.485 Y-39.434 E2054.39827
G1 X58.485 Y-39.434 E2059.26131
G1 X58.692 Y-39.413 E2059.26996
G1 X58.933 Y-39.337 E2059.28047
G1 X59.235 Y-39.088 E2059.29674
G1 X59.379 Y-38.809 E2059.3098
G1 X59.434 Y-38.476 E2059.32383
G1 X59.434 Y38.477 E2062.52316
G1 X59.379 Y38.809 E2062.53715
G1 X59.236 Y39.088 E2062.55019
G1 X58.903 Y39.35 E2062.5678
G1 X58.691 Y39.414 E2062.57701
G1 X58.485 Y39.434 E2062.58562
G1 X-58.485 Y39.434 E2067.44866
G0 F12000 X-58.588 Y38.641
; TYPE:FILL
G1 F2400 X-58.584 Y38.623 E2067.4502
G1 X-58.61 Y38.545 E2067.45107
G0 F12000 X-58.178 Y38
G1 F2400 X58.178 Y38 E2072.28859
G0 F12000 X58.178 Y37.5
G1 F2400 X-58.178 Y37.5 E2077.12611
G0 F12000 X-58.178 Y37
G1 F2400 X58.178 Y37 E2081.96363
G0 F12000 X58.178 Y36.5
G1 F2400 X-58.178 Y36.5 E2086.80115
G0 F12000 X-58.178 Y36
G1 F2400 X58.178 Y36 E2091.63867
G0 F12000 X58.178 Y35.5
G1 F2400 X-58.178 Y35.5 E2096.47619
G0 F12000 X-58.178 Y35
G1 F2400 X58.178 Y35 E2101.31371
G0 F12000 X58.178 Y34.5
G1 F2400 X-58.178 Y34.5 E2106.15123
G0 F12000 X-58.178 Y34
G1 F2400 X58.178 Y34 E2110.98876
G0 F12000 X58.178 Y33.5
G1 F2400 X-58.178 Y33.5 E2115.82628
G0 F12000 X-58.178 Y33
G1 F2400 X58.178 Y33 E2120.6638
G0 F12000 X58.178 Y32.499
G1 F2400 X-58.178 Y32.5 E2125.50132
G0 F12000 X-58.178 Y32
G1 F2400 X58.178 Y31.999 E2130.33884
G0 F12000 X58.178 Y31.499
G1 F2400 X-58.178 Y31.5 E2135.17636
G0 F12000 X-58.178 Y31
G1 F2400 X58.178 Y30.999 E2140.01388
G0 F12000 X58.178 Y30.499
G1 F2400 X-58.178 Y30.5 E2144.8514
G0 F12000 X-58.178 Y30
G1 F2400 X58.178 Y29.999 E2149.68892
G0 F12000 X58.178 Y29.499
G1 F2400 X-58.178 Y29.5 E2154.52644
G0 F12000 X-58.178 Y29
G1 F2400 X58.178 Y28.999 E2159.36396
G0 F12000 X58.178 Y28.499
G1 F2400 X-58.178 Y28.5 E2164.20148
G0 F12000 X-58.178 Y28
G1 F2400 X58.178 Y27.999 E2169.039
G0 F12000 X58.178 Y27.499
G1 F2400 X-58.178 Y27.5 E2173.87652
G0 F12000 X-58.178 Y27
G1 F2400 X58.178 Y26.999 E2178.71404
G0 F12000 X58.178 Y26.499
G1 F2400 X-58.178 Y26.5 E2183.55156
G0 F12000 X-58.178 Y26
G1 F2400 X58.178 Y25.999 E2188.38908
G0 F12000 X58.178 Y25.499
G1 F2400 X-58.178 Y25.5 E2193.2266
G0 F12000 X-58.178 Y25
G1 F2400 X58.178 Y24.999 E2198.06412
G0 F12000 X58.178 Y24.499
G1 F2400 X-58.178 Y24.5 E2202.90164
G0 F12000 X-58.178 Y24
G1 F2400 X58.178 Y23.999 E2207.73916
G0 F12000 X58.178 Y23.499
G1 F2400 X-58.178 Y23.5 E2212.57668
G0 F12000 X-58.178 Y23
G1 F2400 X58.178 Y22.999 E2217.4142
G0 F12000 X58.178 Y22.499
G1 F2400 X-58.178 Y22.5 E2222.25172
G0 F12000 X-58.178 Y22
G1 F2400 X58.178 Y21.999 E2227.08924
G0 F12000 X58.178 Y21.499
G1 F2400 X-58.178 Y21.5 E2231.92676
G0 F12000 X-58.178 Y21
G1 F2400 X58.178 Y20.999 E2236.76428
G0 F12000 X58.178 Y20.499
G1 F2400 X-58.178 Y20.5 E2241.6018
G0 F12000 X-58.178 Y20
G1 F2400 X58.178 Y19.999 E2246.43932
G0 F12000 X58.178 Y19.499
G1 F2400 X-58.178 Y19.5 E2251.27685
G0 F12000 X-58.178 Y19
G1 F2400 X58.178 Y18.999 E2256.11437
G0 F12000 X58.178 Y18.499
G1 F2400 X-58.178 Y18.5 E2260.95189
G0 F12000 X-58.178 Y18
G1 F2400 X58.178 Y17.999 E2265.78941
G0 F12000 X58.178 Y17.499
G1 F2400 X-58.178 Y17.5 E2270.62693
G0 F12000 X-58.178 Y17
G1 F2400 X58.178 Y16.999 E2275.46445
G0 F12000 X58.178 Y16.499
G1 F2400 X-58.178 Y16.5 E2280.30197
G0 F12000 X-58.178 Y16
G1 F2400 X58.178 Y15.999 E2285.13949
G0 F12000 X58.178 Y15.499
G1 F2400 X-58.178 Y15.5 E2289.97701
G0 F12000 X-58.178 Y15
G1 F2400 X58.178 Y14.999 E2294.81453
G0 F12000 X58.178 Y14.499
G1 F2400 X-58.178 Y14.5 E2299.65205
G0 F12000 X-58.178 Y14
G1 F2400 X58.178 Y13.999 E2304.48957
G0 F12000 X58.178 Y13.499
G1 F2400 X-58.178 Y13.5 E2309.32709
G0 F12000 X-58.178 Y13
G1 F2400 X58.178 Y12.999 E2314.16461
G0 F12000 X58.178 Y12.499
G1 F2400 X-58.178 Y12.5 E2319.00213
G0 F12000 X-58.178 Y12
G1 F2400 X58.178 Y11.999 E2323.83965
G0 F12000 X58.178 Y11.499
G1 F2400 X-58.178 Y11.5 E2328.67717
G0 F12000 X-58.178 Y11
G1 F2400 X58.178 Y10.999 E2333.51469
G0 F12000 X58.178 Y10.499
G1 F2400 X-58.178 Y10.5 E2338.35221
G0 F12000 X-58.178 Y10
G1 F2400 X58.178 Y9.999 E2343.18973
G0 F12000 X58.178 Y9.499
G1 F2400 X-58.178 Y9.5 E2348.02725
G0 F12000 X-58.178 Y9
G1 F2400 X58.178 Y8.999 E2352.86477
G0 F12000 X58.178 Y8.499
G1 F2400 X-58.178 Y8.5 E2357.70229
G0 F12000 X-58.178 Y8
G1 F2400 X58.178 Y7.999 E2362.53981
G0 F12000 X58.178 Y7.499
G1 F2400 X-58.178 Y7.5 E2367.37733
G0 F12000 X-58.178 Y7
G1 F2400 X58.178 Y6.999 E2372.21485
G0 F12000 X58.178 Y6.499
G1 F2400 X-58.178 Y6.5 E2377.05237
G0 F12000 X-58.178 Y6
G1 F2400 X58.178 Y5.999 E2381.88989
G0 F12000 X58.178 Y5.499
G1 F2400 X-58.178 Y5.5 E2386.72741
G0 F12000 X-58.178 Y5
G1 F2400 X58.178 Y4.999 E2391.56493
G0 F12000 X58.178 Y4.499
G1 F2400 X-58.178 Y4.5 E2396.40246
G0 F12000 X-58.178 Y4
G1 F2400 X58.178 Y3.999 E2401.23998
G0 F12000 X58.178 Y3.499
G1 F2400 X-58.178 Y3.5 E2406.0775
G0 F12000 X-58.178 Y3
G1 F2400 X58.178 Y2.999 E2410.91502
G0 F12000 X58.178 Y2.499
G1 F2400 X-58.178 Y2.5 E2415.75254
G0 F12000 X-58.178 Y2
G1 F2400 X58.178 Y1.999 E2420.59006
G0 F12000 X58.178 Y1.499
G1 F2400 X-58.178 Y1.5 E2425.42758
G0 F12000 X-58.178 Y1
G1 F2400 X58.178 Y0.999 E2430.2651
G0 F12000 X58.178 Y0.499
G1 F2400 X-58.178 Y0.5 E2435.10262
G0 F12000 X-58.178 Y0
G1 F2400 X58.178 Y0 E2439.94014
G0 F12000 X58.178 Y-0.5
G1 F2400 X-58.178 Y-0.499 E2444.77766
G0 F12000 X-58.178 Y-0.999
G1 F2400 X58.178 Y-1 E2449.61518
G0 F12000 X58.178 Y-1.5
G1 F2400 X-58.178 Y-1.499 E2454.4527
G0 F12000 X-58.178 Y-1.999
G1 F2400 X58.178 Y-2 E2459.29022
G0 F12000 X58.178 Y-2.5
G1 F2400 X-58.178 Y-2.499 E2464.12774
G0 F12000 X-58.178 Y-2.999
G1 F2400 X58.178 Y-3 E2468.96526
G0 F12000 X58.178 Y-3.5
G1 F2400 X-58.178 Y-3.499 E2473.80278
G0 F12000 X-58.178 Y-3.999
G1 F2400 X58.178 Y-4 E2478.6403
G0 F12000 X58.178 Y-4.5
G1 F2400 X-58.178 Y-4.499 E2483.47782
G0 F12000 X-58.178 Y-4.999
G1 F2400 X58.178 Y-5 E2488.31534
G0 F12000 X58.178 Y-5.5
G1 F2400 X-58.178 Y-5.499 E2493.15286
G0 F12000 X-58.178 Y-5.999
G1 F2400 X58.178 Y-6 E2497.99038
G0 F12000 X58.178 Y-6.5
G1 F2400 X-58.178 Y-6.499 E2502.8279
G0 F12000 X-58.178 Y-6.999
G1 F2400 X58.178 Y-7 E2507.66542
G0 F12000 X58.178 Y-7.5
G1 F2400 X-58.178 Y-7.499 E2512.50294
G0 F12000 X-58.178 Y-7.999
G1 F2400 X58.178 Y-8 E2517.34046
G0 F12000 X58.178 Y-8.5
G1 F2400 X-58.178 Y-8.499 E2522.17798
G0 F12000 X-58.178 Y-8.999
G1 F2400 X58.178 Y-9 E2527.0155
G0 F12000 X58.178 Y-9.5
G1 F2400 X-58.178 Y-9.499 E2531.85302
G0 F12000 X-58.178 Y-9.999
G1 F2400 X58.178 Y-10 E2536.69055
G0 F12000 X58.178 Y-10.5
G1 F2400 X-58.178 Y-10.499 E2541.52807
G0 F12000 X-58.178 Y-10.999
G1 F2400 X58.178 Y-11 E2546.36559
G0 F12000 X58.178 Y-11.5
G1 F2400 X-58.178 Y-11.499 E2551.20311
G0 F12000 X-58.178 Y-11.999
G1 F2400 X58.178 Y-12 E2556.04063
G0 F12000 X58.178 Y-12.5
G1 F2400 X-58.178 Y-12.499 E2560.87815
G0 F12000 X-58.178 Y-12.999
G1 F2400 X58.178 Y-13 E2565.71567
G0 F12000 X58.178 Y-13.5
G1 F2400 X-58.178 Y-13.499 E2570.55319
G0 F12000 X-58.178 Y-13.999
G1 F2400 X58.178 Y-14 E2575.39071
G0 F12000 X58.178 Y-14.5
G1 F2400 X-58.178 Y-14.499 E2580.22823
G0 F12000 X-58.178 Y-14.999
G1 F2400 X58.178 Y-15 E2585.06575
G0 F12000 X58.178 Y-15.5
G1 F2400 X-58.178 Y-15.499 E2589.90327
G0 F12000 X-58.178 Y-15.999
G1 F2400 X58.178 Y-16 E2594.74079
G0 F12000 X58.178 Y-16.5
G1 F2400 X-58.178 Y-16.499 E2599.57831
G0 F12000 X-58.178 Y-16.999
G1 F2400 X58.178 Y-17 E2604.41583
G0 F12000 X58.178 Y-17.5
G1 F2400 X-58.178 Y-17.499 E2609.25335
G0 F12000 X-58.178 Y-17.999
G1 F2400 X58.178 Y-18 E2614.09087
G0 F12000 X58.178 Y-18.5
G1 F2400 X-58.178 Y-18.499 E2618.92839
G0 F12000 X-58.178 Y-18.999
G1 F2400 X58.178 Y-19 E2623.76591
G0 F12000 X58.178 Y-19.5
G1 F2400 X-58.178 Y-19.499 E2628.60343
G0 F12000 X-58.178 Y-19.999
G1 F2400 X58.178 Y-20 E2633.44095
G0 F12000 X58.178 Y-20.5
G1 F2400 X-58.178 Y-20.499 E2638.27847
G0 F12000 X-58.178 Y-20.999
G1 F2400 X58.178 Y-21 E2643.11599
G0 F12000 X58.178 Y-21.5
G1 F2400 X-58.178 Y-21.499 E2647.95351
G0 F12000 X-58.178 Y-21.999
G1 F2400 X58.178 Y-22 E2652.79103
G0 F12000 X58.178 Y-22.5
G1 F2400 X-58.178 Y-22.499 E2657.62855
G0 F12000 X-58.178 Y-22.999
G1 F2400 X58.178 Y-23 E2662.46607
G0 F12000 X58.178 Y-23.5
G1 F2400 X-58.178 Y-23.499 E2667.30359
G0 F12000 X-58.178 Y-23.999
G1 F2400 X58.178 Y-24 E2672.14111
G0 F12000 X58.178 Y-24.5
G1 F2400 X-58.178 Y-24.499 E2676.97864
G0 F12000 X-58.178 Y-24.999
G1 F2400 X58.178 Y-25 E2681.81616
G0 F12000 X58.178 Y-25.5
G1 F2400 X-58.178 Y-25.499 E2686.65368
G0 F12000 X-58.178 Y-25.999
G1 F2400 X58.178 Y-26 E2691.4912
G0 F12000 X58.178 Y-26.5
G1 F2400 X-58.178 Y-26.499 E2696.32872
G0 F12000 X-58.178 Y-26.999
G1 F2400 X58.178 Y-27 E2701.16624
G0 F12000 X58.178 Y-27.5
G1 F2400 X-58.178 Y-27.499 E2706.00376
G0 F12000 X-58.178 Y-27.999
G1 F2400 X58.178 Y-28 E2710.84128
G0 F12000 X58.178 Y-28.5
G1 F2400 X-58.178 Y-28.499 E2715.6788
G0 F12000 X-58.178 Y-28.999
G1 F2400 X58.178 Y-29 E2720.51632
G0 F12000 X58.178 Y-29.5
G1 F2400 X-58.178 Y-29.499 E2725.35384
G0 F12000 X-58.178 Y-29.999
G1 F2400 X58.178 Y-30 E2730.19136
G0 F12000 X58.178 Y-30.5
G1 F2400 X-58.178 Y-30.499 E2735.02888
G0 F12000 X-58.178 Y-30.999
G1 F2400 X58.178 Y-31 E2739.8664
G0 F12000 X58.178 Y-31.5
G1 F2400 X-58.178 Y-31.499 E2744.70392
G0 F12000 X-58.178 Y-31.999
G1 F2400 X58.178 Y-32 E2749.54144
G0 F12000 X58.178 Y-32.5
G1 F2400 X-58.178 Y-32.499 E2754.37896
G0 F12000 X-58.178 Y-33
G1 F2400 X58.178 Y-33 E2759.21648
G0 F12000 X58.178 Y-33.5
G1 F2400 X-58.178 Y-33.5 E2764.054
G0 F12000 X-58.178 Y-34
G1 F2400 X58.178 Y-34 E2768.89152
G0 F12000 X58.178 Y-34.5
G1 F2400 X-58.178 Y-34.5 E2773.72904
G0 F12000 X-58.178 Y-35
G1 F2400 X58.178 Y-35 E2778.56656
G0 F12000 X58.178 Y-35.5
G1 F2400 X-58.178 Y-35.5 E2783.40408
G0 F12000 X-58.178 Y-36
G1 F2400 X58.178 Y-36 E2788.2416
G0 F12000 X58.178 Y-36.5
G1 F2400 X-58.178 Y-36.5 E2793.07912
G0 F12000 X-58.178 Y-37
G1 F2400 X58.178 Y-37 E2797.91664
G0 F12000 X58.178 Y-37.5
G1 F2400 X-58.178 Y-37.5 E2802.75416
G0 F12000 X-58.178 Y-38
G1 F2400 X58.178 Y-38 E2807.59168
G0 F12000 X58.567 Y-38.55
G1 F2400 X58.606 Y-38.619 E2807.59493
G1 X58.582 Y-38.585 E2807.59797
G1 X58.588 Y-38.641 E2807.59854
G0 F12000 X58.615 Y38.545
G0 X58.615 Y38.545
G1 F2400 X58.602 Y38.623 E2807.60178
G1 X58.596 Y38.636 E2807.60193
G0 F12000 X-58.567 Y-38.55
G0 X-58.567 Y-38.55
G1 F2400 X-58.599 Y-38.628 E2807.60523
G1 X-58.555 Y-38.626 E2807.60567
; Layer Change GCode
; LAYER:3
G4 P0
M106 S153
G0 F12000 X-58.484 Y39.119 Z0.9
G0 X-58.484 Y39.519
G0 X-58.485 Y39.22
G0 X-58.485 Y39.22
G0 X-58.491 Y39.57
G0 X-58.491 Y39.57
G0 X-58.483 Y38.567
; TYPE:WALL-INNER
G1 F2400 X-58.483 Y38.567 E2807.60567
G1 X-58.555 Y38.515 E2807.60937
G1 X-58.57 Y38.411 E2807.61373
G1 X-58.57 Y-38.411 E2810.80762
G1 X-58.555 Y-38.515 E2810.81199
G1 X-58.496 Y-38.56 E2810.81507
G1 X58.445 Y-38.57 E2815.67692
G1 X58.533 Y-38.542 E2815.68076
G1 X58.552 Y-38.522 E2815.6819
G1 X58.563 Y-38.461 E2815.68448
G1 X58.57 Y38.411 E2818.88045
G1 X58.55 Y38.526 E2818.8853
G1 X58.497 Y38.56 E2818.88792
G1 X-58.483 Y38.567 E2823.75138
G0 F12000 X-58.474 Y39.07
G1 F2400 X-58.474 Y39.07 E2823.75138
G1 X-58.628 Y39.054 E2823.75782
G1 X-58.835 Y38.949 E2823.76747
G1 X-58.965 Y38.814 E2823.77526
G1 X-59.039 Y38.663 E2823.78225
G1 X-59.07 Y38.448 E2823.79128
G1 X-59.07 Y-38.448 E2826.98825
G1 X-59.039 Y-38.665 E2826.99736
G1 X-58.967 Y-38.811 E2827.00413
G1 X-58.835 Y-38.948 E2827.01204
G1 X-58.594 Y-39.06 E2827.02309
G1 X58.474 Y-39.07 E2831.89021
G1 X58.628 Y-39.054 E2831.89664
G1 X58.835 Y-38.949 E2831.90629
G1 X58.966 Y-38.812 E2831.91417
G1 X59.039 Y-38.664 E2831.92104
G1 X59.063 Y-38.499 E2831.92797
G1 X59.07 Y38.448 E2835.12705
G1 X59.039 Y38.663 E2835.13608
G1 X58.965 Y38.814 E2835.14307
G1 X58.835 Y38.949 E2835.15087
G1 X58.594 Y39.06 E2835.1619
G1 X-58.474 Y39.07 E2840.02902
G0 F12000 X-58.491 Y39.57
; TYPE:WALL-OUTER
G1 F1800 X-58.491 Y39.57 E2840.02902
G1 X-58.707 Y39.552 E2840.03803
G1 X-58.812 Y39.522 E2840.04257
G1 X-59.139 Y39.356 E2840.05782
G1 X-59.378 Y39.107 E2840.07217
G1 X-59.523 Y38.811 E2840.08587
G1 X-59.57 Y38.485 E2840.09956
G1 X-59.57 Y-38.484 E2843.29956
G1 X-59.523 Y-38.814 E2843.31342
G1 X-59.38 Y-39.104 E2843.32686
G1 X-59.138 Y-39.356 E2843.34139
G1 X-58.814 Y-39.52 E2843.35649
G1 X-58.658 Y-39.56 E2843.36318
G1 X58.491 Y-39.57 E2848.23367
G1 X58.707 Y-39.552 E2848.24268
G1 X58.812 Y-39.522 E2848.24722
G1 X59.137 Y-39.357 E2848.26238
G1 X59.381 Y-39.102 E2848.27705
G1 X59.523 Y-38.813 E2848.29044
G1 X59.563 Y-38.537 E2848.30203
G1 X59.57 Y38.485 E2851.50424
G1 X59.523 Y38.811 E2851.51793
G1 X59.378 Y39.107 E2851.53163
G1 X59.139 Y39.356 E2851.54598
G1 X58.814 Y39.52 E2851.56112
G1 X58.658 Y39.56 E2851.56781
G1 X-58.491 Y39.57 E2856.4383
G0 F12000 X-58.619 Y38.778
; TYPE:FILL
G1 F2400 X-58.64 Y38.723 E2856.43982
G1 X-58.722 Y38.706 E2856.44056
G0 F12000 X-57.999 Y38.316
G1 F2400 X-58 Y-38.309 E2859.62625
G0 F12000 X-57.5 Y-38.309
G1 F2400 X-57.499 Y38.316 E2862.81195
G0 F12000 X-56.999 Y38.316
G1 F2400 X-57 Y-38.309 E2865.99765
G0 F12000 X-56.5 Y-38.309
G1 F2400 X-56.499 Y38.316 E2869.18335
G0 F12000 X-55.999 Y38.316
G1 F2400 X-56 Y-38.309 E2872.36904
G0 F12000 X-55.5 Y-38.309
G1 F2400 X-55.499 Y38.316 E2875.55474
G0 F12000 X-54.999 Y38.316
G1 F2400 X-55 Y-38.309 E2878.74044
G0 F12000 X-54.5 Y-38.309
G1 F2400 X-54.499 Y38.316 E2881.92614
G0 F12000 X-53.999 Y38.316
G1 F2400 X-54 Y-38.309 E2885.11183
G0 F12000 X-53.5 Y-38.309
G1 F2400 X-53.499 Y38.316 E2888.29753
G0 F12000 X-52.999 Y38.316
G1 F2400 X-53 Y-38.309 E2891.48323
G0 F12000 X-52.5 Y-38.309
G1 F2400 X-52.499 Y38.316 E2894.66893
G0 F12000 X-51.999 Y38.316
G1 F2400 X-52 Y-38.309 E2897.85462
G0 F12000 X-51.5 Y-38.31
G1 F2400 X-51.499 Y38.316 E2901.04036
G0 F12000 X-50.999 Y38.316
G1 F2400 X-51 Y-38.31 E2904.2261
G0 F12000 X-50.5 Y-38.31
G1 F2400 X-50.499 Y38.316 E2907.41184
G0 F12000 X-49.999 Y38.316
G1 F2400 X-50 Y-38.31 E2910.59758
G0 F12000 X-49.5 Y-38.31
G1 F2400 X-49.499 Y38.316 E2913.78332
G0 F12000 X-48.999 Y38.316
G1 F2400 X-49 Y-38.31 E2916.96906
G0 F12000 X-48.5 Y-38.31
G1 F2400 X-48.499 Y38.315 E2920.15475
G0 F12000 X-47.999 Y38.315
G1 F2400 X-48 Y-38.31 E2923.34045
G0 F12000 X-47.5 Y-38.31
G1 F2400 X-47.499 Y38.315 E2926.52615
G0 F12000 X-46.999 Y38.315
G1 F2400 X-47 Y-38.31 E2929.71184
G0 F12000 X-46.5 Y-38.31
G1 F2400 X-46.499 Y38.315 E2932.89754
G0 F12000 X-45.999 Y38.315
G1 F2400 X-46 Y-38.31 E2936.08324
G0 F12000 X-45.5 Y-38.31
G1 F2400 X-45.499 Y38.315 E2939.26894
G0 F12000 X-44.999 Y38.315
G1 F2400 X-45 Y-38.31 E2942.45463
G0 F12000 X-44.5 Y-38.31
G1 F2400 X-44.499 Y38.315 E2945.64033
G0 F12000 X-43.999 Y38.315
G1 F2400 X-44 Y-38.31 E2948.82603
G0 F12000 X-43.5 Y-38.31
G1 F2400 X-43.499 Y38.315 E2952.01173
G0 F12000 X-42.999 Y38.315
G1 F2400 X-43 Y-38.31 E2955.19742
G0 F12000 X-42.5 Y-38.31
G1 F2400 X-42.499 Y38.315 E2958.38312
G0 F12000 X-41.999 Y38.315
G1 F2400 X-42 Y-38.31 E2961.56882
G0 F12000 X-41.5 Y-38.31
G1 F2400 X-41.499 Y38.315 E2964.75452
G0 F12000 X-40.999 Y38.315
G1 F2400 X-41 Y-38.31 E2967.94021
G0 F12000 X-40.5 Y-38.31
G1 F2400 X-40.499 Y38.315 E2971.12591
G0 F12000 X-39.999 Y38.315
G1 F2400 X-40 Y-38.31 E2974.31161
G0 F12000 X-39.5 Y-38.31
G1 F2400 X-39.499 Y38.315 E2977.4973
G0 F12000 X-38.999 Y38.315
G1 F2400 X-39 Y-38.31 E2980.683
G0 F12000 X-38.5 Y-38.311
G1 F2400 X-38.499 Y38.315 E2983.86874
G0 F12000 X-37.999 Y38.315
G1 F2400 X-38 Y-38.311 E2987.05448
G0 F12000 X-37.5 Y-38.311
G1 F2400 X-37.499 Y38.315 E2990.24022
G0 F12000 X-36.999 Y38.315
G1 F2400 X-37 Y-38.311 E2993.42596
G0 F12000 X-36.5 Y-38.311
G1 F2400 X-36.499 Y38.315 E2996.6117
G0 F12000 X-35.999 Y38.315
G1 F2400 X-36 Y-38.311 E2999.79744
G0 F12000 X-35.5 Y-38.311
G1 F2400 X-35.499 Y38.315 E3002.98317
G0 F12000 X-34.999 Y38.315
G1 F2400 X-35 Y-38.311 E3006.16891
G0 F12000 X-34.5 Y-38.311
G1 F2400 X-34.499 Y38.315 E3009.35465
G0 F12000 X-33.999 Y38.315
G1 F2400 X-34 Y-38.311 E3012.54039
G0 F12000 X-33.5 Y-38.311
G1 F2400 X-33.499 Y38.315 E3015.72613
G0 F12000 X-32.999 Y38.315
G1 F2400 X-33 Y-38.311 E3018.91187
G0 F12000 X-32.5 Y-38.311
G1 F2400 X-32.499 Y38.315 E3022.09761
G0 F12000 X-31.999 Y38.315
G1 F2400 X-32 Y-38.311 E3025.28335
G0 F12000 X-31.5 Y-38.311
G1 F2400 X-31.499 Y38.315 E3028.46909
G0 F12000 X-30.999 Y38.315
G1 F2400 X-31 Y-38.311 E3031.65482
G0 F12000 X-30.5 Y-38.311
G1 F2400 X-30.499 Y38.315 E3034.84056
G0 F12000 X-29.999 Y38.315
G1 F2400 X-30 Y-38.311 E3038.0263
G0 F12000 X-29.5 Y-38.312
G1 F2400 X-29.499 Y38.315 E3041.21208
G0 F12000 X-28.999 Y38.314
G1 F2400 X-29 Y-38.312 E3044.39782
G0 F12000 X-28.5 Y-38.312
G1 F2400 X-28.499 Y38.314 E3047.58356
G0 F12000 X-27.999 Y38.314
G1 F2400 X-28 Y-38.312 E3050.7693
G0 F12000 X-27.5 Y-38.312
G1 F2400 X-27.499 Y38.314 E3053.95504
G0 F12000 X-26.999 Y38.314
G1 F2400 X-27 Y-38.312 E3057.14078
G0 F12000 X-26.5 Y-38.312
G1 F2400 X-26.499 Y38.314 E3060.32652
G0 F12000 X-25.999 Y38.314
G1 F2400 X-26 Y-38.312 E3063.51225
G0 F12000 X-25.5 Y-38.313
G1 F2400 X-25.499 Y38.314 E3066.69803
G0 F12000 X-24.999 Y38.314
G1 F2400 X-25 Y-38.313 E3069.88382
G0 F12000 X-24.5 Y-38.313
G1 F2400 X-24.499 Y38.314 E3073.0696
G0 F12000 X-23.999 Y38.314
G1 F2400 X-24 Y-38.313 E3076.25538
G0 F12000 X-23.5 Y-38.313
G1 F2400 X-23.499 Y38.314 E3079.44116
G0 F12000 X-22.999 Y38.314
G1 F2400 X-23 Y-38.313 E3082.62694
G0 F12000 X-22.5 Y-38.313
G1 F2400 X-22.499 Y38.314 E3085.81272
G0 F12000 X-21.999 Y38.314
G1 F2400 X-22 Y-38.313 E3088.9985
G0 F12000 X-21.5 Y-38.313
G1 F2400 X-21.499 Y38.314 E3092.18428
G0 F12000 X-20.999 Y38.314
G1 F2400 X-21 Y-38.313 E3095.37006
G0 F12000 X-20.5 Y-38.313
G1 F2400 X-20.499 Y38.314 E3098.55584
G0 F12000 X-19.999 Y38.314
G1 F2400 X-20 Y-38.313 E3101.74162
G0 F12000 X-19.5 Y-38.313
G1 F2400 X-19.499 Y38.314 E3104.9274
G0 F12000 X-18.999 Y38.314
G1 F2400 X-19 Y-38.313 E3108.11318
G0 F12000 X-18.5 Y-38.313
G1 F2400 X-18.499 Y38.314 E3111.29896
G0 F12000 X-17.999 Y38.314
G1 F2400 X-18 Y-38.313 E3114.48474
G0 F12000 X-17.5 Y-38.313
G1 F2400 X-17.499 Y38.314 E3117.67052
G0 F12000 X-16.999 Y38.314
G1 F2400 X-17 Y-38.313 E3120.8563
G0 F12000 X-16.5 Y-38.313
G1 F2400 X-16.499 Y38.314 E3124.04208
G0 F12000 X-15.999 Y38.314
G1 F2400 X-16 Y-38.313 E3127.22786
G0 F12000 X-15.5 Y-38.313
G1 F2400 X-15.499 Y38.314 E3130.41364
G0 F12000 X-14.999 Y38.314
G1 F2400 X-15 Y-38.313 E3133.59942
G0 F12000 X-14.5 Y-38.313
G1 F2400 X-14.499 Y38.314 E3136.78521
G0 F12000 X-13.999 Y38.314
G1 F2400 X-14 Y-38.313 E3139.97099
G0 F12000 X-13.5 Y-38.313
G1 F2400 X-13.499 Y38.314 E3143.15677
G0 F12000 X-12.999 Y38.314
G1 F2400 X-13 Y-38.313 E3146.34255
G0 F12000 X-12.5 Y-38.314
G1 F2400 X-12.499 Y38.314 E3149.52837
G0 F12000 X-11.999 Y38.314
G1 F2400 X-12 Y-38.314 E3152.71419
G0 F12000 X-11.5 Y-38.314
G1 F2400 X-11.499 Y38.314 E3155.90001
G0 F12000 X-10.999 Y38.314
G1 F2400 X-11 Y-38.314 E3159.08583
G0 F12000 X-10.5 Y-38.314
G1 F2400 X-10.499 Y38.314 E3162.27166
G0 F12000 X-9.999 Y38.314
G1 F2400 X-10 Y-38.314 E3165.45748
G0 F12000 X-9.5 Y-38.314
G1 F2400 X-9.499 Y38.313 E3168.64326
G0 F12000 X-8.999 Y38.313
G1 F2400 X-9 Y-38.314 E3171.82904
G0 F12000 X-8.5 Y-38.314
G1 F2400 X-8.499 Y38.313 E3175.01482
G0 F12000 X-7.999 Y38.313
G1 F2400 X-8 Y-38.314 E3178.2006
G0 F12000 X-7.5 Y-38.314
G1 F2400 X-7.499 Y38.313 E3181.38638
G0 F12000 X-6.999 Y38.313
G1 F2400 X-7 Y-38.314 E3184.57216
G0 F12000 X-6.5 Y-38.314
G1 F2400 X-6.499 Y38.313 E3187.75794
G0 F12000 X-5.999 Y38.313
G1 F2400 X-6 Y-38.314 E3190.94372
G0 F12000 X-5.5 Y-38.314
G1 F2400 X-5.499 Y38.313 E3194.1295
G0 F12000 X-4.999 Y38.313
G1 F2400 X-5 Y-38.314 E3197.31528
G0 F12000 X-4.5 Y-38.314
G1 F2400 X-4.499 Y38.313 E3200.50106
G0 F12000 X-3.999 Y38.313
G1 F2400 X-4 Y-38.314 E3203.68684
G0 F12000 X-3.5 Y-38.314
G1 F2400 X-3.499 Y38.313 E3206.87262
G0 F12000 X-2.999 Y38.313
G1 F2400 X-3 Y-38.314 E3210.05841
G0 F12000 X-2.5 Y-38.314
G1 F2400 X-2.499 Y38.313 E3213.24419
G0 F12000 X-1.999 Y38.313
G1 F2400 X-2 Y-38.314 E3216.42997
G0 F12000 X-1.5 Y-38.314
G1 F2400 X-1.499 Y38.313 E3219.61575
G0 F12000 X-0.999 Y38.313
G1 F2400 X-1 Y-38.314 E3222.80153
G0 F12000 X-0.5 Y-38.314
G1 F2400 X-0.499 Y38.313 E3225.98731
G0 F12000 X0 Y38.313
G1 F2400 X0 Y-38.315 E3229.17313
G0 F12000 X0.499 Y-38.315
G1 F2400 X0.5 Y38.313 E3232.35895
G0 F12000 X1 Y38.313
G1 F2400 X0.999 Y-38.315 E3235.54477
G0 F12000 X1.499 Y-38.315
G1 F2400 X1.5 Y38.313 E3238.7306
G0 F12000 X2 Y38.313
G1 F2400 X1.999 Y-38.315 E3241.91642
G0 F12000 X2.499 Y-38.315
G1 F2400 X2.5 Y38.313 E3245.10224
G0 F12000 X3 Y38.313
G1 F2400 X2.999 Y-38.315 E3248.28806
G0 F12000 X3.499 Y-38.315
G1 F2400 X3.5 Y38.313 E3251.47388
G0 F12000 X4 Y38.313
G1 F2400 X3.999 Y-38.315 E3254.65971
G0 F12000 X4.499 Y-38.315
G1 F2400 X4.5 Y38.313 E3257.84553
G0 F12000 X5 Y38.313
G1 F2400 X4.999 Y-38.315 E3261.03135
G0 F12000 X5.499 Y-38.315
G1 F2400 X5.5 Y38.313 E3264.21717
G0 F12000 X6 Y38.313
G1 F2400 X5.999 Y-38.315 E3267.40299
G0 F12000 X6.499 Y-38.315
G1 F2400 X6.5 Y38.313 E3270.58882
G0 F12000 X7 Y38.313
G1 F2400 X6.999 Y-38.315 E3273.77464
G0 F12000 X7.499 Y-38.315
G1 F2400 X7.5 Y38.313 E3276.96046
G0 F12000 X8 Y38.313
G1 F2400 X7.999 Y-38.315 E3280.14628
G0 F12000 X8.499 Y-38.315
G1 F2400 X8.5 Y38.313 E3283.3321
G0 F12000 X9 Y38.313
G1 F2400 X8.999 Y-38.315 E3286.51793
G0 F12000 X9.499 Y-38.315
G1 F2400 X9.5 Y38.313 E3289.70375
G0 F12000 X10 Y38.312
G1 F2400 X9.999 Y-38.315 E3292.88953
G0 F12000 X10.499 Y-38.315
G1 F2400 X10.5 Y38.312 E3296.07531
G0 F12000 X11 Y38.312
G1 F2400 X10.999 Y-38.315 E3299.26109
G0 F12000 X11.499 Y-38.315
G1 F2400 X11.5 Y38.312 E3302.44687
G0 F12000 X12 Y38.312
G1 F2400 X11.999 Y-38.315 E3305.63265
G0 F12000 X12.499 Y-38.315
G1 F2400 X12.5 Y38.312 E3308.81843
G0 F12000 X13 Y38.312
G1 F2400 X12.999 Y-38.316 E3312.00425
G0 F12000 X13.499 Y-38.316
G1 F2400 X13.5 Y38.312 E3315.19008
G0 F12000 X14 Y38.312
G1 F2400 X13.999 Y-38.316 E3318.3759
G0 F12000 X14.499 Y-38.316
G1 F2400 X14.5 Y38.312 E3321.56172
G0 F12000 X15 Y38.312
G1 F2400 X14.999 Y-38.316 E3324.74754
G0 F12000 X15.499 Y-38.316
G1 F2400 X15.5 Y38.312 E3327.93336
G0 F12000 X16 Y38.312
G1 F2400 X15.999 Y-38.316 E3331.11919
G0 F12000 X16.499 Y-38.316
G1 F2400 X16.5 Y38.312 E3334.30501
G0 F12000 X17 Y38.312
G1 F2400 X16.999 Y-38.316 E3337.49083
G0 F12000 X17.499 Y-38.316
G1 F2400 X17.5 Y38.312 E3340.67665
G0 F12000 X18 Y38.312
G1 F2400 X17.999 Y-38.316 E3343.86247
G0 F12000 X18.499 Y-38.316
G1 F2400 X18.5 Y38.312 E3347.0483
G0 F12000 X19 Y38.312
G1 F2400 X18.999 Y-38.316 E3350.23412
G0 F12000 X19.499 Y-38.316
G1 F2400 X19.5 Y38.312 E3353.41994
G0 F12000 X20 Y38.312
G1 F2400 X19.999 Y-38.316 E3356.60576
G0 F12000 X20.499 Y-38.316
G1 F2400 X20.5 Y38.312 E3359.79158
G0 F12000 X21 Y38.312
G1 F2400 X20.999 Y-38.316 E3362.97741
G0 F12000 X21.499 Y-38.316
G1 F2400 X21.5 Y38.312 E3366.16323
G0 F12000 X22 Y38.312
G1 F2400 X21.999 Y-38.316 E3369.34905
G0 F12000 X22.499 Y-38.316
G1 F2400 X22.5 Y38.312 E3372.53487
G0 F12000 X23 Y38.312
G1 F2400 X22.999 Y-38.316 E3375.72069
G0 F12000 X23.499 Y-38.316
G1 F2400 X23.5 Y38.312 E3378.90652
G0 F12000 X24 Y38.312
G1 F2400 X23.999 Y-38.316 E3382.09234
G0 F12000 X24.499 Y-38.316
G1 F2400 X24.5 Y38.312 E3385.27816
G0 F12000 X25 Y38.312
G1 F2400 X24.999 Y-38.316 E3388.46398
G0 F12000 X25.499 Y-38.316
G1 F2400 X25.5 Y38.312 E3391.6498
G0 F12000 X26 Y38.312
G1 F2400 X25.999 Y-38.317 E3394.83567
G0 F12000 X26.499 Y-38.317
G1 F2400 X26.5 Y38.312 E3398.02153
G0 F12000 X27 Y38.312
G1 F2400 X26.999 Y-38.317 E3401.20739
G0 F12000 X27.499 Y-38.317
G1 F2400 X27.5 Y38.312 E3404.39326
G0 F12000 X28 Y38.312
G1 F2400 X27.999 Y-38.317 E3407.57912
G0 F12000 X28.499 Y-38.317
G1 F2400 X28.5 Y38.312 E3410.76499
G0 F12000 X29 Y38.312
G1 F2400 X28.999 Y-38.317 E3413.95085
G0 F12000 X29.499 Y-38.317
G1 F2400 X29.5 Y38.311 E3417.13667
G0 F12000 X30 Y38.31
G1 F2400 X29.999 Y-38.317 E3420.32245
G0 F12000 X30.499 Y-38.317
G1 F2400 X30.5 Y38.31 E3423.50823
G0 F12000 X31 Y38.31
G1 F2400 X30.999 Y-38.317 E3426.69401
G0 F12000 X31.499 Y-38.317
G1 F2400 X31.5 Y38.31 E3429.87979
G0 F12000 X32 Y38.31
G1 F2400 X31.999 Y-38.317 E3433.06557
G0 F12000 X32.499 Y-38.317
G1 F2400 X32.5 Y38.31 E3436.25135
G0 F12000 X33 Y38.31
G1 F2400 X32.999 Y-38.317 E3439.43713
G0 F12000 X33.499 Y-38.317
G1 F2400 X33.5 Y38.31 E3442.62291
G0 F12000 X34 Y38.31
G1 F2400 X33.999 Y-38.317 E3445.8087
G0 F12000 X34.499 Y-38.317
G1 F2400 X34.5 Y38.31 E3448.99448
G0 F12000 X35 Y38.31
G1 F2400 X34.999 Y-38.317 E3452.18026
G0 F12000 X35.499 Y-38.317
G1 F2400 X35.5 Y38.31 E3455.36604
G0 F12000 X36 Y38.31
G1 F2400 X35.999 Y-38.317 E3458.55182
G0 F12000 X36.499 Y-38.317
G1 F2400 X36.5 Y38.31 E3461.7376
G0 F12000 X37 Y38.31
G1 F2400 X36.999 Y-38.317 E3464.92338
G0 F12000 X37.499 Y-38.317
G1 F2400 X37.5 Y38.31 E3468.10916
G0 F12000 X38 Y38.31
G1 F2400 X37.999 Y-38.317 E3471.29494
G0 F12000 X38.499 Y-38.317
G1 F2400 X38.5 Y38.31 E3474.48072
G0 F12000 X39 Y38.31
G1 F2400 X38.999 Y-38.318 E3477.66654
G0 F12000 X39.499 Y-38.318
G1 F2400 X39.5 Y38.31 E3480.85236
G0 F12000 X40 Y38.31
G1 F2400 X39.999 Y-38.318 E3484.03819
G0 F12000 X40.499 Y-38.318
G1 F2400 X40.5 Y38.31 E3487.22401
G0 F12000 X41 Y38.31
G1 F2400 X40.999 Y-38.318 E3490.40983
G0 F12000 X41.499 Y-38.318
G1 F2400 X41.5 Y38.31 E3493.59565
G0 F12000 X42 Y38.31
G1 F2400 X41.999 Y-38.318 E3496.78147
G0 F12000 X42.499 Y-38.318
G1 F2400 X42.5 Y38.31 E3499.9673
G0 F12000 X43 Y38.31
G1 F2400 X42.999 Y-38.318 E3503.15312
G0 F12000 X43.499 Y-38.318
G1 F2400 X43.5 Y38.31 E3506.33894
G0 F12000 X44 Y38.31
G1 F2400 X43.999 Y-38.318 E3509.52476
G0 F12000 X44.499 Y-38.318
G1 F2400 X44.5 Y38.31 E3512.71058
G0 F12000 X45 Y38.31
G1 F2400 X44.999 Y-38.318 E3515.89641
G0 F12000 X45.499 Y-38.318
G1 F2400 X45.5 Y38.31 E3519.08223
G0 F12000 X46 Y38.31
G1 F2400 X45.999 Y-38.318 E3522.26805
G0 F12000 X46.499 Y-38.318
G1 F2400 X46.5 Y38.31 E3525.45387
G0 F12000 X47 Y38.31
G1 F2400 X46.999 Y-38.318 E3528.63969
G0 F12000 X47.499 Y-38.318
G1 F2400 X47.5 Y38.31 E3531.82552
G0 F12000 X48 Y38.31
G1 F2400 X47.999 Y-38.318 E3535.01134
G0 F12000 X48.499 Y-38.318
G1 F2400 X48.5 Y38.31 E3538.19716
G0 F12000 X49 Y38.309
G1 F2400 X48.999 Y-38.318 E3541.38294
G0 F12000 X49.499 Y-38.318
G1 F2400 X49.5 Y38.309 E3544.56872
G0 F12000 X50 Y38.309
G1 F2400 X49.999 Y-38.318 E3547.7545
G0 F12000 X50.499 Y-38.318
G1 F2400 X50.5 Y38.309 E3550.94028
G0 F12000 X51 Y38.309
G1 F2400 X50.999 Y-38.318 E3554.12606
G0 F12000 X51.499 Y-38.318
G1 F2400 X51.5 Y38.309 E3557.31184
G0 F12000 X52 Y38.309
G1 F2400 X51.999 Y-38.319 E3560.49766
G0 F12000 X52.499 Y-38.319
G1 F2400 X52.5 Y38.309 E3563.68349
G0 F12000 X53 Y38.309
G1 F2400 X52.999 Y-38.319 E3566.86931
G0 F12000 X53.499 Y-38.319
G1 F2400 X53.5 Y38.309 E3570.05513
G0 F12000 X54 Y38.309
G1 F2400 X53.999 Y-38.319 E3573.24095
G0 F12000 X54.499 Y-38.319
G1 F2400 X54.5 Y38.309 E3576.42678
G0 F12000 X55 Y38.309
G1 F2400 X54.999 Y-38.319 E3579.6126
G0 F12000 X55.499 Y-38.319
G1 F2400 X55.5 Y38.309 E3582.79842
G0 F12000 X56 Y38.309
G1 F2400 X55.999 Y-38.319 E3585.98424
G0 F12000 X56.499 Y-38.319
G1 F2400 X56.5 Y38.309 E3589.17006
G0 F12000 X57 Y38.309
G1 F2400 X56.999 Y-38.319 E3592.35589
G0 F12000 X57.499 Y-38.319
G1 F2400 X57.5 Y38.309 E3595.54171
G0 F12000 X58 Y38.309
G1 F2400 X57.999 Y-38.319 E3598.72753
G0 F12000 X58.633 Y-38.648
G1 F2400 X58.674 Y-38.701 E3598.72936
G1 X58.721 Y-38.707 E3598.72978
G0 F12000 X58.655 Y-38.74
G1 F2400 X58.615 Y-38.724 E3598.73169
G1 X58.619 Y-38.778 E3598.73236
G0 F12000 X58.688 Y38.618
G0 X58.688 Y38.618
G1 F2400 X58.731 Y38.687 E3598.73536
G1 X58.676 Y38.701 E3598.73586
G0 F12000 X-58.687 Y-38.618
G0 X-58.687 Y-38.618
G1 F2400 X-58.73 Y-38.686 E3598.73887
G1 X-58.675 Y-38.7 E3598.73936
; Layer Change GCode
; LAYER:4
G0 F12000 X58.475 Y39.301 Z1.1
G0 X58.475 Y39.301
G0 X58.488 Y39.652
G0 X58.488 Y39.652
G0 X58.436 Y38.652
; TYPE:WALL-INNER
G1 F2400 X58.436 Y38.652 E3598.73936
G1 X-58.499 Y38.645 E3603.60096
G1 X-58.593 Y38.611 E3603.60511
G1 X-58.633 Y38.544 E3603.60836
G1 X-58.652 Y38.41 E3603.61398
G1 X-58.652 Y-38.409 E3606.80775
G1 X-58.613 Y-38.588 E3606.81536
G1 X-58.555 Y-38.635 E3606.81847
G1 X-58.436 Y-38.652 E3606.82346
G1 X58.499 Y-38.645 E3611.68506
G1 X58.594 Y-38.611 E3611.68925
G1 X58.633 Y-38.542 E3611.69255
G1 X58.652 Y-38.409 E3611.69813
G1 X58.652 Y38.41 E3614.89189
G1 X58.615 Y38.585 E3614.89933
G1 X58.555 Y38.635 E3614.90258
G1 X58.436 Y38.652 E3614.90758
G0 F12000 X58.462 Y39.152
G1 F2400 X58.462 Y39.152 E3614.90758
G1 X-58.552 Y39.145 E3619.77245
G1 X-58.753 Y39.102 E3619.781
G1 X-58.928 Y38.991 E3619.78961
G1 X-59.043 Y38.852 E3619.79711
G1 X-59.118 Y38.681 E3619.80488
G1 X-59.152 Y38.444 E3619.81483
G1 X-59.152 Y-38.444 E3623.01146
G1 X-59.119 Y-38.68 E3623.02137
G1 X-59.042 Y-38.852 E3623.02921
G1 X-58.927 Y-38.991 E3623.03671
G1 X-58.756 Y-39.1 E3623.04514
G1 X-58.599 Y-39.139 E3623.05186
G1 X-58.462 Y-39.152 E3623.05758
G1 X58.552 Y-39.145 E3627.92246
G1 X58.753 Y-39.102 E3627.93101
G1 X58.927 Y-38.991 E3627.93959
G1 X59.042 Y-38.852 E3627.94709
G1 X59.119 Y-38.68 E3627.95492
G1 X59.152 Y-38.444 E3627.96483
G1 X59.152 Y38.444 E3631.16146
G1 X59.118 Y38.681 E3631.17141
G1 X59.043 Y38.852 E3631.17918
G1 X58.928 Y38.991 E3631.18668
G1 X58.756 Y39.1 E3631.19514
G1 X58.599 Y39.139 E3631.20187
G1 X58.462 Y39.152 E3631.20759
G0 F12000 X58.488 Y39.652
; TYPE:WALL-OUTER
G1 F1800 X58.488 Y39.652 E3631.20759
G1 X-58.604 Y39.645 E3636.07571
G1 X-58.948 Y39.57 E3636.09035
G1 X-59.263 Y39.37 E3636.10586
G1 X-59.472 Y39.118 E3636.11947
G1 X-59.604 Y38.819 E3636.13306
G1 X-59.652 Y38.479 E3636.14734
G1 X-59.652 Y-38.478 E3639.34684
G1 X-59.604 Y-38.819 E3639.36115
G1 X-59.472 Y-39.117 E3639.3747
G1 X-59.263 Y-39.37 E3639.38835
G1 X-58.955 Y-39.566 E3639.40353
G1 X-58.68 Y-39.634 E3639.4153
G1 X-58.488 Y-39.652 E3639.42332
G1 X58.604 Y-39.645 E3644.29144
G1 X58.948 Y-39.57 E3644.30608
G1 X59.263 Y-39.37 E3644.32159
G1 X59.472 Y-39.117 E3644.33523
G1 X59.604 Y-38.819 E3644.34879
G1 X59.652 Y-38.478 E3644.3631
G1 X59.652 Y38.479 E3647.5626
G1 X59.604 Y38.819 E3647.57688
G1 X59.472 Y39.118 E3647.59047
G1 X59.263 Y39.37 E3647.60408
G1 X58.955 Y39.566 E3647.61926
G1 X58.68 Y39.634 E3647.63103
G1 X58.488 Y39.652 E3647.63905
G0 F12000 X58.707 Y38.834
; TYPE:FILL
G1 F2400 X58.694 Y38.806 E3647.63938
G0 F12000 X58.765 Y38.739
G1 F2400 X58.794 Y38.76 E3647.63969
G0 F12000 X58.852 Y38.664
G1 F2400 X58.831 Y38.615 E3647.64022
G0 F12000 X58.402 Y38
G1 F2400 X-58.402 Y38 E3652.49637
G0 F12000 X-58.402 Y37.5
G1 F2400 X58.402 Y37.5 E3657.35252
G0 F12000 X58.402 Y37
G1 F2400 X-58.402 Y37 E3662.20866
G0 F12000 X-58.402 Y36.5
G1 F2400 X58.402 Y36.5 E3667.06481
G0 F12000 X58.402 Y36
G1 F2400 X-58.402 Y36 E3671.92095
G0 F12000 X-58.402 Y35.5
G1 F2400 X58.402 Y35.5 E3676.7771
G0 F12000 X58.402 Y35
G1 F2400 X-58.402 Y35 E3681.63325
G0 F12000 X-58.402 Y34.5
G1 F2400 X58.402 Y34.5 E3686.48939
G0 F12000 X58.402 Y34
G1 F2400 X-58.402 Y34 E3691.34554
G0 F12000 X-58.402 Y33.5
G1 F2400 X58.402 Y33.5 E3696.20168
G0 F12000 X58.402 Y33
G1 F2400 X-58.402 Y33 E3701.05783
G0 F12000 X-58.402 Y32.5
G1 F2400 X58.402 Y32.499 E3705.91398
G0 F12000 X58.402 Y31.999
G1 F2400 X-58.402 Y32 E3710.77012
G0 F12000 X-58.402 Y31.5
G1 F2400 X58.402 Y31.499 E3715.62627
G0 F12000 X58.402 Y30.999
G1 F2400 X-58.402 Y31 E3720.48241
G0 F12000 X-58.402 Y30.5
G1 F2400 X58.402 Y30.499 E3725.33856
G0 F12000 X58.402 Y29.999
G1 F2400 X-58.402 Y30 E3730.19471
G0 F12000 X-58.402 Y29.5
G1 F2400 X58.402 Y29.499 E3735.05085
G0 F12000 X58.402 Y28.999
G1 F2400 X-58.402 Y29 E3739.907
G0 F12000 X-58.402 Y28.5
G1 F2400 X58.402 Y28.499 E3744.76314
G0 F12000 X58.402 Y27.999
G1 F2400 X-58.402 Y28 E3749.61929
G0 F12000 X-58.402 Y27.5
G1 F2400 X58.402 Y27.499 E3754.47544
G0 F12000 X58.402 Y26.999
G1 F2400 X-58.402 Y27 E3759.33158
G0 F12000 X-58.402 Y26.5
G1 F2400 X58.402 Y26.499 E3764.18773
G0 F12000 X58.402 Y25.999
G1 F2400 X-58.402 Y26 E3769.04387
G0 F12000 X-58.402 Y25.5
G1 F2400 X58.402 Y25.499 E3773.90002
G0 F12000 X58.402 Y24.999
G1 F2400 X-58.402 Y25 E3778.75617
G0 F12000 X-58.402 Y24.5
G1 F2400 X58.402 Y24.499 E3783.61231
G0 F12000 X58.402 Y23.999
G1 F2400 X-58.402 Y24 E3788.46846
G0 F12000 X-58.402 Y23.5
G1 F2400 X58.402 Y23.499 E3793.3246
G0 F12000 X58.402 Y22.999
G1 F2400 X-58.402 Y23 E3798.18075
G0 F12000 X-58.402 Y22.5
G1 F2400 X58.402 Y22.499 E3803.0369
G0 F12000 X58.402 Y21.999
G1 F2400 X-58.402 Y22 E3807.89304
G0 F12000 X-58.402 Y21.5
G1 F2400 X58.402 Y21.499 E3812.74919
G0 F12000 X58.402 Y20.999
G1 F2400 X-58.402 Y21 E3817.60533
G0 F12000 X-58.402 Y20.5
G1 F2400 X58.402 Y20.499 E3822.46148
G0 F12000 X58.402 Y19.999
G1 F2400 X-58.402 Y20 E3827.31763
G0 F12000 X-58.402 Y19.5
G1 F2400 X58.402 Y19.499 E3832.17377
G0 F12000 X58.402 Y18.999
G1 F2400 X-58.402 Y19 E3837.02992
G0 F12000 X-58.402 Y18.5
G1 F2400 X58.402 Y18.499 E3841.88606
G0 F12000 X58.402 Y17.999
G1 F2400 X-58.402 Y18 E3846.74221
G0 F12000 X-58.402 Y17.5
G1 F2400 X58.402 Y17.499 E3851.59836
G0 F12000 X58.402 Y16.999
G1 F2400 X-58.402 Y17 E3856.4545
G0 F12000 X-58.402 Y16.5
G1 F2400 X58.402 Y16.499 E3861.31065
G0 F12000 X58.402 Y15.999
G1 F2400 X-58.402 Y16 E3866.16679
G0 F12000 X-58.402 Y15.5
G1 F2400 X58.402 Y15.499 E3871.02294
G0 F12000 X58.402 Y14.999
G1 F2400 X-58.402 Y15 E3875.87909
G0 F12000 X-58.402 Y14.5
G1 F2400 X58.402 Y14.499 E3880.73523
G0 F12000 X58.402 Y13.999
G1 F2400 X-58.402 Y14 E3885.59138
G0 F12000 X-58.402 Y13.5
G1 F2400 X58.402 Y13.499 E3890.44752
G0 F12000 X58.402 Y12.999
G1 F2400 X-58.402 Y13 E3895.30367
G0 F12000 X-58.402 Y12.5
G1 F2400 X58.402 Y12.499 E3900.15982
G0 F12000 X58.402 Y11.999
G1 F2400 X-58.402 Y12 E3905.01596
G0 F12000 X-58.402 Y11.5
G1 F2400 X58.402 Y11.499 E3909.87211
G0 F12000 X58.402 Y10.999
G1 F2400 X-58.402 Y11 E3914.72825
G0 F12000 X-58.402 Y10.5
G1 F2400 X58.402 Y10.499 E3919.5844
G0 F12000 X58.402 Y9.999
G1 F2400 X-58.402 Y10 E3924.44055
G0 F12000 X-58.402 Y9.5
G1 F2400 X58.402 Y9.499 E3929.29669
G0 F12000 X58.402 Y8.999
G1 F2400 X-58.402 Y9 E3934.15284
G0 F12000 X-58.402 Y8.5
G1 F2400 X58.402 Y8.499 E3939.00898
G0 F12000 X58.402 Y7.999
G1 F2400 X-58.402 Y8 E3943.86513
G0 F12000 X-58.402 Y7.5
G1 F2400 X58.402 Y7.499 E3948.72128
G0 F12000 X58.402 Y6.999
G1 F2400 X-58.402 Y7 E3953.57742
G0 F12000 X-58.402 Y6.5
G1 F2400 X58.402 Y6.499 E3958.43357
G0 F12000 X58.402 Y5.999
G1 F2400 X-58.402 Y6 E3963.28971
G0 F12000 X-58.402 Y5.5
G1 F2400 X58.402 Y5.499 E3968.14586
G0 F12000 X58.402 Y4.999
G1 F2400 X-58.402 Y5 E3973.00201
G0 F12000 X-58.402 Y4.5
G1 F2400 X58.402 Y4.499 E3977.85815
G0 F12000 X58.402 Y3.999
G1 F2400 X-58.402 Y4 E3982.7143
G0 F12000 X-58.402 Y3.5
G1 F2400 X58.402 Y3.499 E3987.57044
G0 F12000 X58.402 Y2.999
G1 F2400 X-58.402 Y3 E3992.42659
G0 F12000 X-58.402 Y2.5
G1 F2400 X58.402 Y2.499 E3997.28274
G0 F12000 X58.402 Y1.999
G1 F2400 X-58.402 Y2 E4002.13888
G0 F12000 X-58.402 Y1.5
G1 F2400 X58.402 Y1.499 E4006.99503
G0 F12000 X58.402 Y0.999
G1 F2400 X-58.402 Y1 E4011.85117
G0 F12000 X-58.402 Y0.5
G1 F2400 X58.402 Y0.499 E4016.70732
G0 F12000 X58.402 Y0
G1 F2400 X-58.402 Y0 E4021.56347
G0 F12000 X-58.402 Y-0.499
G1 F2400 X58.402 Y-0.5 E4026.41961
G0 F12000 X58.402 Y-1
G1 F2400 X-58.402 Y-0.999 E4031.27576
G0 F12000 X-58.402 Y-1.499
G1 F2400 X58.402 Y-1.5 E4036.1319
G0 F12000 X58.402 Y-2
G1 F2400 X-58.402 Y-1.999 E4040.98805
G0 F12000 X-58.402 Y-2.499
G1 F2400 X58.402 Y-2.5 E4045.8442
G0 F12000 X58.402 Y-3
G1 F2400 X-58.402 Y-2.999 E4050.70034
G0 F12000 X-58.402 Y-3.499
G1 F2400 X58.402 Y-3.5 E4055.55649
G0 F12000 X58.402 Y-4
G1 F2400 X-58.402 Y-3.999 E4060.41263
G0 F12000 X-58.402 Y-4.499
G1 F2400 X58.402 Y-4.5 E4065.26878
G0 F12000 X58.402 Y-5
G1 F2400 X-58.402 Y-4.999 E4070.12493
G0 F12000 X-58.402 Y-5.499
G1 F2400 X58.402 Y-5.5 E4074.98107
G0 F12000 X58.402 Y-6
G1 F2400 X-58.402 Y-5.999 E4079.83722
G0 F12000 X-58.402 Y-6.499
G1 F2400 X58.402 Y-6.5 E4084.69336
G0 F12000 X58.402 Y-7
G1 F2400 X-58.402 Y-6.999 E4089.54951
G0 F12000 X-58.402 Y-7.499
G1 F2400 X58.402 Y-7.5 E4094.40566
G0 F12000 X58.402 Y-8
G1 F2400 X-58.402 Y-7.999 E4099.2618
G0 F12000 X-58.402 Y-8.499
G1 F2400 X58.402 Y-8.5 E4104.11795
G0 F12000 X58.402 Y-9
G1 F2400 X-58.402 Y-8.999 E4108.97409
G0 F12000 X-58.402 Y-9.499
G1 F2400 X58.402 Y-9.5 E4113.83024
G0 F12000 X58.402 Y-10
G1 F2400 X-58.402 Y-9.999 E4118.68639
G0 F12000 X-58.402 Y-10.499
G1 F2400 X58.402 Y-10.5 E4123.54253
G0 F12000 X58.402 Y-11
G1 F2400 X-58.402 Y-10.999 E4128.39868
G0 F12000 X-58.402 Y-11.499
G1 F2400 X58.402 Y-11.5 E4133.25482
G0 F12000 X58.402 Y-12
G1 F2400 X-58.402 Y-11.999 E4138.11097
G0 F12000 X-58.402 Y-12.499
G1 F2400 X58.402 Y-12.5 E4142.96712
G0 F12000 X58.402 Y-13
G1 F2400 X-58.402 Y-12.999 E4147.82326
G0 F12000 X-58.402 Y-13.499
G1 F2400 X58.402 Y-13.5 E4152.67941
G0 F12000 X58.402 Y-14
G1 F2400 X-58.402 Y-13.999 E4157.53555
G0 F12000 X-58.402 Y-14.499
G1 F2400 X58.402 Y-14.5 E4162.3917
G0 F12000 X58.402 Y-15
G1 F2400 X-58.402 Y-14.999 E4167.24785
G0 F12000 X-58.402 Y-15.499
G1 F2400 X58.402 Y-15.5 E4172.10399
G0 F12000 X58.402 Y-16
G1 F2400 X-58.402 Y-15.999 E4176.96014
G0 F12000 X-58.402 Y-16.499
G1 F2400 X58.402 Y-16.5 E4181.81628
G0 F12000 X58.402 Y-17
G1 F2400 X-58.402 Y-16.999 E4186.67243
G0 F12000 X-58.402 Y-17.499
G1 F2400 X58.402 Y-17.5 E4191.52858
G0 F12000 X58.402 Y-18
G1 F2400 X-58.402 Y-17.999 E4196.38472
G0 F12000 X-58.402 Y-18.499
G1 F2400 X58.402 Y-18.5 E4201.24087
G0 F12000 X58.402 Y-19
G1 F2400 X-58.402 Y-18.999 E4206.09702
G0 F12000 X-58.402 Y-19.499
G1 F2400 X58.402 Y-19.5 E4210.95316
G0 F12000 X58.402 Y-20
G1 F2400 X-58.402 Y-19.999 E4215.80931
G0 F12000 X-58.402 Y-20.499
G1 F2400 X58.402 Y-20.5 E4220.66545
G0 F12000 X58.402 Y-21
G1 F2400 X-58.402 Y-20.999 E4225.5216
G0 F12000 X-58.402 Y-21.499
G1 F2400 X58.402 Y-21.5 E4230.37775
G0 F12000 X58.402 Y-22
G1 F2400 X-58.402 Y-21.999 E4235.23389
G0 F12000 X-58.402 Y-22.499
G1 F2400 X58.402 Y-22.5 E4240.09004
G0 F12000 X58.402 Y-23
G1 F2400 X-58.402 Y-22.999 E4244.94618
G0 F12000 X-58.402 Y-23.499
G1 F2400 X58.402 Y-23.5 E4249.80233
G0 F12000 X58.402 Y-24
G1 F2400 X-58.402 Y-23.999 E4254.65848
G0 F12000 X-58.402 Y-24.499
G1 F2400 X58.402 Y-24.5 E4259.51462
G0 F12000 X58.402 Y-25
G1 F2400 X-58.402 Y-24.999 E4264.37077
G0 F12000 X-58.402 Y-25.499
G1 F2400 X58.402 Y-25.5 E4269.22691
G0 F12000 X58.402 Y-26
G1 F2400 X-58.402 Y-25.999 E4274.08306
G0 F12000 X-58.402 Y-26.499
G1 F2400 X58.402 Y-26.5 E4278.93921
G0 F12000 X58.402 Y-27
G1 F2400 X-58.402 Y-26.999 E4283.79535
G0 F12000 X-58.402 Y-27.499
G1 F2400 X58.402 Y-27.5 E4288.6515
G0 F12000 X58.402 Y-28
G1 F2400 X-58.402 Y-27.999 E4293.50764
G0 F12000 X-58.402 Y-28.499
G1 F2400 X58.402 Y-28.5 E4298.36379
G0 F12000 X58.402 Y-29
G1 F2400 X-58.402 Y-28.999 E4303.21994
G0 F12000 X-58.402 Y-29.499
G1 F2400 X58.402 Y-29.5 E4308.07608
G0 F12000 X58.402 Y-30
G1 F2400 X-58.402 Y-29.999 E4312.93223
G0 F12000 X-58.402 Y-30.499
G1 F2400 X58.402 Y-30.5 E4317.78837
G0 F12000 X58.402 Y-31
G1 F2400 X-58.402 Y-30.999 E4322.64452
G0 F12000 X-58.402 Y-31.499
G1 F2400 X58.402 Y-31.5 E4327.50067
G0 F12000 X58.402 Y-32
G1 F2400 X-58.402 Y-31.999 E4332.35681
G0 F12000 X-58.402 Y-32.499
G1 F2400 X58.402 Y-32.5 E4337.21296
G0 F12000 X58.402 Y-33
G1 F2400 X-58.402 Y-33 E4342.0691
G0 F12000 X-58.402 Y-33.5
G1 F2400 X58.402 Y-33.5 E4346.92525
G0 F12000 X58.402 Y-34
G1 F2400 X-58.402 Y-34 E4351.7814
G0 F12000 X-58.402 Y-34.5
G1 F2400 X58.402 Y-34.5 E4356.63754
G0 F12000 X58.402 Y-35
G1 F2400 X-58.402 Y-35 E4361.49369
G0 F12000 X-58.402 Y-35.5
G1 F2400 X58.402 Y-35.5 E4366.34983
G0 F12000 X58.402 Y-36
G1 F2400 X-58.402 Y-36 E4371.20598
G0 F12000 X-58.402 Y-36.5
G1 F2400 X58.402 Y-36.5 E4376.06213
G0 F12000 X58.402 Y-37
G1 F2400 X-58.402 Y-37 E4380.91827
G0 F12000 X-58.402 Y-37.5
G1 F2400 X58.402 Y-37.5 E4385.77442
G0 F12000 X58.402 Y-38
G1 F2400 X-58.402 Y-38 E4390.63056
G0 F12000 X-58.831 Y-38.615
G1 F2400 X-58.852 Y-38.664 E4390.63107
G0 F12000 X-58.794 Y-38.759
G1 F2400 X-58.765 Y-38.74 E4390.63138
G0 F12000 X-58.695 Y-38.804
G1 F2400 X-58.707 Y-38.835 E4390.63173
G0 F12000 X-58.831 Y38.615
G0 X-58.831 Y38.615
G1 F2400 X-58.852 Y38.664 E4390.63227
G0 F12000 X-58.794 Y38.76
G1 F2400 X-58.766 Y38.738 E4390.63257
G0 F12000 X-58.678 Y38.807
G1 F2400 X-58.708 Y38.834 E4390.63299
G0 F12000 X58.678 Y-38.806
G1 F2400 X58.707 Y-38.834 E4390.63341
G0 F12000 X58.765 Y-38.739
G1 F2400 X58.794 Y-38.759 E4390.63373
G0 F12000 X58.852 Y-38.664
G1 F2400 X58.831 Y-38.615 E4390.63424
; Layer Change GCode
; LAYER:5
G0 F12000 X-58.609 Y39.355 Z1.3
G0 X-58.609 Y39.355
G0 X-58.646 Y39.704
G0 X-58.646 Y39.704
G0 X-58.53 Y38.704
; TYPE:WALL-INNER
G1 F2400 X-58.53 Y38.704 E4390.63424
G1 X-58.586 Y38.684 E4390.63671
G1 X-58.669 Y38.614 E4390.64122
G1 X-58.692 Y38.559 E4390.6437
G1 X-58.71 Y38.421 E4390.64949
G1 X-58.71 Y-38.421 E4393.84421
G1 X-58.672 Y-38.609 E4393.85218
G1 X-58.602 Y-38.676 E4393.85621
G1 X-58.478 Y-38.71 E4393.86155
G1 X58.53 Y-38.704 E4398.72618
G1 X58.65 Y-38.637 E4398.7319
G1 X58.692 Y-38.56 E4398.73554
G1 X58.71 Y-38.421 E4398.74137
G1 X58.71 Y38.421 E4401.93609
G1 X58.692 Y38.559 E4401.94187
G1 X58.643 Y38.646 E4401.94603
G1 X58.602 Y38.676 E4401.94814
G1 X58.478 Y38.71 E4401.95348
G1 X-58.53 Y38.704 E4406.81811
G0 F12000 X-58.592 Y39.204
G1 F2400 X-58.592 Y39.204 E4406.81811
G1 X-58.823 Y39.13 E4406.8282
G1 X-59.003 Y38.997 E4406.8375
G1 X-59.106 Y38.866 E4406.84443
G1 X-59.178 Y38.693 E4406.85222
G1 X-59.21 Y38.448 E4406.86249
G1 X-59.21 Y-38.448 E4410.05946
G1 X-59.178 Y-38.691 E4410.06965
G1 X-59.105 Y-38.868 E4410.07761
G1 X-58.991 Y-39.012 E4410.08524
G1 X-58.835 Y-39.124 E4410.09323
G1 X-58.599 Y-39.204 E4410.10359
G1 X-58.483 Y-39.21 E4410.10841
G1 X58.592 Y-39.204 E4414.97583
G1 X58.823 Y-39.13 E4414.98591
G1 X59.002 Y-38.998 E4414.99516
G1 X59.106 Y-38.866 E4415.00215
G1 X59.178 Y-38.691 E4415.01001
G1 X59.21 Y-38.448 E4415.0202
G1 X59.21 Y38.448 E4418.21717
G1 X59.178 Y38.693 E4418.22744
G1 X59.105 Y38.868 E4418.23532
G1 X58.992 Y39.012 E4418.24293
G1 X58.835 Y39.124 E4418.25095
G1 X58.599 Y39.204 E4418.26131
G1 X-58.592 Y39.204 E4423.13355
G0 F12000 X-58.646 Y39.704
; TYPE:WALL-OUTER
G1 F1800 X-58.646 Y39.704 E4423.13355
G1 X-58.8 Y39.67 E4423.1401
G1 X-59.059 Y39.577 E4423.15154
G1 X-59.356 Y39.357 E4423.16691
G1 X-59.541 Y39.123 E4423.17931
G1 X-59.665 Y38.823 E4423.19281
G1 X-59.71 Y38.482 E4423.20711
G1 X-59.71 Y-38.482 E4426.4069
G1 X-59.665 Y-38.822 E4426.42116
G1 X-59.541 Y-39.122 E4426.43465
G1 X-59.339 Y-39.379 E4426.44825
G1 X-59.068 Y-39.573 E4426.4621
G1 X-58.694 Y-39.7 E4426.47852
G1 X-58.488 Y-39.71 E4426.4871
G1 X58.646 Y-39.704 E4431.35696
G1 X58.8 Y-39.67 E4431.36352
G1 X59.059 Y-39.577 E4431.37496
G1 X59.354 Y-39.359 E4431.39021
G1 X59.542 Y-39.12 E4431.40285
G1 X59.665 Y-38.822 E4431.41626
G1 X59.71 Y-38.482 E4431.43052
G1 X59.71 Y38.482 E4434.63031
G1 X59.665 Y38.823 E4434.64461
G1 X59.541 Y39.123 E4434.6581
G1 X59.339 Y39.379 E4434.67166
G1 X59.068 Y39.573 E4434.68552
G1 X58.694 Y39.7 E4434.70194
G1 X-58.646 Y39.704 E4439.58037
G0 F12000 X-58.643 Y38.928
; TYPE:FILL
G1 F2400 X-58.697 Y38.884 E4439.58111
G0 F12000 X-58.735 Y38.845
G1 F2400 X-58.767 Y38.86 E4439.58157
G0 F12000 X-58.911 Y38.682
G1 F2400 X-58.895 Y38.626 E4439.58218
G0 F12000 X-57.999 Y38.453
G1 F2400 X-58 Y-38.459 E4442.77981
G0 F12000 X-57.5 Y-38.459
G1 F2400 X-57.499 Y38.453 E4445.97744
G0 F12000 X-56.999 Y38.453
G1 F2400 X-57 Y25.999 E4446.49521
G0 F12000 X-56.5 Y25.999
G1 F2400 X-56.499 Y38.453 E4447.01299
G0 F12000 X-55.999 Y38.453
G1 F2400 X-56 Y25.999 E4447.53077
G0 F12000 X-55.5 Y25.999
G1 F2400 X-55.499 Y38.453 E4448.04855
G0 F12000 X-54.999 Y38.453
G1 F2400 X-55 Y25.999 E4448.56632
G0 F12000 X-54.5 Y25.999
G1 F2400 X-54.499 Y38.453 E4449.0841
G0 F12000 X-53.999 Y38.453
G1 F2400 X-54 Y25.999 E4449.60188
G0 F12000 X-53.5 Y25.999
G1 F2400 X-53.499 Y38.453 E4450.11965
G0 F12000 X-52.999 Y38.453
G1 F2400 X-53 Y25.999 E4450.63743
G0 F12000 X-52.5 Y25.999
G1 F2400 X-52.499 Y38.453 E4451.15521
G0 F12000 X-51.999 Y38.453
G1 F2400 X-52 Y25.999 E4451.67299
G0 F12000 X-51.5 Y25.999
G1 F2400 X-51.499 Y38.453 E4452.19076
G0 F12000 X-50.999 Y38.453
G1 F2400 X-51 Y25.999 E4452.70854
G0 F12000 X-50.5 Y25.999
G1 F2400 X-50.499 Y38.453 E4453.22632
G0 F12000 X-49.999 Y38.454
G1 F2400 X-50 Y25.999 E4453.74414
G0 F12000 X-49.5 Y25.999
G1 F2400 X-49.499 Y38.454 E4454.26195
G0 F12000 X-48.999 Y38.454
G1 F2400 X-49 Y25.999 E4454.77977
G0 F12000 X-48.5 Y25.999
G1 F2400 X-48.499 Y38.454 E4455.29759
G0 F12000 X-47.999 Y38.454
G1 F2400 X-48 Y25.999 E4455.81541
G0 F12000 X-47.5 Y25.999
G1 F2400 X-47.499 Y38.454 E4456.33323
G0 F12000 X-46.999 Y38.454
G1 F2400 X-47 Y25.999 E4456.85105
G0 F12000 X-46.5 Y25.999
G1 F2400 X-46.499 Y38.454 E4457.36887
G0 F12000 X-45.999 Y38.454
G1 F2400 X-46 Y25.999 E4457.88669
G0 F12000 X-45.5 Y25.999
G1 F2400 X-45.499 Y38.454 E4458.4045
G0 F12000 X-44.999 Y38.454
G1 F2400 X-45 Y25.999 E4458.92232
G0 F12000 X-44.5 Y25.999
G1 F2400 X-44.499 Y38.454 E4459.44014
G0 F12000 X-43.999 Y38.454
G1 F2400 X-44 Y25.999 E4459.95796
G0 F12000 X-43.5 Y25.999
G1 F2400 X-43.499 Y38.454 E4460.47578
G0 F12000 X-42.999 Y38.454
G1 F2400 X-43 Y25.999 E4460.9936
G0 F12000 X-42.5 Y25.999
G1 F2400 X-42.499 Y38.454 E4461.51142
G0 F12000 X-41.999 Y38.454
G1 F2400 X-42 Y25.999 E4462.02924
G0 F12000 X-41.5 Y25.999
G1 F2400 X-41.499 Y38.454 E4462.54705
G0 F12000 X-40.999 Y38.454
G1 F2400 X-41 Y25.999 E4463.06487
G0 F12000 X-40.5 Y25.999
G1 F2400 X-40.499 Y38.454 E4463.58269
G0 F12000 X-39.999 Y38.454
G1 F2400 X-40 Y25.999 E4464.10051
G0 F12000 X-39.5 Y25.999
G1 F2400 X-39.499 Y38.454 E4464.61833
G0 F12000 X-38.999 Y38.454
G1 F2400 X-39 Y25.999 E4465.13615
G0 F12000 X-38.5 Y25.999
G1 F2400 X-38.499 Y38.454 E4465.65397
G0 F12000 X-37.999 Y38.454
G1 F2400 X-38 Y25.999 E4466.17179
G0 F12000 X-37.5 Y25.999
G1 F2400 X-37.499 Y38.454 E4466.6896
G0 F12000 X-36.999 Y38.454
G1 F2400 X-37 Y25.999 E4467.20742
G0 F12000 X-36.5 Y25.999
G1 F2400 X-36.499 Y38.454 E4467.72524
G0 F12000 X-35.999 Y38.454
G1 F2400 X-36 Y25.999 E4468.24306
G0 F12000 X-35.5 Y25.999
G1 F2400 X-35.499 Y38.454 E4468.76088
G0 F12000 X-34.999 Y38.454
G1 F2400 X-35 Y25.999 E4469.2787
G0 F12000 X-34.5 Y25.999
G1 F2400 X-34.499 Y38.454 E4469.79652
G0 F12000 X-33.999 Y38.454
G1 F2400 X-34 Y25.999 E4470.31433
G0 F12000 X-33.5 Y25.999
G1 F2400 X-33.499 Y38.454 E4470.83215
G0 F12000 X-32.999 Y38.455
G1 F2400 X-33 Y25.999 E4471.35001
G0 F12000 X-32.499 Y25.999
G1 F2400 X-32.499 Y38.455 E4471.86787
G0 F12000 X-31.999 Y38.455
G1 F2400 X-31.999 Y25.999 E4472.38573
G0 F12000 X-31.499 Y25.999
G1 F2400 X-31.499 Y38.455 E4472.90359
G0 F12000 X-30.999 Y38.455
G1 F2400 X-30.999 Y25.999 E4473.42146
G0 F12000 X-30.499 Y25.999
G1 F2400 X-30.499 Y38.455 E4473.93932
G0 F12000 X-29.999 Y38.455
G1 F2400 X-29.999 Y25.999 E4474.45718
G0 F12000 X-29.499 Y25.999
G1 F2400 X-29.499 Y38.455 E4474.97504
G0 F12000 X-28.999 Y38.455
G1 F2400 X-28.999 Y25.999 E4475.4929
G0 F12000 X-28.499 Y25.999
G1 F2400 X-28.499 Y38.455 E4476.01076
G0 F12000 X-27.999 Y38.455
G1 F2400 X-27.999 Y25.999 E4476.52862
G0 F12000 X-27.499 Y25.999
G1 F2400 X-27.499 Y38.455 E4477.04648
G0 F12000 X-26.999 Y38.455
G1 F2400 X-26.999 Y25.999 E4477.56434
G0 F12000 X-26.499 Y25.999
G1 F2400 X-26.499 Y38.455 E4478.0822
G0 F12000 X-25.999 Y38.455
G1 F2400 X-25.999 Y25.999 E4478.60006
G0 F12000 X-25.499 Y25.999
G1 F2400 X-25.499 Y38.455 E4479.11792
G0 F12000 X-24.999 Y38.455
G1 F2400 X-24.999 Y25.999 E4479.63578
G0 F12000 X-24.499 Y25.999
G1 F2400 X-24.499 Y38.455 E4480.15364
G0 F12000 X-23.999 Y38.455
G1 F2400 X-23.999 Y25.999 E4480.6715
G0 F12000 X-23.499 Y25.999
G1 F2400 X-23.499 Y38.455 E4481.18936
G0 F12000 X-22.999 Y38.455
G1 F2400 X-22.999 Y25.999 E4481.70722
G0 F12000 X-22.499 Y25.999
G1 F2400 X-22.499 Y38.455 E4482.22508
G0 F12000 X-21.999 Y38.455
G1 F2400 X-21.999 Y25.999 E4482.74294
G0 F12000 X-21.499 Y25.999
G1 F2400 X-21.499 Y38.455 E4483.2608
G0 F12000 X-20.999 Y38.455
G1 F2400 X-20.999 Y25.999 E4483.77866
G0 F12000 X-20.499 Y25.999
G1 F2400 X-20.499 Y38.455 E4484.29652
G0 F12000 X-19.999 Y38.455
G1 F2400 X-19.999 Y25.999 E4484.81438
G0 F12000 X-19.499 Y25.999
G1 F2400 X-19.499 Y38.455 E4485.33224
G0 F12000 X-18.999 Y38.455
G1 F2400 X-18.999 Y25.998 E4485.85014
G0 F12000 X-18.499 Y25.998
G1 F2400 X-18.499 Y38.455 E4486.36805
G0 F12000 X-17.999 Y38.455
G1 F2400 X-17.999 Y25.998 E4486.88595
G0 F12000 X-17.499 Y25.998
G1 F2400 X-17.499 Y38.455 E4487.40385
G0 F12000 X-16.999 Y38.455
G1 F2400 X-16.999 Y25.998 E4487.92175
G0 F12000 X-16.499 Y25.998
G1 F2400 X-16.499 Y38.456 E4488.43969
G0 F12000 X-15.999 Y38.456
G1 F2400 X-15.999 Y25.998 E4488.95764
G0 F12000 X-15.499 Y25.998
G1 F2400 X-15.499 Y38.456 E4489.47558
G0 F12000 X-14.999 Y38.456
G1 F2400 X-14.999 Y25.998 E4489.99353
G0 F12000 X-14.499 Y25.998
G1 F2400 X-14.499 Y38.456 E4490.51147
G0 F12000 X-13.999 Y38.456
G1 F2400 X-13.999 Y25.998 E4491.02941
G0 F12000 X-13.499 Y25.998
G1 F2400 X-13.499 Y38.456 E4491.54736
G0 F12000 X-12.999 Y38.456
G1 F2400 X-12.999 Y25.998 E4492.0653
G0 F12000 X-12.499 Y25.998
G1 F2400 X-12.499 Y38.456 E4492.58324
G0 F12000 X-11.999 Y38.456
G1 F2400 X-11.999 Y25.998 E4493.10119
G0 F12000 X-11.499 Y25.998
G1 F2400 X-11.499 Y38.456 E4493.61913
G0 F12000 X-10.999 Y38.456
G1 F2400 X-10.999 Y25.998 E4494.13707
G0 F12000 X-10.499 Y25.998
G1 F2400 X-10.499 Y38.456 E4494.65502
G0 F12000 X-9.999 Y38.456
G1 F2400 X-9.999 Y25.998 E4495.17296
G0 F12000 X-9.499 Y25.998
G1 F2400 X-9.499 Y38.456 E4495.6909
G0 F12000 X-8.999 Y38.456
G1 F2400 X-8.999 Y25.998 E4496.20885
G0 F12000 X-8.499 Y25.998
G1 F2400 X-8.499 Y38.456 E4496.72679
G0 F12000 X-7.999 Y38.456
G1 F2400 X-7.999 Y25.998 E4497.24473
G0 F12000 X-7.499 Y25.998
G1 F2400 X-7.499 Y38.456 E4497.76268
G0 F12000 X-6.999 Y38.456
G1 F2400 X-6.999 Y25.998 E4498.28062
G0 F12000 X-6.499 Y25.998
G1 F2400 X-6.499 Y38.456 E4498.79856
G0 F12000 X-5.999 Y38.456
G1 F2400 X-5.999 Y25.998 E4499.31651
G0 F12000 X-5.499 Y25.998
G1 F2400 X-5.499 Y38.456 E4499.83445
G0 F12000 X-4.999 Y38.456
G1 F2400 X-4.999 Y25.998 E4500.35239
G0 F12000 X-4.499 Y25.998
G1 F2400 X-4.499 Y38.456 E4500.87034
G0 F12000 X-3.999 Y38.456
G1 F2400 X-3.999 Y25.998 E4501.38828
G0 F12000 X-3.499 Y25.998
G1 F2400 X-3.499 Y38.456 E4501.90622
G0 F12000 X-2.999 Y38.456
G1 F2400 X-2.999 Y25.998 E4502.42417
G0 F12000 X-2.499 Y25.998
G1 F2400 X-2.499 Y38.456 E4502.94211
G0 F12000 X-1.999 Y38.456
G1 F2400 X-1.999 Y25.998 E4503.46006
G0 F12000 X-2.021 Y26.497
G1 F2400 X-3.175 Y24.5 E4503.55595
G0 F12000 X-2.999 Y25
G1 F2400 X-3 Y-24.999 E4505.63466
G0 F12000 X-3.5 Y-24.999
G1 F2400 X-3.499 Y25 E4507.71338
G0 F12000 X-3.999 Y25
G1 F2400 X-4 Y-24.999 E4509.7921
G0 F12000 X-4.5 Y-24.999
G1 F2400 X-4.499 Y25 E4511.87081
G0 F12000 X-4.999 Y25
G1 F2400 X-5 Y-24.999 E4513.94953
G0 F12000 X-5.5 Y-24.999
G1 F2400 X-5.499 Y25 E4516.02825
G0 F12000 X-5.999 Y25
G1 F2400 X-6 Y-24.999 E4518.10696
G0 F12000 X-6.5 Y-24.999
G1 F2400 X-6.499 Y25 E4520.18568
G0 F12000 X-6.999 Y25
G1 F2400 X-7 Y-24.999 E4522.2644
G0 F12000 X-7.5 Y-24.999
G1 F2400 X-7.499 Y25 E4524.34311
G0 F12000 X-7.999 Y25
G1 F2400 X-8 Y-24.999 E4526.42183
G0 F12000 X-8.5 Y-24.999
G1 F2400 X-8.499 Y25 E4528.50055
G0 F12000 X-8.999 Y25
G1 F2400 X-9 Y-24.999 E4530.57927
G0 F12000 X-9.5 Y-24.999
G1 F2400 X-9.499 Y25 E4532.65798
G0 F12000 X-9.999 Y25
G1 F2400 X-10 Y-24.999 E4534.7367
G0 F12000 X-10.5 Y-24.999
G1 F2400 X-10.499 Y25 E4536.81542
G0 F12000 X-10.999 Y25
G1 F2400 X-11 Y-24.999 E4538.89413
G0 F12000 X-11.5 Y-24.999
G1 F2400 X-11.499 Y25 E4540.97285
G0 F12000 X-11.999 Y25
G1 F2400 X-12 Y-24.999 E4543.05157
G0 F12000 X-12.5 Y-24.999
G1 F2400 X-12.499 Y25 E4545.13028
G0 F12000 X-12.999 Y25
G1 F2400 X-13 Y-24.999 E4547.209
G0 F12000 X-13.5 Y-24.999
G1 F2400 X-13.499 Y25 E4549.28772
G0 F12000 X-13.999 Y25
G1 F2400 X-14 Y-24.999 E4551.36643
G0 F12000 X-14.5 Y-24.999
G1 F2400 X-14.499 Y25 E4553.44515
G0 F12000 X-14.999 Y25
G1 F2400 X-15 Y-24.998 E4555.52383
G0 F12000 X-15.5 Y-24.998
G1 F2400 X-15.499 Y25 E4557.6025
G0 F12000 X-15.999 Y25
G1 F2400 X-16 Y-24.998 E4559.68118
G0 F12000 X-16.5 Y-24.998
G1 F2400 X-16.499 Y25 E4561.75985
G0 F12000 X-16.999 Y25
G1 F2400 X-17 Y-24.998 E4563.83853
G0 F12000 X-17.5 Y-24.998
G1 F2400 X-17.499 Y25 E4565.9172
G0 F12000 X-17.999 Y25
G1 F2400 X-18 Y-24.998 E4567.99588
G0 F12000 X-18.5 Y-24.998
G1 F2400 X-18.499 Y25 E4570.07455
G0 F12000 X-18.999 Y24.999
G1 F2400 X-19 Y-24.999 E4572.15323
G0 F12000 X-19.5 Y-24.999
G1 F2400 X-19.499 Y24.999 E4574.2319
G0 F12000 X-19.999 Y24.999
G1 F2400 X-20 Y-24.999 E4576.31058
G0 F12000 X-20.5 Y-24.999
G1 F2400 X-20.499 Y24.999 E4578.38925
G0 F12000 X-20.495 Y24.5
G1 F2400 X-19.341 Y26.499 E4578.48522
G0 F12000 X-21.072 Y26.498
G1 F2400 X-19.918 Y24.499 E4578.58118
G0 F12000 X-20.999 Y24.999
G1 F2400 X-21 Y-24.999 E4580.65986
G0 F12000 X-21.5 Y-24.999
G1 F2400 X-21.499 Y24.999 E4582.73853
G0 F12000 X-21.999 Y24.999
G1 F2400 X-22 Y-24.999 E4584.81721
G0 F12000 X-22.5 Y-24.999
G1 F2400 X-22.499 Y24.999 E4586.89588
G0 F12000 X-22.999 Y24.999
G1 F2400 X-23 Y-24.999 E4588.97456
G0 F12000 X-23.5 Y-24.999
G1 F2400 X-23.499 Y24.999 E4591.05323
G0 F12000 X-23.999 Y24.999
G1 F2400 X-24 Y-24.999 E4593.13191
G0 F12000 X-24.5 Y-24.999
G1 F2400 X-24.499 Y24.999 E4595.21058
G0 F12000 X-24.999 Y24.999
G1 F2400 X-25 Y-24.999 E4597.28926
G0 F12000 X-25.5 Y-24.999
G1 F2400 X-25.499 Y24.999 E4599.36793
G0 F12000 X-25.999 Y24.999
G1 F2400 X-26 Y-24.999 E4601.44661
G0 F12000 X-26.5 Y-24.999
G1 F2400 X-26.499 Y24.999 E4603.52528
G0 F12000 X-26.999 Y24.999
G1 F2400 X-27 Y-24.999 E4605.60396
G0 F12000 X-27.5 Y-24.999
G1 F2400 X-27.499 Y24.999 E4607.68263
G0 F12000 X-27.999 Y24.999
G1 F2400 X-28 Y-24.999 E4609.76131
G0 F12000 X-28.5 Y-24.999
G1 F2400 X-28.499 Y24.999 E4611.83999
G0 F12000 X-28.999 Y24.999
G1 F2400 X-29 Y-24.999 E4613.91866
G0 F12000 X-29.5 Y-24.999
G1 F2400 X-29.499 Y24.999 E4615.99734
G0 F12000 X-29.999 Y24.999
G1 F2400 X-30 Y-24.999 E4618.07601
G0 F12000 X-30.5 Y-24.999
G1 F2400 X-30.499 Y24.999 E4620.15469
G0 F12000 X-30.999 Y24.999
G1 F2400 X-31 Y-24.999 E4622.23336
G0 F12000 X-31.5 Y-24.999
G1 F2400 X-31.499 Y24.999 E4624.31204
G0 F12000 X-31.999 Y24.999
G1 F2400 X-32 Y-24.999 E4626.39071
G0 F12000 X-32.5 Y-24.999
G1 F2400 X-32.499 Y24.999 E4628.46939
G0 F12000 X-33 Y24.999
G1 F2400 X-33 Y-24.999 E4630.54806
G0 F12000 X-33.5 Y-24.999
G1 F2400 X-33.5 Y24.999 E4632.62674
G0 F12000 X-34 Y24.999
G1 F2400 X-34 Y-24.999 E4634.70541
G0 F12000 X-34.5 Y-24.999
G1 F2400 X-34.5 Y24.999 E4636.78409
G0 F12000 X-35 Y24.999
G1 F2400 X-35 Y-24.999 E4638.86276
G0 F12000 X-35.5 Y-24.999
G1 F2400 X-35.5 Y24.999 E4640.94144
G0 F12000 X-36 Y24.999
G1 F2400 X-36 Y-24.999 E4643.02011
G0 F12000 X-36.5 Y-24.999
G1 F2400 X-36.5 Y24.999 E4645.09879
G0 F12000 X-37 Y24.999
G1 F2400 X-37 Y-24.999 E4647.17747
G0 F12000 X-37.5 Y-24.999
G1 F2400 X-37.5 Y24.999 E4649.25614
G0 F12000 X-38 Y24.999
G1 F2400 X-38 Y-24.999 E4651.33482
G0 F12000 X-38.5 Y-24.999
G1 F2400 X-38.5 Y24.999 E4653.41349
G0 F12000 X-39 Y24.999
G1 F2400 X-39 Y-24.999 E4655.49217
G0 F12000 X-39.5 Y-24.999
G1 F2400 X-39.5 Y24.999 E4657.57084
G0 F12000 X-40 Y24.999
G1 F2400 X-40 Y-24.999 E4659.64952
G0 F12000 X-40.5 Y-24.999
G1 F2400 X-40.5 Y24.999 E4661.72819
G0 F12000 X-41 Y24.999
G1 F2400 X-41 Y-24.999 E4663.80687
G0 F12000 X-41.5 Y-24.999
G1 F2400 X-41.5 Y24.999 E4665.88554
G0 F12000 X-42 Y24.999
G1 F2400 X-42 Y-24.999 E4667.96422
G0 F12000 X-42.5 Y-24.999
G1 F2400 X-42.5 Y24.999 E4670.04289
G0 F12000 X-43 Y24.999
G1 F2400 X-43 Y-24.999 E4672.12157
G0 F12000 X-43.5 Y-24.999
G1 F2400 X-43.5 Y24.999 E4674.20024
G0 F12000 X-44 Y24.999
G1 F2400 X-44 Y-24.999 E4676.27892
G0 F12000 X-44.5 Y-24.999
G1 F2400 X-44.5 Y24.999 E4678.35759
G0 F12000 X-45 Y24.999
G1 F2400 X-45 Y-24.999 E4680.43627
G0 F12000 X-45.5 Y-24.999
G1 F2400 X-45.5 Y24.999 E4682.51495
G0 F12000 X-46 Y24.999
G1 F2400 X-46 Y-24.999 E4684.59362
G0 F12000 X-46.5 Y-24.999
G1 F2400 X-46.5 Y24.999 E4686.6723
G0 F12000 X-47 Y24.999
G1 F2400 X-47 Y-24.999 E4688.75097
G0 F12000 X-47.5 Y-24.999
G1 F2400 X-47.5 Y24.999 E4690.82965
G0 F12000 X-48 Y24.999
G1 F2400 X-48 Y-24.999 E4692.90832
G0 F12000 X-48.5 Y-24.999
G1 F2400 X-48.5 Y24.999 E4694.987
G0 F12000 X-49 Y24.999
G1 F2400 X-49 Y-24.999 E4697.06567
G0 F12000 X-49.5 Y-24.999
G1 F2400 X-49.5 Y24.999 E4699.14435
G0 F12000 X-50 Y24.999
G1 F2400 X-50 Y-24.999 E4701.22302
G0 F12000 X-50.5 Y-24.999
G1 F2400 X-50.5 Y24.999 E4703.3017
G0 F12000 X-51 Y24.999
G1 F2400 X-51 Y-24.999 E4705.38037
G0 F12000 X-51.5 Y-24.999
G1 F2400 X-51.5 Y24.999 E4707.45905
G0 F12000 X-52 Y24.999
G1 F2400 X-52 Y-24.999 E4709.53772
G0 F12000 X-52.5 Y-24.999
G1 F2400 X-52.5 Y24.999 E4711.6164
G0 F12000 X-53 Y24.999
G1 F2400 X-53 Y-24.999 E4713.69507
G0 F12000 X-53.5 Y-24.999
G1 F2400 X-53.5 Y24.999 E4715.77375
G0 F12000 X-54 Y24.999
G1 F2400 X-54 Y-24.999 E4717.85243
G0 F12000 X-54.5 Y-24.999
G1 F2400 X-54.5 Y24.999 E4719.9311
G0 F12000 X-54.499 Y24.395
G1 F2400 X-55.714 Y26.5 E4720.03215
G0 F12000 X-53.982 Y26.5
G1 F2400 X-57.818 Y19.856 E4720.35111
G0 F12000 X-57.819 Y20
G1 F2400 X-54.5 Y20 E4720.4891
G0 F12000 X-57.818 Y20.144
G1 F2400 X-54.499 Y14.395 E4720.76508
G0 F12000 X-54.5 Y15
G1 F2400 X-57.819 Y15 E4720.90307
G0 F12000 X-54.499 Y15.604
G1 F2400 X-57.818 Y9.855 E4721.17906
G0 F12000 X-57.819 Y10
G1 F2400 X-54.5 Y10 E4721.31705
G0 F12000 X-57.818 Y10.143
G1 F2400 X-54.499 Y4.396 E4721.59296
G0 F12000 X-54.5 Y5
G1 F2400 X-57.819 Y5 E4721.73095
G0 F12000 X-54.499 Y5.604
G1 F2400 X-57.818 Y-0.144 E4722.0069
G0 F12000 X-57.819 Y0
G1 F2400 X-54.5 Y0 E4722.14489
G0 F12000 X-57.818 Y0.144
G1 F2400 X-54.499 Y-5.604 E4722.42084
G0 F12000 X-54.5 Y-4.999
G1 F2400 X-57.819 Y-4.999 E4722.55883
G0 F12000 X-54.499 Y-4.396
G1 F2400 X-57.818 Y-10.144 E4722.83478
G0 F12000 X-57.819 Y-9.999
G1 F2400 X-54.5 Y-9.999 E4722.97277
G0 F12000 X-57.818 Y-9.855
G1 F2400 X-54.499 Y-15.604 E4723.24876
G0 F12000 X-54.5 Y-14.999
G1 F2400 X-57.819 Y-14.999 E4723.38674
G0 F12000 X-54.499 Y-14.395
G1 F2400 X-57.818 Y-20.144 E4723.66273
G0 F12000 X-57.819 Y-19.999
G1 F2400 X-54.5 Y-19.999 E4723.80072
G0 F12000 X-57.818 Y-19.855
G1 F2400 X-53.982 Y-26.499 E4724.11968
G0 F12000 X-54 Y-25.998
G1 F2400 X-54 Y-38.459 E4724.63775
G0 F12000 X-54.5 Y-38.459
G1 F2400 X-54.5 Y-25.998 E4725.15582
G0 F12000 X-55 Y-25.998
G1 F2400 X-55 Y-38.459 E4725.67388
G0 F12000 X-55.5 Y-38.459
G1 F2400 X-55.5 Y-25.998 E4726.19195
G0 F12000 X-56 Y-25.998
G1 F2400 X-56 Y-38.459 E4726.71002
G0 F12000 X-56.5 Y-38.459
G1 F2400 X-56.5 Y-25.998 E4727.22809
G0 F12000 X-57 Y-25.998
G1 F2400 X-57 Y-38.459 E4727.74616
G0 F12000 X-58.642 Y-38.895
G0 X-58.642 Y-38.895
G1 F2400 X-58.636 Y-38.927 E4727.74663
G0 F12000 X-58.721 Y-38.846
G1 F2400 X-58.767 Y-38.865 E4727.74712
G0 F12000 X-58.826 Y-38.764
G1 F2400 X-58.852 Y-38.783 E4727.74744
G0 F12000 X-58.912 Y-38.683
G1 F2400 X-58.887 Y-38.63 E4727.74799
G0 F12000 X-53.5 Y-38.459
G0 X-53.5 Y-38.459
G1 F2400 X-53.5 Y-25.998 E4728.26606
G0 F12000 X-53 Y-25.998
G1 F2400 X-53 Y-38.459 E4728.78413
G0 F12000 X-52.5 Y-38.459
G1 F2400 X-52.5 Y-25.998 E4729.3022
G0 F12000 X-52 Y-25.998
G1 F2400 X-52 Y-38.459 E4729.82027
G0 F12000 X-51.5 Y-38.459
G1 F2400 X-51.5 Y-25.998 E4730.33834
G0 F12000 X-51 Y-25.998
G1 F2400 X-51 Y-38.459 E4730.8564
G0 F12000 X-50.5 Y-38.459
G1 F2400 X-50.5 Y-25.998 E4731.37447
G0 F12000 X-50 Y-25.998
G1 F2400 X-50 Y-38.458 E4731.8925
G0 F12000 X-49.5 Y-38.458
G1 F2400 X-49.5 Y-25.998 E4732.41053
G0 F12000 X-49 Y-25.998
G1 F2400 X-49 Y-38.458 E4732.92855
G0 F12000 X-48.5 Y-38.458
G1 F2400 X-48.5 Y-25.998 E4733.44658
G0 F12000 X-48 Y-25.998
G1 F2400 X-48 Y-38.458 E4733.9646
G0 F12000 X-47.5 Y-38.458
G1 F2400 X-47.5 Y-25.998 E4734.48263
G0 F12000 X-47 Y-25.998
G1 F2400 X-47 Y-38.458 E4735.00066
G0 F12000 X-46.5 Y-38.458
G1 F2400 X-46.5 Y-25.998 E4735.51868
G0 F12000 X-46 Y-25.998
G1 F2400 X-46 Y-38.458 E4736.03671
G0 F12000 X-45.5 Y-38.458
G1 F2400 X-45.5 Y-25.998 E4736.55474
G0 F12000 X-45 Y-25.998
G1 F2400 X-45 Y-38.458 E4737.07276
G0 F12000 X-44.5 Y-38.458
G1 F2400 X-44.5 Y-25.998 E4737.59079
G0 F12000 X-44 Y-25.998
G1 F2400 X-44 Y-38.458 E4738.10882
G0 F12000 X-43.5 Y-38.458
G1 F2400 X-43.5 Y-25.998 E4738.62684
G0 F12000 X-43 Y-25.998
G1 F2400 X-43 Y-38.458 E4739.14487
G0 F12000 X-42.5 Y-38.458
G1 F2400 X-42.5 Y-25.998 E4739.6629
G0 F12000 X-42 Y-25.998
G1 F2400 X-42 Y-38.458 E4740.18092
G0 F12000 X-41.5 Y-38.458
G1 F2400 X-41.5 Y-25.998 E4740.69895
G0 F12000 X-41 Y-25.998
G1 F2400 X-41 Y-38.458 E4741.21698
G0 F12000 X-40.5 Y-38.458
G1 F2400 X-40.5 Y-25.998 E4741.735
G0 F12000 X-40 Y-25.998
G1 F2400 X-40 Y-38.458 E4742.25303
G0 F12000 X-39.5 Y-38.458
G1 F2400 X-39.5 Y-25.998 E4742.77106
G0 F12000 X-39 Y-25.998
G1 F2400 X-39 Y-38.458 E4743.28908
G0 F12000 X-38.5 Y-38.458
G1 F2400 X-38.5 Y-25.998 E4743.80711
G0 F12000 X-38 Y-25.998
G1 F2400 X-38 Y-38.458 E4744.32514
G0 F12000 X-37.5 Y-38.458
G1 F2400 X-37.5 Y-25.998 E4744.84316
G0 F12000 X-37 Y-25.998
G1 F2400 X-37 Y-38.458 E4745.36119
G0 F12000 X-36.5 Y-38.458
G1 F2400 X-36.5 Y-25.998 E4745.87922
G0 F12000 X-36 Y-25.998
G1 F2400 X-36 Y-38.458 E4746.39724
G0 F12000 X-35.5 Y-38.458
G1 F2400 X-35.5 Y-25.998 E4746.91527
G0 F12000 X-35 Y-25.998
G1 F2400 X-35 Y-38.458 E4747.4333
G0 F12000 X-34.5 Y-38.458
G1 F2400 X-34.5 Y-25.998 E4747.95132
G0 F12000 X-34 Y-25.998
G1 F2400 X-34 Y-38.458 E4748.46935
G0 F12000 X-33.5 Y-38.458
G1 F2400 X-33.5 Y-25.998 E4748.98738
G0 F12000 X-33 Y-25.998
G1 F2400 X-33 Y-38.457 E4749.50536
G0 F12000 X-32.5 Y-38.457
G1 F2400 X-32.5 Y-25.998 E4750.02335
G0 F12000 X-32 Y-25.998
G1 F2400 X-32 Y-38.457 E4750.54133
G0 F12000 X-31.5 Y-38.457
G1 F2400 X-31.5 Y-25.998 E4751.05932
G0 F12000 X-31 Y-25.998
G1 F2400 X-31 Y-38.457 E4751.5773
G0 F12000 X-30.5 Y-38.457
G1 F2400 X-30.5 Y-25.998 E4752.09529
G0 F12000 X-30 Y-25.998
G1 F2400 X-30 Y-38.457 E4752.61327
G0 F12000 X-29.5 Y-38.458
G1 F2400 X-29.5 Y-25.998 E4753.1313
G0 F12000 X-29 Y-25.998
G1 F2400 X-29 Y-38.458 E4753.64932
G0 F12000 X-28.5 Y-38.458
G1 F2400 X-28.5 Y-25.998 E4754.16735
G0 F12000 X-28 Y-25.998
G1 F2400 X-28 Y-38.458 E4754.68538
G0 F12000 X-27.5 Y-38.458
G1 F2400 X-27.5 Y-25.998 E4755.2034
G0 F12000 X-27 Y-25.998
G1 F2400 X-27 Y-38.458 E4755.72143
G0 F12000 X-26.5 Y-38.458
G1 F2400 X-26.5 Y-25.998 E4756.23946
G0 F12000 X-26 Y-25.998
G1 F2400 X-26 Y-38.458 E4756.75748
G0 F12000 X-25.5 Y-38.458
G1 F2400 X-25.5 Y-25.998 E4757.27551
G0 F12000 X-25 Y-25.998
G1 F2400 X-25 Y-38.458 E4757.79354
G0 F12000 X-24.5 Y-38.458
G1 F2400 X-24.5 Y-25.998 E4758.31156
G0 F12000 X-24 Y-25.998
G1 F2400 X-24 Y-38.458 E4758.82959
G0 F12000 X-23.5 Y-38.458
G1 F2400 X-23.5 Y-25.998 E4759.34762
G0 F12000 X-23 Y-25.998
G1 F2400 X-23 Y-38.458 E4759.86564
G0 F12000 X-22.5 Y-38.458
G1 F2400 X-22.5 Y-25.998 E4760.38367
G0 F12000 X-22 Y-25.998
G1 F2400 X-22 Y-38.458 E4760.9017
G0 F12000 X-21.5 Y-38.458
G1 F2400 X-21.5 Y-25.998 E4761.41972
G0 F12000 X-21 Y-25.998
G1 F2400 X-21 Y-38.458 E4761.93775
G0 F12000 X-20.5 Y-38.458
G1 F2400 X-20.5 Y-25.998 E4762.45578
G0 F12000 X-20 Y-25.998
G1 F2400 X-20 Y-38.458 E4762.9738
G0 F12000 X-19.5 Y-38.458
G1 F2400 X-19.5 Y-25.998 E4763.49183
G0 F12000 X-19 Y-25.997
G1 F2400 X-19 Y-38.458 E4764.0099
G0 F12000 X-18.5 Y-38.458
G1 F2400 X-18.5 Y-25.997 E4764.52797
G0 F12000 X-18 Y-25.997
G1 F2400 X-18 Y-38.458 E4765.04603
G0 F12000 X-17.5 Y-38.458
G1 F2400 X-17.5 Y-25.997 E4765.5641
G0 F12000 X-17 Y-25.997
G1 F2400 X-17 Y-38.458 E4766.08217
G0 F12000 X-16.5 Y-38.457
G1 F2400 X-16.5 Y-25.997 E4766.6002
G0 F12000 X-16 Y-25.997
