; Generated with MatterSlice 1.0
; filamentDiameter = 1.7
; extrusionWidth = 0.45
; firstLayerExtrusionWidth = 0.5625
; layerThickness = 0.2
; firstLayerThickness = 0.3
; automatic settings before start_gcode
G21 ; set units to millimeters
M107 ; fan off
M190 S60 ; wait for bed temperature to be reached
M104 T0 S215 ; start heating extruder 1
M109 T0 S215 ; wait for extruder 1
T0 ; set the active extruder to 0
; settings from start_gcode
G28
; automatic settings after start_gcode
T0 ; set the active extruder to 0
G90 ; use absolute coordinates
G92 E0 ; reset the expected extruder position
M82 ; use absolute distance for extrusion
; Layer count: 146
; Layer Change GCode
; LAYER:0
G4 P0
M107
G0 F12000 X64.618 Y44.618 Z0.8
; TYPE:SKIRT
G1 Z0.3
G1 F6000 E0
G1 F900 X-64.617 Y44.618 E9.59953
G1 X-64.617 Y-44.617 E16.22788
G1 X64.618 Y-44.617 E25.82741
G1 X64.618 Y44.618 E32.45575
G0 F12000 X64.056 Y44.056
G1 F900 X-64.055 Y44.056 E41.97179
G1 X-64.055 Y-44.055 E48.51664
G1 X64.056 Y-44.055 E58.03268
G1 X64.056 Y44.056 E64.57754
G1 F6000 E62.77754
G1 Z0.8
G0 F12000 X-57.719 Y37.719
; TYPE:WALL-OUTER
G1 Z0.3
G1 F6000 E64.57754
G1 F900 X-57.719 Y37.719 E64.57754
G1 X-57.719 Y-37.719 E70.18105
G1 X57.719 Y-37.719 E78.75574
G1 X57.719 Y37.719 E84.35925
G1 X-57.719 Y37.719 E92.93394
G0 F12000 X-57.157 Y37.157
; TYPE:WALL-INNER
G1 F900 X-57.157 Y37.157 E92.93394
G1 X-57.157 Y-37.157 E98.45396
G1 X57.157 Y-37.157 E106.94517
G1 X57.157 Y37.157 E112.46518
G1 X-57.157 Y37.157 E120.95639
G0 F12000 X-56.595 Y36.595
G1 F900 X-56.595 Y36.595 E120.95639
G1 X-56.595 Y-36.595 E126.39291
G1 X56.595 Y-36.595 E134.80063
G1 X56.595 Y36.595 E140.23716
G1 X-56.595 Y36.595 E148.64487
G0 F12000 X-46.391 Y30.616
G0 X-46.391 Y30.616
G0 X-46.122 Y30.348
; TYPE:WALL-OUTER
G1 F900 X-46.122 Y30.348 E148.64487
G1 X-43.152 Y29.55 E148.8733
G1 X-42.36 Y26.58 E149.10162
G1 X-44.535 Y24.408 E149.32994
G1 X-47.505 Y25.206 E149.55838
G1 X-48.297 Y28.176 E149.7867
G1 X-46.122 Y30.348 E150.01502
G0 F12000 X-46.289 Y30.975
; TYPE:WALL-INNER
G0 X-46.289 Y30.975
G1 F900 X-42.693 Y30.009 E150.2916
G1 X-41.968 Y27.293 E150.50041
G1 X-39.925 Y28.697 E150.68454
G1 X-36.142 Y30.035 E150.9826
G1 X-32.141 Y30.349 E151.2807
G1 X-28.196 Y29.617 E151.57874
G1 X-24.576 Y27.888 E151.87673
G1 X-23.942 Y27.346 E151.93869
G1 X-23.138 Y30.075 E152.15001
G1 X-19.519 Y30.95 E152.42657
G1 X-16.952 Y28.253 E152.70314
G1 X-18.004 Y24.681 E152.97974
G1 X-20.67 Y24.037 E153.18346
G1 X-19.253 Y21.974 E153.36937
G1 X-17.914 Y18.192 E153.66738
G1 X-17.601 Y14.191 E153.96548
G1 X-18.333 Y10.246 E154.26351
G1 X-20.061 Y6.625 E154.56154
G0 F12000 X-20.186 Y6.409
G1 F900 X-20.39 Y6.24 E154.58122
G0 F12000 X-20.311 Y6.194
G1 F900 X-17.347 Y4.483 E154.83543
G1 X-17.347 Y0.759 E155.11205
G1 X-20.571 Y-1.101 E155.38852
G1 X-23.071 Y0.341 E155.6029
G0 F12000 X-23.089 Y0.309
G1 F900 X-23.107 Y0.362 E155.60705
G0 F12000 X-23.107 Y0.278
G1 F900 X-42.793 Y0.278 E157.06932
G0 F12000 X-42.81 Y0.31
G1 F900 X-42.793 Y0.362 E157.07339
G0 F12000 X-42.828 Y0.342
G1 F900 X-45.329 Y-1.101 E157.28786
G1 X-48.553 Y0.759 E157.56434
G1 X-48.553 Y4.483 E157.84096
G1 X-45.446 Y6.276 E158.10741
G1 X-46.647 Y8.025 E158.26501
G1 X-47.985 Y11.807 E158.563
G1 X-48.299 Y15.808 E158.86111
G1 X-47.567 Y19.753 E159.15914
G1 X-45.838 Y23.374 E159.4572
G1 X-45.281 Y24.026 E159.52089
G1 X-47.964 Y24.747 E159.72726
G1 X-48.924 Y28.345 E160.00386
G1 X-46.289 Y30.975 E160.2804
G0 F12000 X-46.457 Y31.602
G1 F900 X-46.457 Y31.602 E160.2804
G1 X-42.234 Y30.467 E160.60522
G1 X-41.63 Y28.206 E160.77905
G1 X-40.182 Y29.202 E160.9096
G1 X-36.259 Y30.589 E161.21867
G1 X-32.112 Y30.915 E161.52766
G1 X-28.021 Y30.156 E161.83672
G1 X-24.267 Y28.363 E162.14574
G1 X-24.236 Y28.337 E162.14875
G1 X-23.586 Y30.545 E162.31972
G1 X-19.336 Y31.572 E162.64449
G1 X-16.321 Y28.405 E162.96929
G1 X-17.556 Y24.211 E163.29404
G1 X-19.745 Y23.682 E163.46132
G1 X-18.748 Y22.231 E163.59209
G1 X-17.36 Y18.309 E163.90112
G1 X-17.035 Y14.161 E164.21018
G1 X-17.794 Y10.071 E164.51917
G1 X-19.545 Y6.401 E164.82122
G1 X-16.785 Y4.807 E165.05796
G1 X-16.785 Y0.435 E165.38271
G1 X-20.571 Y-1.75 E165.70741
G1 X-23.113 Y-0.284 E165.92538
G1 X-42.787 Y-0.284 E167.38676
G1 X-45.329 Y-1.75 E167.60472
G1 X-49.115 Y0.435 E167.92942
G1 X-49.115 Y4.807 E168.25417
G1 X-46.253 Y6.459 E168.49963
G1 X-47.152 Y7.768 E168.61759
G1 X-48.539 Y11.69 E168.92659
G1 X-48.865 Y15.837 E169.23558
G1 X-48.106 Y19.928 E169.54465
G1 X-46.313 Y23.683 E169.85373
G1 X-46.286 Y23.715 E169.85684
G1 X-48.423 Y24.289 E170.0212
G1 X-49.551 Y28.513 E170.34596
G1 X-46.457 Y31.602 E170.67071
G1 F6000 E168.87071
G1 Z0.8
G0 F12000 X-46.34 Y30.75
G0 X-48.804 Y28.312
G0 X-47.875 Y24.836
G0 X-44.969 Y24.123
G0 X-45.767 Y23.328
G0 X-47.487 Y19.726
G0 X-48.215 Y15.803
G0 X-47.902 Y11.825
G0 X-46.572 Y8.064
G0 X-44.813 Y5.773
G0 X-45.329 Y6.22
G0 X-48.445 Y4.42
G0 X-48.445 Y0.821
G0 X-45.329 Y-0.977
G0 X-42.612 Y0.675
G0 X-42.653 Y0.418
G0 X-42.216 Y0.36
G0 X-42.231 Y0.459
G0 X-42.231 Y0.459
G0 X-42.231 Y0.84
; TYPE:WALL-OUTER
G1 Z0.3
G1 F6000 E170.67071
G1 F900 X-42.231 Y0.84 E170.67071
G1 X-42.231 Y4.719 E170.95884
G1 X-43.51 Y4.719 E171.05384
G1 X-43.954 Y5.096 E171.09711
G1 X-46.142 Y8.282 E171.3842
G1 X-47.43 Y11.925 E171.67121
G1 X-47.733 Y15.778 E171.9583
G1 X-47.028 Y19.578 E172.24538
G1 X-45.363 Y23.065 E172.5324
G1 X-42.853 Y26.003 E172.81943
G1 X-39.668 Y28.192 E173.1065
G1 X-36.024 Y29.48 E173.39359
G1 X-32.171 Y29.783 E173.68067
G1 X-28.371 Y29.078 E173.96775
G1 X-24.885 Y27.413 E174.25471
G1 X-21.946 Y24.903 E174.54179
G1 X-19.758 Y21.717 E174.82888
G1 X-18.469 Y18.074 E175.11592
G1 X-18.167 Y14.221 E175.403
G1 X-18.872 Y10.421 E175.69008
G1 X-20.536 Y6.934 E175.97707
G1 X-22.43 Y4.719 E176.19355
G1 X-23.669 Y4.719 E176.28558
G1 X-23.669 Y0.84 E176.57371
G1 X-42.231 Y0.84 E177.95249
G1 F6000 E176.15249
G1 Z0.8
G0 F12000 X-42.231 Y0.459
G0 X-42.106 Y-6.621
G0 X-42.106 Y-6.621
; TYPE:WALL-INNER
G1 Z0.3
G1 F6000 E177.95249
G1 F900 X-42.106 Y-6.621 E177.95249
G1 X-41.001 Y-6.989 E178.039
G1 X-40.03 Y-7.629 E178.12538
G1 X-39.257 Y-8.5 E178.21189
G1 X-38.737 Y-9.541 E178.29832
G1 X-38.502 Y-10.681 E178.38478
G1 X-38.571 Y-11.843 E178.47125
G1 X-38.939 Y-12.948 E178.55776
G1 X-39.58 Y-13.92 E178.64424
G1 X-40.45 Y-14.692 E178.73064
G1 X-41.492 Y-15.214 E178.81721
G1 X-42.631 Y-15.447 E178.90357
G1 X-43.794 Y-15.378 E178.99011
G1 X-44.899 Y-15.01 E179.07662
G1 X-45.87 Y-14.37 E179.163
G1 X-46.642 Y-13.499 E179.24945
G1 X-47.164 Y-12.458 E179.33595
G1 X-47.397 Y-11.318 E179.42238
G1 X-47.328 Y-10.156 E179.50885
G1 X-46.961 Y-9.052 E179.59527
G1 X-46.32 Y-8.079 E179.68181
G1 X-45.45 Y-7.307 E179.76821
G1 X-44.408 Y-6.785 E179.85478
G1 X-43.268 Y-6.552 E179.94121
G1 X-42.106 Y-6.621 E180.02767
G0 F12000 X-41.998 Y-6.065
G1 F900 X-41.998 Y-6.065 E180.02767
G1 X-40.754 Y-6.479 E180.12506
G1 X-39.659 Y-7.201 E180.22249
G1 X-38.787 Y-8.183 E180.32004
G1 X-38.201 Y-9.355 E180.41737
G1 X-37.936 Y-10.64 E180.51483
G1 X-38.015 Y-11.951 E180.61238
G1 X-38.429 Y-13.195 E180.70977
G1 X-39.152 Y-14.291 E180.8073
G1 X-40.133 Y-15.162 E180.90474
G1 X-41.307 Y-15.749 E181.00224
G1 X-42.591 Y-16.012 E181.0996
G1 X-43.901 Y-15.935 E181.19707
G1 X-45.146 Y-15.52 E181.29455
G1 X-46.241 Y-14.798 E181.39198
G1 X-47.112 Y-13.816 E181.48948
G1 X-47.699 Y-12.644 E181.58684
G1 X-47.962 Y-11.358 E181.68434
G1 X-47.885 Y-10.049 E181.78174
G1 X-47.471 Y-8.804 E181.8792
G1 X-46.748 Y-7.708 E181.97673
G1 X-45.767 Y-6.837 E182.07417
G1 X-44.593 Y-6.25 E182.17167
G1 X-43.308 Y-5.987 E182.2691
G1 X-41.998 Y-6.065 E182.36658
G0 F12000 X-43.304 Y-6.746
G0 X-43.304 Y-6.746
G0 X-43.227 Y-7.117
; TYPE:WALL-OUTER
G1 F900 X-43.227 Y-7.117 E182.36658
G1 X-42.213 Y-7.178 E182.44203
G1 X-41.249 Y-7.499 E182.5175
G1 X-40.401 Y-8.058 E182.59295
G1 X-39.726 Y-8.818 E182.66845
G1 X-39.272 Y-9.726 E182.74386
G1 X-39.067 Y-10.722 E182.81939
G1 X-39.128 Y-11.736 E182.89485
G1 X-39.449 Y-12.7 E182.97032
G1 X-40.009 Y-13.549 E183.04586
G1 X-40.768 Y-14.223 E183.12126
G1 X-41.677 Y-14.678 E183.19677
G1 X-42.672 Y-14.882 E183.27222
G1 X-43.687 Y-14.821 E183.34775
G1 X-44.651 Y-14.5 E183.42322
G1 X-45.499 Y-13.941 E183.49866
G1 X-46.173 Y-13.181 E183.57411
G1 X-46.628 Y-12.273 E183.64955
G1 X-46.832 Y-11.277 E183.72507
G1 X-46.771 Y-10.263 E183.80053
G1 X-46.451 Y-9.299 E183.87598
G1 X-45.891 Y-8.45 E183.95152
G1 X-45.132 Y-7.776 E184.02692
G1 X-44.223 Y-7.321 E184.10243
G1 X-43.227 Y-7.117 E184.17795
G1 F6000 E182.37795
G1 Z0.8
G0 F12000 X-43.304 Y-6.746
G0 X-43.304 Y-6.631
G0 X-43.261 Y-6.636
G0 X-44.38 Y-6.864
G0 X-45.403 Y-7.377
G0 X-46.256 Y-8.134
G0 X-46.885 Y-9.088
G0 X-47.246 Y-10.173
G0 X-47.313 Y-11.311
G0 X-47.085 Y-12.43
G0 X-46.572 Y-13.452
G0 X-45.815 Y-14.306
G0 X-44.862 Y-14.934
G0 X-43.777 Y-15.296
G0 X-43.16 Y-15.333
G0 X-43.075 Y-20.542
G0 X-43.075 Y-20.542
; TYPE:WALL-INNER
G1 Z0.3
G1 F6000 E184.17795
G1 F900 X-43.075 Y-20.542 E184.17795
G1 X-41.917 Y-20.662 E184.26442
G1 X-40.83 Y-21.077 E184.35085
G1 X-39.887 Y-21.759 E184.43729
G1 X-39.152 Y-22.662 E184.52378
G1 X-38.677 Y-23.725 E184.61026
G1 X-38.493 Y-24.874 E184.6967
G1 X-38.612 Y-26.033 E184.78324
G1 X-39.027 Y-27.121 E184.86974
G1 X-39.71 Y-28.063 E184.95616
G1 X-40.613 Y-28.797 E185.0426
G1 X-41.676 Y-29.273 E185.12912
G1 X-42.825 Y-29.457 E185.21555
G1 X-43.983 Y-29.337 E185.30203
G1 X-45.07 Y-28.922 E185.38845
G1 X-46.013 Y-28.24 E185.4749
G1 X-46.747 Y-27.337 E185.56134
G1 X-47.223 Y-26.274 E185.64785
G1 X-47.407 Y-25.125 E185.73429
G1 X-47.287 Y-23.966 E185.82084
G1 X-46.872 Y-22.879 E185.90726
G1 X-46.19 Y-21.936 E185.99371
G1 X-45.287 Y-21.202 E186.08015
G1 X-44.224 Y-20.726 E186.16666
G1 X-43.075 Y-20.542 E186.25309
G0 F12000 X-43.09 Y-19.975
G1 F900 X-43.09 Y-19.975 E186.25309
G1 X-41.785 Y-20.11 E186.35055
G1 X-40.56 Y-20.578 E186.44795
G1 X-39.498 Y-21.347 E186.54535
G1 X-38.669 Y-22.365 E186.64287
G1 X-38.134 Y-23.564 E186.74039
G1 X-37.927 Y-24.858 E186.83773
G1 X-38.06 Y-26.164 E186.93524
G1 X-38.529 Y-27.39 E187.03274
G1 X-39.299 Y-28.453 E187.13024
G1 X-40.316 Y-29.28 E187.22761
G1 X-41.514 Y-29.816 E187.3251
G1 X-42.81 Y-30.024 E187.42259
G1 X-44.115 Y-29.889 E187.52005
G1 X-45.34 Y-29.421 E187.61745
G1 X-46.403 Y-28.652 E187.71491
G1 X-47.23 Y-27.634 E187.81233
G1 X-47.766 Y-26.436 E187.90982
G1 X-47.974 Y-25.141 E188.00725
G1 X-47.839 Y-23.835 E188.10477
G1 X-47.371 Y-22.609 E188.20225
G1 X-46.602 Y-21.546 E188.2997
G1 X-45.584 Y-20.719 E188.39713
G1 X-44.386 Y-20.183 E188.49461
G1 X-43.09 Y-19.975 E188.59211
G0 F12000 X-43.059 Y-21.109
; TYPE:WALL-OUTER
G1 F900 X-43.059 Y-21.109 E188.59211
G1 X-42.048 Y-21.213 E188.6676
G1 X-41.099 Y-21.576 E188.74308
G1 X-40.276 Y-22.171 E188.81851
G1 X-39.635 Y-22.959 E188.89396
G1 X-39.22 Y-23.887 E188.96948
G1 X-39.06 Y-24.89 E189.04492
G1 X-39.163 Y-25.902 E189.12048
G1 X-39.526 Y-26.851 E189.19595
G1 X-40.122 Y-27.674 E189.27143
G1 X-40.91 Y-28.314 E189.34684
G1 X-41.838 Y-28.73 E189.42238
G1 X-42.841 Y-28.89 E189.49782
G1 X-43.852 Y-28.786 E189.57331
G1 X-44.801 Y-28.423 E189.64879
G1 X-45.624 Y-27.828 E189.72422
G1 X-46.264 Y-27.04 E189.79963
G1 X-46.68 Y-26.112 E189.87517
G1 X-46.84 Y-25.109 E189.95061
G1 X-46.736 Y-24.097 E190.02618
G1 X-46.373 Y-23.148 E190.10165
G1 X-45.778 Y-22.325 E190.17709
G1 X-44.99 Y-21.685 E190.25249
G1 X-44.062 Y-21.269 E190.32803
G1 X-43.059 Y-21.109 E190.40348
G1 F6000 E188.60348
G1 Z0.8
G0 F12000 X-43.118 Y-20.733
G0 X-43.029 Y-20.749
G0 X-43.072 Y-20.625
G0 X-41.937 Y-20.744
G0 X-41.727 Y-20.997
G0 X-27.235 Y-23.766
G0 X-27.235 Y-23.766
; TYPE:WALL-INNER
G1 Z0.3
G1 F6000 E190.40348
G1 F900 X-27.235 Y-23.766 E190.40348
G1 X-26.769 Y-22.699 E190.48996
G1 X-26.044 Y-21.789 E190.57639
G1 X-25.107 Y-21.098 E190.66287
G1 X-24.024 Y-20.672 E190.74931
G1 X-22.867 Y-20.541 E190.8358
G1 X-21.717 Y-20.715 E190.92219
G1 X-20.65 Y-21.179 E191.00862
G1 X-19.739 Y-21.905 E191.09515
G1 X-19.048 Y-22.842 E191.18163
G1 X-18.623 Y-23.925 E191.26805
G1 X-18.492 Y-25.081 E191.35446
G1 X-18.665 Y-26.233 E191.44099
G1 X-19.131 Y-27.3 E191.52748
G1 X-19.856 Y-28.21 E191.6139
G1 X-20.792 Y-28.901 E191.70032
G1 X-21.875 Y-29.327 E191.78677
G1 X-23.033 Y-29.458 E191.87333
G1 X-24.183 Y-29.284 E191.95972
G1 X-25.251 Y-28.82 E192.04622
G1 X-26.16 Y-28.094 E192.13263
G1 X-26.852 Y-27.157 E192.21915
G1 X-27.277 Y-26.074 E192.30557
G1 X-27.408 Y-24.918 E192.39199
G1 X-27.235 Y-23.766 E192.47852
G0 F12000 X-27.78 Y-23.609
G1 F900 X-27.78 Y-23.609 E192.47852
G1 X-27.255 Y-22.407 E192.57595
G1 X-26.437 Y-21.38 E192.67347
G1 X-25.382 Y-20.602 E192.77084
G1 X-24.161 Y-20.122 E192.86829
G1 X-22.856 Y-19.974 E192.96585
G1 X-21.56 Y-20.17 E193.06321
G1 X-20.358 Y-20.694 E193.16061
G1 X-19.33 Y-21.512 E193.25819
G1 X-18.552 Y-22.568 E193.35562
G1 X-18.073 Y-23.789 E193.45305
G1 X-17.925 Y-25.092 E193.55046
G1 X-18.12 Y-26.39 E193.64795
G1 X-18.645 Y-27.592 E193.74538
G1 X-19.463 Y-28.619 E193.84291
G1 X-20.518 Y-29.397 E193.94028
G1 X-21.738 Y-29.877 E194.03766
G1 X-23.044 Y-30.025 E194.13529
G1 X-24.34 Y-29.829 E194.23265
G1 X-25.543 Y-29.305 E194.33012
G1 X-26.568 Y-28.487 E194.42753
G1 X-27.348 Y-27.432 E194.52499
G1 X-27.827 Y-26.21 E194.62248
G1 X-27.975 Y-24.907 E194.71989
G1 X-27.78 Y-23.609 E194.81739
G0 F12000 X-26.729 Y-22.986
G0 X-25.985 Y-21.849
G0 X-25.066 Y-21.171
G0 X-24.004 Y-20.753
G0 X-22.957 Y-20.751
G0 X-22.92 Y-20.73
G0 X-22.92 Y-20.73
G0 X-22.878 Y-21.108
; TYPE:WALL-OUTER
G1 F900 X-22.878 Y-21.108 E194.81739
G1 X-21.874 Y-21.26 E194.89281
G1 X-20.942 Y-21.665 E194.96829
G1 X-20.147 Y-22.298 E195.04378
G1 X-19.544 Y-23.116 E195.11926
G1 X-19.173 Y-24.062 E195.19474
G1 X-19.059 Y-25.071 E195.27017
G1 X-19.21 Y-26.076 E195.34566
G1 X-19.616 Y-27.007 E195.4211
G1 X-20.249 Y-27.802 E195.49659
G1 X-21.067 Y-28.405 E195.57207
G1 X-22.012 Y-28.777 E195.64751
G1 X-23.022 Y-28.891 E195.72301
G1 X-24.026 Y-28.739 E195.79843
G1 X-24.958 Y-28.334 E195.87392
G1 X-25.752 Y-27.701 E195.94934
G1 X-26.356 Y-26.883 E196.02487
G1 X-26.727 Y-25.937 E196.10035
G1 X-26.841 Y-24.928 E196.17578
G1 X-26.69 Y-23.923 E196.25127
G1 X-26.284 Y-22.992 E196.32671
G1 X-25.651 Y-22.197 E196.4022
G1 X-24.833 Y-21.594 E196.47768
G1 X-23.887 Y-21.222 E196.55319
G1 X-22.878 Y-21.108 E196.62861
G1 F6000 E194.82861
G1 Z0.8
G0 F12000 X-22.92 Y-20.73
G0 X-22.981 Y-15.458
G0 X-22.981 Y-15.458
; TYPE:WALL-INNER
G1 Z0.3
G1 F6000 E196.62861
G1 F900 X-22.981 Y-15.458 E196.62861
G1 X-24.134 Y-15.299 E196.71507
G1 X-25.207 Y-14.845 E196.80161
G1 X-26.124 Y-14.13 E196.88798
G1 X-26.827 Y-13.202 E196.97446
G1 X-27.265 Y-12.123 E197.06096
G1 X-27.408 Y-10.968 E197.14741
G1 X-27.249 Y-9.815 E197.23386
G1 X-26.795 Y-8.743 E197.32034
G1 X-26.081 Y-7.824 E197.40678
G1 X-25.152 Y-7.123 E197.49323
G1 X-24.073 Y-6.684 E197.57976
G1 X-22.919 Y-6.541 E197.66613
G1 X-21.765 Y-6.7 E197.75266
G1 X-20.694 Y-7.154 E197.83906
G1 X-19.775 Y-7.869 E197.92555
G1 X-19.073 Y-8.797 E198.01199
G1 X-18.635 Y-9.876 E198.09849
G1 X-18.491 Y-11.031 E198.18494
G1 X-18.651 Y-12.184 E198.27141
G1 X-19.104 Y-13.256 E198.35785
G1 X-19.819 Y-14.175 E198.44434
G1 X-20.747 Y-14.876 E198.53073
G1 X-21.826 Y-15.315 E198.61726
G1 X-22.981 Y-15.458 E198.70371
G0 F12000 X-22.985 Y-16.025
G1 F900 X-22.985 Y-16.025 E198.70371
G1 X-24.284 Y-15.845 E198.80112
G1 X-25.494 Y-15.334 E198.89868
G1 X-26.528 Y-14.528 E198.99607
G1 X-27.32 Y-13.482 E199.09352
G1 X-27.814 Y-12.266 E199.19102
G1 X-27.975 Y-10.964 E199.28846
G1 X-27.795 Y-9.665 E199.38587
G1 X-27.284 Y-8.456 E199.48337
G1 X-26.479 Y-7.421 E199.58077
G1 X-25.432 Y-6.63 E199.67824
G1 X-24.216 Y-6.136 E199.77573
G1 X-22.915 Y-5.974 E199.87311
G1 X-21.615 Y-6.154 E199.9706
G1 X-20.407 Y-6.665 E200.06803
G1 X-19.371 Y-7.471 E200.16553
G1 X-18.58 Y-8.517 E200.26294
G1 X-18.087 Y-9.733 E200.3604
G1 X-17.924 Y-11.035 E200.45787
G1 X-18.105 Y-12.334 E200.55529
G1 X-18.615 Y-13.543 E200.65276
G1 X-19.421 Y-14.578 E200.7502
G1 X-20.467 Y-15.369 E200.84761
G1 X-21.683 Y-15.863 E200.9451
G1 X-22.985 Y-16.025 E201.04256
G1 F6000 E199.24256
G1 Z0.8
G0 F12000 X-22.983 Y-15.374
G0 X-21.847 Y-15.234
G0 X-20.789 Y-14.803
G0 X-19.878 Y-14.115
G0 X-19.176 Y-13.214
G0 X-18.733 Y-12.161
G0 X-18.574 Y-11.03
G0 X-18.716 Y-9.897
G0 X-19.146 Y-8.839
G0 X-19.834 Y-7.928
G0 X-20.736 Y-7.226
G0 X-21.787 Y-6.781
G0 X-22.969 Y-6.616
G0 X-22.97 Y-6.73
G0 X-22.97 Y-6.73
G0 X-22.923 Y-7.108
; TYPE:WALL-OUTER
G1 Z0.3
G1 F6000 E201.04256
G1 F900 X-22.923 Y-7.108 E201.04256
G1 X-21.916 Y-7.247 E201.11807
G1 X-20.981 Y-7.643 E201.19349
G1 X-20.178 Y-8.267 E201.26903
G1 X-19.566 Y-9.077 E201.34444
G1 X-19.184 Y-10.019 E201.41995
G1 X-19.058 Y-11.027 E201.4954
G1 X-19.198 Y-12.033 E201.57085
G1 X-19.593 Y-12.969 E201.64631
G1 X-20.217 Y-13.771 E201.72179
G1 X-21.027 Y-14.383 E201.7972
G1 X-21.969 Y-14.766 E201.87274
G1 X-22.977 Y-14.891 E201.94818
G1 X-23.983 Y-14.752 E202.02362
G1 X-24.92 Y-14.356 E202.09918
G1 X-25.721 Y-13.732 E202.1746
G1 X-26.334 Y-12.922 E202.25005
G1 X-26.716 Y-11.98 E202.32556
G1 X-26.841 Y-10.972 E202.40101
G1 X-26.702 Y-9.966 E202.47644
G1 X-26.306 Y-9.03 E202.55194
G1 X-25.683 Y-8.228 E202.62737
G1 X-24.872 Y-7.616 E202.70284
G1 X-23.93 Y-7.233 E202.77837
G1 X-22.923 Y-7.108 E202.85375
G1 F6000 E201.05375
G1 Z0.8
G0 F12000 X-22.97 Y-6.73
G0 X-22.932 Y-6.741
G0 X-22.92 Y-6.624
G0 X-21.787 Y-6.781
G0 X-20.736 Y-7.226
G0 X-20.644 Y-7.459
G0 X15.315 Y-18.744
G0 X15.315 Y-18.744
; TYPE:WALL-INNER
G1 Z0.3
G1 F6000 E202.85375
G1 F900 X15.315 Y-18.744 E202.85375
G1 X15.8 Y-17.571 E202.94803
G1 X16.603 Y-16.543 E203.04492
G1 X17.613 Y-15.781 E203.1389
G1 X18.786 Y-15.308 E203.23285
G1 X20.042 Y-15.154 E203.32684
G1 X21.295 Y-15.331 E203.42084
G1 X22.455 Y-15.823 E203.51443
G1 X23.429 Y-16.569 E203.60557
G1 X24.2 Y-17.574 E203.69965
G1 X24.684 Y-18.744 E203.7937
G1 X24.849 Y-20 E203.8878
G1 X24.684 Y-21.255 E203.98182
G1 X24.199 Y-22.428 E204.07611
G1 X23.396 Y-23.456 E204.173
G1 X22.386 Y-24.218 E204.26698
G1 X21.216 Y-24.69 E204.36069
G1 X19.995 Y-24.851 E204.45217
G1 X18.704 Y-24.668 E204.54903
G1 X17.543 Y-24.176 E204.64269
G1 X16.57 Y-23.429 E204.73381
G1 X15.799 Y-22.425 E204.82784
G1 X15.315 Y-21.255 E204.92189
G1 X15.149 Y-20 E205.01592
G1 X15.315 Y-18.744 E205.11003
G0 F12000 X14.767 Y-18.597
G1 F900 X14.767 Y-18.597 E205.11003
G1 X15.31 Y-17.285 E205.2155
G1 X16.206 Y-16.138 E205.32361
G1 X17.334 Y-15.287 E205.42857
G1 X18.645 Y-14.759 E205.53355
G1 X20.047 Y-14.587 E205.63847
G1 X21.447 Y-14.785 E205.7435
G1 X22.74 Y-15.333 E205.84781
G1 X23.83 Y-16.168 E205.9498
G1 X24.691 Y-17.29 E206.05485
G1 X25.232 Y-18.598 E206.15999
G1 X25.416 Y-20 E206.26503
G1 X25.232 Y-21.401 E206.36999
G1 X24.689 Y-22.714 E206.47553
G1 X23.793 Y-23.861 E206.58364
G1 X22.665 Y-24.712 E206.6886
G1 X21.36 Y-25.238 E206.79311
G1 X19.992 Y-25.418 E206.8956
G1 X18.552 Y-25.214 E207.00363
G1 X17.258 Y-24.666 E207.10801
G1 X16.169 Y-23.83 E207.20999
G1 X15.308 Y-22.709 E207.31498
G1 X14.767 Y-21.402 E207.42006
G1 X14.582 Y-20 E207.5251
G1 X14.767 Y-18.597 E207.63022
G1 F6000 E205.83022
G1 Z0.8
G0 F12000 X15.739 Y-17.99
G0 X16.662 Y-16.603
G0 X17.655 Y-15.854
G0 X18.808 Y-15.389
G0 X19.961 Y-15.361
G0 X19.992 Y-15.343
G0 X19.992 Y-15.343
G0 X20.037 Y-15.721
; TYPE:WALL-OUTER
G1 Z0.3
G1 F6000 E207.63022
G1 F900 X20.037 Y-15.721 E207.63022
G1 X21.144 Y-15.877 E207.71326
G1 X22.17 Y-16.312 E207.79603
G1 X23.028 Y-16.97 E207.87635
G1 X23.709 Y-17.857 E207.95941
G1 X24.137 Y-18.891 E208.04254
G1 X24.282 Y-20 E208.12562
G1 X24.137 Y-21.108 E208.20862
G1 X23.709 Y-22.143 E208.29181
G1 X22.999 Y-23.052 E208.37749
G1 X22.107 Y-23.725 E208.46049
G1 X21.072 Y-24.142 E208.54337
G1 X19.998 Y-24.284 E208.62384
G1 X18.855 Y-24.122 E208.70959
G1 X17.828 Y-23.687 E208.79244
G1 X16.971 Y-23.028 E208.87274
G1 X16.29 Y-22.142 E208.95575
G1 X15.862 Y-21.108 E209.03887
G1 X15.716 Y-20 E209.12189
G1 X15.862 Y-18.891 E209.20497
G1 X16.29 Y-17.856 E209.28817
G1 X17 Y-16.947 E209.37384
G1 X17.892 Y-16.274 E209.45684
G1 X18.928 Y-15.857 E209.5398
G1 X20.037 Y-15.721 E209.62279
G1 F6000 E207.82279
G1 Z0.8
G0 F12000 X19.992 Y-15.343
G0 X-17.449 Y4.289
G0 X-17.455 Y4.42
G0 X-20.571 Y6.22
G0 X-20.834 Y6.064
G0 X-20.761 Y6.025
G0 X-20.761 Y6.025
G0 X-20.571 Y5.695
G1 Z0.3
G1 F6000 E209.62279
G1 F900 X-20.571 Y5.695 E209.62279
G1 X-17.909 Y4.158 E209.85112
G1 X-17.909 Y1.084 E210.07945
G1 X-20.571 Y-0.452 E210.30774
G1 X-23.234 Y1.084 E210.53609
G1 X-23.234 Y4.158 E210.76443
G1 X-20.571 Y5.695 E210.99282
G1 F6000 E209.19282
G1 Z0.8
G0 F12000 X-20.761 Y6.025
G0 X-20.758 Y6.053
G0 X-20.132 Y6.671
G0 X-18.413 Y10.273
G0 X-17.685 Y14.196
G0 X-17.997 Y18.174
G0 X-19.328 Y21.935
G0 X-20.947 Y24.143
G0 X-18.091 Y24.772
G0 X-17.073 Y28.223
G0 X-19.423 Y30.652
G0 X-19.428 Y30.589
G0 X-19.428 Y30.589
G0 X-19.702 Y30.327
G1 Z0.3
G1 F6000 E210.99282
G1 F900 X-19.702 Y30.327 E210.99282
G1 X-17.583 Y28.1 E211.22115
G1 X-18.451 Y25.151 E211.4495
G1 X-21.441 Y24.429 E211.67798
G1 X-23.559 Y26.656 E211.90626
G1 X-22.691 Y29.605 E212.13461
G1 X-19.702 Y30.327 E212.36301
G1 F6000 E210.56301
G1 Z0.8
G0 F12000 X-19.428 Y30.589
G0 X-19.354 Y30.657
G0 X-19.555 Y30.829
G0 X-23.051 Y29.984
G0 X-23.851 Y27.042
G0 X-24.622 Y27.817
G0 X-28.223 Y29.537
G0 X-32.146 Y30.265
G0 X-36.124 Y29.952
G0 X-39.886 Y28.622
G0 X-42.068 Y27.022
G0 X-42.782 Y29.92
G0 X-46.256 Y30.855
G0 X-48.804 Y28.312
G0 X-47.875 Y24.836
G0 X-44.969 Y24.123
G0 X-45.767 Y23.328
G0 X-47.487 Y19.726
G0 X-48.215 Y15.803
G0 X-47.902 Y11.825
G0 X-46.572 Y8.064
G0 X-45.307 Y6.223
G0 X-45.52 Y6.024
G0 X-45.52 Y6.024
G0 X-45.329 Y5.695
G1 Z0.3
G1 F6000 E212.36301
G1 F900 X-45.329 Y5.695 E212.36301
G1 X-42.666 Y4.158 E212.5914
G1 X-42.666 Y1.084 E212.81974
G1 X-45.329 Y-0.452 E213.04809
G1 X-47.991 Y1.084 E213.27638
G1 X-47.991 Y4.158 E213.50471
G1 X-45.329 Y5.695 E213.73304
G0 F12000 X-45.52 Y6.024
G0 X-46.827 Y6.744
G0 X-46.827 Y6.744
; TYPE:BOTTOM-FILL
G1 F900 X-56.283 Y6.744 E214.43543
G0 F12000 X-56.283 Y6.182
G1 F900 X-47.356 Y6.182 E215.09852
G0 F12000 X-48.329 Y5.62
G1 F900 X-56.283 Y5.62 E215.68934
G0 F12000 X-56.283 Y5.058
G1 F900 X-49.302 Y5.058 E216.20789
G0 F12000 X-49.427 Y4.496
G1 F900 X-56.283 Y4.496 E216.71715
G0 F12000 X-56.283 Y3.934
G1 F900 X-49.427 Y3.934 E217.22641
G0 F12000 X-49.427 Y3.372
G1 F900 X-56.283 Y3.372 E217.73567
G0 F12000 X-56.283 Y2.81
G1 F900 X-49.427 Y2.81 E218.24493
G0 F12000 X-49.427 Y2.248
G1 F900 X-56.283 Y2.248 E218.7542
G0 F12000 X-56.283 Y1.686
G1 F900 X-49.427 Y1.686 E219.26346
G0 F12000 X-49.427 Y1.124
G1 F900 X-56.283 Y1.124 E219.77272
G0 F12000 X-56.283 Y0.562
G1 F900 X-49.427 Y0.562 E220.28198
G0 F12000 X-48.987 Y0
G1 F900 X-56.283 Y0 E220.82392
G0 F12000 X-56.283 Y-0.561
G1 F900 X-48.012 Y-0.561 E221.43829
G0 F12000 X-47.038 Y-1.123
G1 F900 X-56.283 Y-1.123 E222.12501
G0 F12000 X-56.283 Y-1.685
G1 F900 X-46.064 Y-1.685 E222.88407
G0 F12000 X-44.594 Y-1.685
G1 F900 X-21.306 Y-1.685 E224.61389
G0 F12000 X-22.281 Y-1.123
G1 F900 X-43.619 Y-1.123 E226.19887
G0 F12000 X-45.154 Y-6.181
G0 X-45.154 Y-6.181
G1 F900 X-56.283 Y-6.181 E227.02553
G0 F12000 X-56.283 Y-6.743
G1 F900 X-46.132 Y-6.743 E227.77954
G0 F12000 X-46.764 Y-7.305
G1 F900 X-56.283 Y-7.305 E228.48661
G0 F12000 X-56.283 Y-7.867
G1 F900 X-47.226 Y-7.867 E229.15936
G0 F12000 X-47.598 Y-8.429
G1 F900 X-56.283 Y-8.429 E229.80448
G0 F12000 X-56.283 Y-8.991
G1 F900 X-47.863 Y-8.991 E230.42992
G0 F12000 X-48.05 Y-9.553
G1 F900 X-56.283 Y-9.553 E231.04146
G0 F12000 X-56.283 Y-10.115
G1 F900 X-48.201 Y-10.115 E231.64179
G0 F12000 X-48.234 Y-10.677
G1 F900 X-56.283 Y-10.677 E232.23967
G0 F12000 X-56.283 Y-11.239
G1 F900 X-48.267 Y-11.239 E232.83509
G0 F12000 X-48.189 Y-11.801
G1 F900 X-56.283 Y-11.801 E233.43631
G0 F12000 X-56.283 Y-12.363
G1 F900 X-48.075 Y-12.363 E234.046
G0 F12000 X-47.906 Y-12.925
G1 F900 X-56.283 Y-12.925 E234.66824
G0 F12000 X-56.283 Y-13.487
G1 F900 X-47.625 Y-13.487 E235.31135
G0 F12000 X-47.321 Y-14.049
G1 F900 X-56.283 Y-14.049 E235.97705
G0 F12000 X-56.283 Y-14.611
G1 F900 X-46.823 Y-14.611 E236.67973
G0 F12000 X-46.236 Y-15.173
G1 F900 X-56.283 Y-15.173 E237.42602
G0 F12000 X-56.283 Y-15.735
G1 F900 X-45.385 Y-15.735 E238.23552
G0 F12000 X-43.032 Y-16.297
G0 X-43.032 Y-16.297
G1 F900 X-56.283 Y-16.297 E239.2198
G0 F12000 X-56.283 Y-16.859
G1 F900 X15.245 Y-16.86 E244.53287
G0 F12000 X14.914 Y-17.422
G1 F900 X-56.283 Y-17.421 E249.82136
G0 F12000 X-56.283 Y-17.983
G1 F900 X14.682 Y-17.984 E255.09262
G0 F12000 X14.458 Y-18.546
G1 F900 X-56.283 Y-18.545 E260.34723
G0 F12000 X-56.283 Y-19.107
G1 F900 X14.384 Y-19.108 E265.59635
G0 F12000 X14.31 Y-19.67
G1 F900 X-22.777 Y-19.67 E268.35116
G0 F12000 X-22.947 Y-19.67
G1 F900 X-43.003 Y-19.669 E269.84092
G0 F12000 X-43.161 Y-19.669
G1 F900 X-56.283 Y-19.669 E270.81561
G0 F12000 X-56.283 Y-20.231
G1 F900 X-45.261 Y-20.231 E271.63432
G0 F12000 X-46.171 Y-20.793
G1 F900 X-56.283 Y-20.793 E272.38544
G0 F12000 X-56.283 Y-21.355
G1 F900 X-46.85 Y-21.355 E273.08612
G0 F12000 X-47.257 Y-21.917
G1 F900 X-56.283 Y-21.917 E273.75657
G0 F12000 X-56.283 Y-22.479
G1 F900 X-47.656 Y-22.479 E274.39738
G0 F12000 X-47.87 Y-23.041
G1 F900 X-56.283 Y-23.041 E275.02229
G0 F12000 X-56.283 Y-23.603
G1 F900 X-48.084 Y-23.603 E275.63131
G0 F12000 X-48.186 Y-24.165
G1 F900 X-56.283 Y-24.165 E276.23275
G0 F12000 X-56.283 Y-24.727
G1 F900 X-48.245 Y-24.727 E276.82981
G0 F12000 X-48.266 Y-25.289
G1 F900 X-56.283 Y-25.289 E277.42531
G0 F12000 X-56.283 Y-25.851
G1 F900 X-48.176 Y-25.851 E278.0275
G0 F12000 X-48.085 Y-26.413
G1 F900 X-56.283 Y-26.413 E278.63644
G0 F12000 X-56.283 Y-26.975
G1 F900 X-47.867 Y-26.975 E279.26158
G0 F12000 X-47.615 Y-27.537
G1 F900 X-56.283 Y-27.537 E279.90544
G0 F12000 X-56.283 Y-28.099
G1 F900 X-47.254 Y-28.099 E280.57611
G0 F12000 X-46.797 Y-28.661
G1 F900 X-56.283 Y-28.661 E281.28072
G0 F12000 X-56.283 Y-29.223
G1 F900 X-46.145 Y-29.223 E282.03377
G0 F12000 X-45.258 Y-29.785
G1 F900 X-56.283 Y-29.785 E282.8527
G0 F12000 X-56.283 Y-30.347
G1 F900 X56.283 Y-30.348 E291.21407
G0 F12000 X56.283 Y-29.786
G1 F900 X-20.655 Y-29.786 E296.929
G0 F12000 X-19.757 Y-29.224
G1 F900 X56.283 Y-29.224 E302.57722
G0 F12000 X56.283 Y-28.662
G1 F900 X-19.099 Y-28.662 E308.17657
G0 F12000 X-18.651 Y-28.1
G1 F900 X56.283 Y-28.1 E313.74264
G0 F12000 X56.283 Y-27.538
G1 F900 X-18.281 Y-27.538 E319.28123
G0 F12000 X-18.035 Y-26.976
G1 F900 X56.283 Y-26.976 E324.80154
G0 F12000 X56.283 Y-26.414
G1 F900 X-17.808 Y-26.414 E330.305
G0 F12000 X-17.723 Y-25.852
G1 F900 X56.283 Y-25.852 E335.80214
G0 F12000 X56.283 Y-25.29
G1 F900 X22.064 Y-25.29 E338.34391
G0 F12000 X23.161 Y-24.728
G1 F900 X56.283 Y-24.728 E340.8042
G0 F12000 X56.283 Y-24.166
G1 F900 X23.905 Y-24.166 E343.20923
G0 F12000 X24.389 Y-23.604
G1 F900 X56.283 Y-23.604 E345.5783
G0 F12000 X56.283 Y-23.042
G1 F900 X24.829 Y-23.042 E347.9147
G0 F12000 X25.123 Y-22.48
G1 F900 X56.283 Y-22.48 E350.22925
G0 F12000 X56.283 Y-21.918
G1 F900 X25.356 Y-21.918 E352.5265
G0 F12000 X25.553 Y-21.356
G1 F900 X56.283 Y-21.356 E354.80911
G0 F12000 X56.283 Y-20.794
G1 F900 X25.627 Y-20.794 E357.08623
G0 F12000 X25.7 Y-20.232
G1 F900 X56.283 Y-20.232 E359.35792
G0 F12000 X56.283 Y-19.67
G1 F900 X25.688 Y-19.67 E361.63051
G0 F12000 X25.614 Y-19.108
G1 F900 X56.283 Y-19.108 E363.90859
G0 F12000 X56.283 Y-18.546
G1 F900 X25.54 Y-18.546 E366.19217
G0 F12000 X25.316 Y-17.984
G1 F900 X56.283 Y-17.984 E368.49239
G0 F12000 X56.283 Y-17.422
G1 F900 X25.083 Y-17.422 E370.80991
G0 F12000 X24.755 Y-16.86
G1 F900 X56.283 Y-16.86 E373.1518
G0 F12000 X56.283 Y-16.298
G1 F900 X24.324 Y-16.298 E375.5257
G0 F12000 X23.782 Y-15.736
G1 F900 X56.283 Y-15.736 E377.93987
G0 F12000 X56.283 Y-15.174
G1 F900 X23.049 Y-15.174 E380.40848
G0 F12000 X21.84 Y-14.612
G1 F900 X56.283 Y-14.612 E382.96689
G0 F12000 X56.283 Y-14.05
G1 F900 X-18.615 Y-14.049 E388.53029
G0 F12000 X-18.253 Y-13.487
G1 F900 X56.283 Y-13.488 E394.0668
G0 F12000 X56.283 Y-12.926
G1 F900 X-18.016 Y-12.925 E399.5857
G0 F12000 X-17.795 Y-12.363
G1 F900 X56.283 Y-12.364 E405.08819
G0 F12000 X56.283 Y-11.802
G1 F900 X-17.716 Y-11.801 E410.58481
G0 F12000 X-17.638 Y-11.239
G1 F900 X56.283 Y-11.24 E416.07563
G0 F12000 X56.283 Y-10.678
G1 F900 X-17.654 Y-10.677 E421.56765
G0 F12000 X-17.725 Y-10.115
G1 F900 X56.283 Y-10.116 E427.06494
G0 F12000 X56.283 Y-9.554
G1 F900 X-17.824 Y-9.553 E432.56958
G0 F12000 X-18.051 Y-8.991
G1 F900 X56.283 Y-8.992 E438.09108
G0 F12000 X56.283 Y-8.43
G1 F900 X-18.279 Y-8.429 E443.62952
G0 F12000 X-18.679 Y-7.867
G1 F900 X56.283 Y-7.868 E449.19767
G0 F12000 X56.283 Y-7.306
G1 F900 X-19.104 Y-7.305 E454.79739
G0 F12000 X-19.797 Y-6.743
G1 F900 X56.283 Y-6.744 E460.44859
G0 F12000 X56.283 Y-6.182
G1 F900 X-20.745 Y-6.181 E466.1702
G0 F12000 X-25.158 Y-6.181
G1 F900 X-40.657 Y-6.181 E467.32146
G0 F12000 X-39.787 Y-6.743
G1 F900 X-26.101 Y-6.743 E468.33805
G0 F12000 X-26.786 Y-7.305
G1 F900 X-39.149 Y-7.305 E469.25637
G0 F12000 X-38.65 Y-7.867
G1 F900 X-27.223 Y-7.867 E470.10516
G0 F12000 X-27.613 Y-8.429
G1 F900 X-38.315 Y-8.429 E470.90011
G0 F12000 X-38.034 Y-8.991
G1 F900 X-27.85 Y-8.991 E471.65657
G0 F12000 X-28.088 Y-9.553
G1 F900 X-37.841 Y-9.553 E472.38102
G0 F12000 X-37.726 Y-10.115
G1 F900 X-28.173 Y-10.115 E473.09061
G0 F12000 X-28.25 Y-10.677
G1 F900 X-37.627 Y-10.677 E473.78713
G0 F12000 X-37.66 Y-11.239
G1 F900 X-28.256 Y-11.239 E474.48566
G0 F12000 X-28.186 Y-11.801
G1 F900 X-37.693 Y-11.801 E475.19184
G0 F12000 X-37.823 Y-12.363
G1 F900 X-28.111 Y-12.363 E475.91324
G0 F12000 X-27.883 Y-12.925
G1 F900 X-38.01 Y-12.925 E476.66547
G0 F12000 X-38.249 Y-13.487
G1 F900 X-27.654 Y-13.487 E477.45246
G0 F12000 X-27.282 Y-14.049
G1 F900 X-38.62 Y-14.049 E478.29464
G0 F12000 X-39.044 Y-14.611
G1 F900 X-26.856 Y-14.611 E479.19997
G0 F12000 X-26.207 Y-15.173
G1 F900 X-39.677 Y-15.173 E480.20051
G0 F12000 X-40.584 Y-15.735
G1 F900 X-25.346 Y-15.735 E481.33239
G0 F12000 X-23.289 Y-16.297
G0 X-23.289 Y-16.297
G1 F900 X-42.435 Y-16.297 E482.75454
G0 F12000 X-40.592 Y-20.231
G0 X-40.592 Y-20.231
G1 F900 X-25.292 Y-20.232 E483.89102
G0 F12000 X-26.168 Y-20.794
G1 F900 X-39.729 Y-20.793 E484.89833
G0 F12000 X-39.088 Y-21.355
G1 F900 X-26.816 Y-21.356 E485.80989
G0 F12000 X-27.264 Y-21.918
G1 F900 X-38.631 Y-21.917 E486.65423
G0 F12000 X-38.276 Y-22.479
G1 F900 X-27.628 Y-22.48 E487.44515
G0 F12000 X-27.873 Y-23.042
G1 F900 X-38.025 Y-23.041 E488.19924
G0 F12000 X-37.812 Y-23.603
G1 F900 X-28.095 Y-23.604 E488.92102
G0 F12000 X-28.18 Y-24.166
G1 F900 X-37.722 Y-24.165 E489.62979
G0 F12000 X-37.631 Y-24.727
G1 F900 X-28.264 Y-24.728 E490.32557
G0 F12000 X-28.246 Y-25.29
G1 F900 X-37.657 Y-25.289 E491.02462
G0 F12000 X-37.714 Y-25.851
G1 F900 X-28.182 Y-25.852 E491.73265
G0 F12000 X-28.082 Y-26.414
G1 F900 X-37.821 Y-26.413 E492.45606
G0 F12000 X-38.036 Y-26.975
G1 F900 X-27.862 Y-26.976 E493.21178
G0 F12000 X-27.641 Y-27.538
G1 F900 X-38.252 Y-27.537 E493.99996
G0 F12000 X-38.658 Y-28.099
G1 F900 X-27.241 Y-28.1 E494.84801
G0 F12000 X-26.826 Y-28.662
G1 F900 X-39.065 Y-28.661 E495.75712
G0 F12000 X-39.753 Y-29.223
G1 F900 X-26.145 Y-29.224 E496.76792
G0 F12000 X-25.221 Y-29.786
G1 F900 X-40.682 Y-29.785 E497.91636
G0 F12000 X-56.283 Y-30.909
G0 X-56.283 Y-30.909
G1 F900 X56.283 Y-30.91 E506.27772
G0 F12000 X56.283 Y-31.472
G1 F900 X-56.283 Y-31.471 E514.63908
G0 F12000 X-56.283 Y-32.033
G1 F900 X56.283 Y-32.034 E523.00045
G0 F12000 X56.283 Y-32.596
G1 F900 X-56.283 Y-32.595 E531.36181
G0 F12000 X-56.283 Y-33.158
G1 F900 X56.283 Y-33.158 E539.72317
G0 F12000 X56.283 Y-33.72
G1 F900 X-56.283 Y-33.72 E548.08454
G0 F12000 X-56.283 Y-34.282
G1 F900 X56.283 Y-34.282 E556.4459
G0 F12000 X56.283 Y-34.844
G1 F900 X-56.283 Y-34.844 E564.80726
G0 F12000 X-56.283 Y-35.406
G1 F900 X56.283 Y-35.406 E573.16862
G0 F12000 X56.283 Y-35.968
G1 F900 X-56.283 Y-35.968 E581.52999
G0 F12000 X-56.283 Y-5.619
G0 X-56.283 Y-5.619
G1 F900 X56.283 Y-5.62 E589.89135
G0 F12000 X56.283 Y-5.058
G1 F900 X-56.283 Y-5.057 E598.25271
G0 F12000 X-56.283 Y-4.495
G1 F900 X56.283 Y-4.496 E606.61408
G0 F12000 X56.283 Y-3.934
G1 F900 X-56.283 Y-3.933 E614.97544
G0 F12000 X-56.283 Y-3.371
G1 F900 X56.283 Y-3.372 E623.3368
G0 F12000 X56.283 Y-2.81
G1 F900 X-56.283 Y-2.809 E631.69817
G0 F12000 X-56.283 Y-2.247
G1 F900 X56.283 Y-2.248 E640.05953
G0 F12000 X56.283 Y-1.686
G1 F900 X-19.836 Y-1.685 E645.71362
G0 F12000 X-18.862 Y-1.123
G1 F900 X56.283 Y-1.124 E651.29537
G0 F12000 X56.283 Y-0.562
G1 F900 X-17.888 Y-0.561 E656.80476
G0 F12000 X-16.913 Y0
G1 F900 X56.283 Y0 E662.24173
G0 F12000 X56.283 Y0.561
G1 F900 X-16.473 Y0.562 E667.64602
G0 F12000 X-16.473 Y1.124
G1 F900 X56.283 Y1.123 E673.05032
G0 F12000 X56.283 Y1.685
G1 F900 X-16.473 Y1.686 E678.45461
G0 F12000 X-16.473 Y2.248
G1 F900 X56.283 Y2.247 E683.8589
G0 F12000 X56.283 Y2.809
G1 F900 X-16.473 Y2.81 E689.26319
G0 F12000 X-16.473 Y3.372
G1 F900 X56.283 Y3.371 E694.66748
G0 F12000 X56.283 Y3.933
G1 F900 X-16.473 Y3.934 E700.07177
G0 F12000 X-16.473 Y4.496
G1 F900 X56.283 Y4.495 E705.47606
G0 F12000 X56.283 Y5.057
G1 F900 X-16.598 Y5.058 E710.88963
G0 F12000 X-17.571 Y5.62
G1 F900 X56.283 Y5.619 E716.37548
G0 F12000 X56.283 Y6.181
G1 F900 X-18.543 Y6.182 E721.93353
G0 F12000 X-19.035 Y6.744
G1 F900 X56.283 Y6.743 E727.52812
G0 F12000 X56.283 Y7.305
G1 F900 X-18.767 Y7.306 E733.10281
G0 F12000 X-18.499 Y7.868
G1 F900 X56.283 Y7.867 E738.65759
G0 F12000 X56.283 Y8.429
G1 F900 X-18.231 Y8.43 E744.19247
G0 F12000 X-17.963 Y8.992
G1 F900 X56.283 Y8.991 E749.70743
G0 F12000 X56.283 Y9.553
G1 F900 X-17.695 Y9.554 E755.20249
G0 F12000 X-17.469 Y10.116
G1 F900 X56.283 Y10.115 E760.68077
G0 F12000 X56.283 Y10.677
G1 F900 X-17.364 Y10.678 E766.15124
G0 F12000 X-17.26 Y11.24
G1 F900 X56.283 Y11.239 E771.61399
G0 F12000 X56.283 Y11.801
G1 F900 X-17.156 Y11.802 E777.06901
G0 F12000 X-17.051 Y12.364
G1 F900 X56.283 Y12.363 E782.51623
G0 F12000 X56.283 Y12.925
G1 F900 X-16.947 Y12.926 E787.95573
G0 F12000 X-16.843 Y13.488
G1 F900 X56.283 Y13.487 E793.38751
G0 F12000 X56.283 Y14.049
G1 F900 X-16.739 Y14.05 E798.81156
G0 F12000 X-16.757 Y14.612
G1 F900 X56.283 Y14.611 E804.23694
G0 F12000 X56.283 Y15.173
G1 F900 X-16.801 Y15.174 E809.6656
G0 F12000 X-16.845 Y15.736
G1 F900 X56.283 Y15.735 E815.09752
G0 F12000 X56.283 Y16.297
G1 F900 X-16.889 Y16.298 E820.53271
G0 F12000 X-16.933 Y16.86
G1 F900 X56.283 Y16.859 E825.97117
G0 F12000 X56.283 Y17.421
G1 F900 X-16.977 Y17.422 E831.41289
G0 F12000 X-17.021 Y17.984
G1 F900 X56.283 Y17.983 E836.85789
G0 F12000 X56.283 Y18.545
G1 F900 X-17.112 Y18.546 E842.30964
G0 F12000 X-17.311 Y19.108
G1 F900 X56.283 Y19.107 E847.77618
G0 F12000 X56.283 Y19.669
G1 F900 X-17.51 Y19.67 E853.2575
G0 F12000 X-17.71 Y20.232
G1 F900 X56.283 Y20.231 E858.75367
G0 F12000 X56.283 Y20.793
G1 F900 X-17.909 Y20.794 E864.26463
G0 F12000 X-18.108 Y21.356
G1 F900 X56.283 Y21.355 E869.79037
G0 F12000 X56.283 Y21.917
G1 F900 X-18.307 Y21.918 E875.33089
G0 F12000 X-18.541 Y22.48
G1 F900 X56.283 Y22.479 E880.88879
G0 F12000 X56.283 Y23.041
G1 F900 X-18.927 Y23.042 E886.47536
G0 F12000 X-18.743 Y23.604
G1 F900 X56.283 Y23.603 E892.04826
G0 F12000 X56.283 Y24.165
G1 F900 X-17.244 Y24.166 E897.50982
G0 F12000 X-17.079 Y24.728
G1 F900 X56.283 Y24.727 E902.95913
G0 F12000 X56.283 Y25.289
G1 F900 X-16.913 Y25.29 E908.3961
G0 F12000 X-16.748 Y25.852
G1 F900 X56.283 Y25.851 E913.82082
G0 F12000 X56.283 Y26.413
G1 F900 X-16.583 Y26.414 E919.23328
G0 F12000 X-16.417 Y26.976
G1 F900 X56.283 Y26.975 E924.63341
G0 F12000 X56.283 Y27.537
G1 F900 X-16.251 Y27.538 E930.02121
G0 F12000 X-16.085 Y28.1
G1 F900 X56.283 Y28.099 E935.39668
G0 F12000 X56.283 Y28.661
G1 F900 X-16.133 Y28.662 E940.77571
G0 F12000 X-16.669 Y29.224
G1 F900 X56.283 Y29.223 E946.19456
G0 F12000 X56.283 Y29.785
G1 F900 X-17.203 Y29.786 E951.65308
G0 F12000 X-17.739 Y30.348
G1 F900 X56.283 Y30.347 E957.1514
G0 F12000 X56.283 Y30.909
G1 F900 X-18.274 Y30.91 E962.68947
G0 F12000 X-18.809 Y31.472
G1 F900 X56.283 Y31.471 E968.26728
G0 F12000 X56.283 Y32.033
G1 F900 X-56.283 Y32.034 E976.62864
G0 F12000 X-56.283 Y31.472
G1 F900 X-47.027 Y31.472 E977.31618
G0 F12000 X-47.59 Y30.91
G1 F900 X-56.283 Y30.91 E977.96189
G0 F12000 X-56.283 Y30.348
G1 F900 X-48.153 Y30.348 E978.56578
G0 F12000 X-48.716 Y29.786
G1 F900 X-56.283 Y29.786 E979.12786
G0 F12000 X-56.283 Y29.224
G1 F900 X-49.279 Y29.224 E979.64811
G0 F12000 X-49.842 Y28.662
G1 F900 X-56.283 Y28.662 E980.12655
G0 F12000 X-56.283 Y28.1
G1 F900 X-49.764 Y28.1 E980.61078
G0 F12000 X-49.614 Y27.538
G1 F900 X-56.283 Y27.538 E981.10615
G0 F12000 X-56.283 Y26.976
G1 F900 X-49.464 Y26.976 E981.61266
G0 F12000 X-49.314 Y26.414
G1 F900 X-56.283 Y26.414 E982.13031
G0 F12000 X-56.283 Y25.852
G1 F900 X-49.163 Y25.852 E982.65918
G0 F12000 X-49.013 Y25.29
G1 F900 X-56.283 Y25.29 E983.1992
G0 F12000 X-56.283 Y24.728
G1 F900 X-48.863 Y24.728 E983.75035
G0 F12000 X-48.713 Y24.166
G1 F900 X-56.283 Y24.166 E984.31265
G0 F12000 X-56.283 Y23.604
G1 F900 X-47.083 Y23.604 E984.99602
G0 F12000 X-46.964 Y23.042
G1 F900 X-56.283 Y23.042 E985.68823
G0 F12000 X-56.283 Y22.48
G1 F900 X-47.232 Y22.48 E986.36054
G0 F12000 X-47.501 Y21.918
G1 F900 X-56.283 Y21.918 E987.01286
G0 F12000 X-56.283 Y21.356
G1 F900 X-47.769 Y21.356 E987.64528
G0 F12000 X-48.037 Y20.794
G1 F900 X-56.283 Y20.794 E988.25779
G0 F12000 X-56.283 Y20.232
G1 F900 X-48.305 Y20.232 E988.85039
G0 F12000 X-48.47 Y19.67
G1 F900 X-56.283 Y19.67 E989.43074
G0 F12000 X-56.283 Y19.108
G1 F900 X-48.575 Y19.108 E990.00329
G0 F12000 X-48.679 Y18.546
G1 F900 X-56.283 Y18.546 E990.56811
G0 F12000 X-56.283 Y17.984
G1 F900 X-48.783 Y17.984 E991.12521
G0 F12000 X-48.888 Y17.422
G1 F900 X-56.283 Y17.422 E991.67451
G0 F12000 X-56.283 Y16.86
G1 F900 X-48.992 Y16.86 E992.21608
G0 F12000 X-49.096 Y16.298
G1 F900 X-56.283 Y16.298 E992.74993
G0 F12000 X-56.283 Y15.736
G1 F900 X-49.17 Y15.736 E993.27828
G0 F12000 X-49.126 Y15.174
G1 F900 X-56.283 Y15.174 E993.8099
G0 F12000 X-56.283 Y14.612
G1 F900 X-49.082 Y14.612 E994.34479
G0 F12000 X-49.038 Y14.05
G1 F900 X-56.283 Y14.05 E994.88294
G0 F12000 X-56.283 Y13.488
G1 F900 X-48.993 Y13.488 E995.42444
G0 F12000 X-48.949 Y12.926
G1 F900 X-56.283 Y12.926 E995.96921
G0 F12000 X-56.283 Y12.364
G1 F900 X-48.905 Y12.364 E996.51724
G0 F12000 X-48.861 Y11.802
G1 F900 X-56.283 Y11.802 E997.06855
G0 F12000 X-56.283 Y11.24
G1 F900 X-48.711 Y11.24 E997.63099
G0 F12000 X-48.512 Y10.678
G1 F900 X-56.283 Y10.678 E998.20822
G0 F12000 X-56.283 Y10.116
G1 F900 X-48.313 Y10.116 E998.80023
G0 F12000 X-48.114 Y9.554
G1 F900 X-56.283 Y9.554 E999.40702
G0 F12000 X-56.283 Y8.992
G1 F900 X-47.916 Y8.992 E1000.02852
G0 F12000 X-47.717 Y8.43
G1 F900 X-56.283 Y8.43 E1000.66479
G0 F12000 X-56.283 Y7.868
G1 F900 X-47.518 Y7.868 E1001.31586
G0 F12000 X-47.213 Y7.306
G1 F900 X-56.283 Y7.306 E1001.98957
G0 F12000 X-56.283 Y32.596
G0 X-56.283 Y32.596
G1 F900 X56.283 Y32.595 E1010.35094
G0 F12000 X56.283 Y33.158
G1 F900 X-56.283 Y33.158 E1018.7123
G0 F12000 X-56.283 Y33.72
G1 F900 X56.283 Y33.72 E1027.07366
G0 F12000 X56.283 Y34.282
G1 F900 X-56.283 Y34.282 E1035.43502
G0 F12000 X-56.283 Y34.844
G1 F900 X56.283 Y34.844 E1043.79639
G0 F12000 X56.283 Y35.406
G1 F900 X-56.283 Y35.406 E1052.15775
G0 F12000 X-56.283 Y35.968
G1 F900 X56.283 Y35.968 E1060.51911
G0 F12000 X18.173 Y-14.612
G0 X18.173 Y-14.612
G1 F900 X-19.052 Y-14.611 E1063.28417
G0 F12000 X-19.691 Y-15.173
G1 F900 X16.965 Y-15.174 E1066.00697
G0 F12000 X16.22 Y-15.736
G1 F900 X-20.541 Y-15.735 E1068.73756
G0 F12000 X-22.649 Y-16.297
G0 X-22.649 Y-16.297
G1 F900 X15.684 Y-16.298 E1071.58492
G0 F12000 X14.297 Y-20.232
G0 X14.297 Y-20.232
G1 F900 X-20.636 Y-20.232 E1074.17974
G0 F12000 X-19.732 Y-20.794
G1 F900 X14.371 Y-20.794 E1076.71289
G0 F12000 X14.445 Y-21.356
G1 F900 X-19.057 Y-21.356 E1079.20141
G0 F12000 X-18.643 Y-21.918
G1 F900 X14.642 Y-21.918 E1081.67381
G0 F12000 X14.874 Y-22.48
G1 F900 X-18.252 Y-22.48 E1084.1344
G0 F12000 X-18.031 Y-23.042
G1 F900 X15.169 Y-23.042 E1086.60048
G0 F12000 X15.6 Y-23.604
G1 F900 X-17.811 Y-23.604 E1089.08224
G0 F12000 X-17.716 Y-24.166
G1 F900 X16.092 Y-24.166 E1091.59349
G0 F12000 X16.825 Y-24.728
G1 F900 X-17.652 Y-24.728 E1094.15442
G0 F12000 X-17.639 Y-25.29
G1 F900 X17.93 Y-25.29 E1096.79648
G1 F6000 E1094.99648
G1 Z0.8
G0 F12000 X-17.616 Y26.438
G0 X-17.073 Y28.223
G0 X-19.555 Y30.829
G0 X-20.488 Y30.617
G0 X-21.075 Y31.472
G0 X-21.075 Y31.472
G1 Z0.3
G1 F6000 E1096.79648
G1 F900 X-44.773 Y31.472 E1098.55676
G0 F12000 X-42.68 Y30.91
G0 X-42.68 Y30.91
G1 F900 X-36.145 Y30.91 E1099.04217
G0 F12000 X-37.873 Y30.348
G0 X-37.873 Y30.348
G1 F900 X-41.88 Y30.348 E1099.33981
G0 F12000 X-41.729 Y29.786
G1 F900 X-39.462 Y29.786 E1099.5082
G0 F12000 X-40.698 Y29.224
G1 F900 X-41.579 Y29.224 E1099.57364
G0 F12000 X-30.38 Y30.91
G0 X-30.38 Y30.91
G1 F900 X-23.402 Y30.91 E1100.09197
G0 F12000 X-23.968 Y30.348
G1 F900 X-27.7 Y30.348 E1100.36918
G0 F12000 X-26.523 Y29.786
G1 F900 X-24.133 Y29.786 E1100.54671
G0 F12000 X-24.3 Y29.224
G1 F900 X-25.346 Y29.224 E1100.6244
G1 F6000 E1098.8244
G1 Z0.8
G0 F12000 X-43.771 Y27
; TYPE:SUPPORT
G1 Z0.3
G1 F6000 E1100.6244
G1 F900 X-44.475 Y27.225 E1100.66866
G1 X-43.951 Y27.675 E1100.70097
G1 X-44.599 Y27.9 E1100.74177
G0 F12000 X-44.132 Y28.35
G1 F900 X-46.343 Y28.35 E1100.87327
G0 F12000 X-46.063 Y27.9
G1 F900 X-46.799 Y27.675 E1100.91671
G1 X-46.193 Y27.225 E1100.95063
G1 X-46.624 Y26.775 E1100.98217
G1 X-45.668 Y26.55 E1101.04058
G0 F12000 X-46 Y26.1
G1 F900 X-44.619 Y26.1 E1101.12272
G0 F12000 X-44.987 Y26.55
G1 F900 X-44.167 Y26.55 E1101.17149
G0 F12000 X-45.199 Y28.8
G1 F900 X-45.893 Y28.8 E1101.21277
G1 F6000 E1099.41277
G1 Z0.8
G0 F12000 X-22.149 Y27
G1 Z0.3
G1 F6000 E1101.21277
G1 F900 X-21.439 Y27.225 E1101.25716
G1 X-21.949 Y27.675 E1101.28917
G1 X-21.306 Y27.9 E1101.32968
G0 F12000 X-21.751 Y28.35
G1 F900 X-19.554 Y28.35 E1101.46035
G0 F12000 X-19.844 Y27.9
G1 F900 X-19.104 Y27.675 E1101.50298
G1 X-19.724 Y27.225 E1101.53852
G1 X-19.282 Y26.775 E1101.57129
G1 X-20.202 Y26.55 E1101.62762
G0 F12000 X-19.873 Y26.1
G1 F900 X-21.299 Y26.1 E1101.71243
G0 F12000 X-21.726 Y26.55
G1 F900 X-20.829 Y26.55 E1101.76578
G0 F12000 X-20.673 Y28.8
G1 F900 X-19.982 Y28.8 E1101.80688
G1 F6000 E1100.00688
G1 Z0.8
G0 F12000 X-20.235 Y4.05
G1 Z0.3
G1 F6000 E1101.80688
G1 F900 X-20.907 Y4.05 E1101.84685
G0 F12000 X-21.687 Y3.6
G1 F900 X-19.456 Y3.6 E1101.97954
G0 F12000 X-19.165 Y3.15
G1 F900 X-19.761 Y2.925 E1102.02004
G1 X-19.165 Y2.475 E1102.05044
G1 X-19.754 Y2.25 E1102.08794
G0 F12000 X-20.218 Y1.8
G1 F900 X-19.179 Y1.8 E1102.14974
G0 F12000 X-19.959 Y1.35
G1 F900 X-21.183 Y1.35 E1102.22254
G0 F12000 X-20.859 Y1.8
G1 F900 X-21.962 Y1.8 E1102.28814
G0 F12000 X-21.978 Y2.25
G1 F900 X-21.427 Y2.475 E1102.32307
G1 X-21.978 Y2.925 E1102.35353
G1 X-21.29 Y3.15 E1102.39659
G1 F6000 E1100.59659
G1 Z0.8
G0 F12000 X-43.922 Y3.15
G1 Z0.3
G1 F6000 E1102.39659
G1 F900 X-44.519 Y2.925 E1102.43715
G1 X-43.922 Y2.475 E1102.46768
G1 X-44.512 Y2.25 E1102.50523
G0 F12000 X-44.974 Y1.8
G1 F900 X-43.938 Y1.8 E1102.56685
G0 F12000 X-44.717 Y1.35
G1 F900 X-45.941 Y1.35 E1102.63965
G0 F12000 X-45.614 Y1.8
G1 F900 X-46.721 Y1.8 E1102.70549
G0 F12000 X-46.735 Y2.25
G1 F900 X-46.183 Y2.475 E1102.74063
G1 X-46.735 Y2.925 E1102.77103
G1 X-46.047 Y3.15 E1102.81409
G0 F12000 X-46.444 Y3.6
G1 F900 X-44.213 Y3.6 E1102.94678
G0 F12000 X-44.993 Y4.05
G1 F900 X-45.665 Y4.05 E1102.98675
G1 F6000 E1101.18675
G1 Z0.8
G0 F12000 X-58.975 Y4.05
G1 Z0.3
G1 F6000 E1102.98675
G1 F900 X-60.574 Y4.05 E1103.08185
G0 F12000 X-60.574 Y3.6
G1 F900 X-58.975 Y3.6 E1103.17695
G0 F12000 X-58.975 Y3.15
G1 F900 X-60.574 Y3.15 E1103.27206
G0 F12000 X-60.574 Y2.7
G1 F900 X-58.975 Y2.7 E1103.36716
G0 F12000 X-58.975 Y2.25
G1 F900 X-60.574 Y2.25 E1103.46226
G0 F12000 X-60.574 Y1.8
G1 F900 X-58.975 Y1.8 E1103.55737
G0 F12000 X-58.975 Y1.35
G1 F900 X-60.574 Y1.35 E1103.65247
G0 F12000 X-60.574 Y0.9
G1 F900 X-58.975 Y0.9 E1103.74757
G0 F12000 X-58.975 Y0.45
G1 F900 X-60.574 Y0.45 E1103.84268
G0 F12000 X-60.574 Y0
G1 F900 X-58.975 Y0 E1103.93778
G0 F12000 X-58.975 Y-0.449
G1 F900 X-60.574 Y-0.449 E1104.03288
G0 F12000 X-60.574 Y-0.899
G1 F900 X-58.975 Y-0.899 E1104.12798
G0 F12000 X-58.975 Y-1.349
G1 F900 X-60.574 Y-1.349 E1104.22309
G0 F12000 X-60.574 Y-1.799
G1 F900 X-58.975 Y-1.799 E1104.31819
G0 F12000 X-58.975 Y-2.249
G1 F900 X-60.574 Y-2.249 E1104.41329
G0 F12000 X-60.574 Y-2.699
G1 F900 X-58.975 Y-2.699 E1104.5084
G0 F12000 X-58.975 Y-3.149
G1 F900 X-60.574 Y-3.149 E1104.6035
G0 F12000 X-60.574 Y-3.599
G1 F900 X-58.975 Y-3.599 E1104.6986
G0 F12000 X-58.975 Y-4.049
G1 F900 X-60.574 Y-4.049 E1104.79371
G0 F12000 X-60.574 Y-4.499
G1 F900 X-58.975 Y-4.499 E1104.88881
G0 F12000 X-58.975 Y-4.949
G1 F900 X-60.574 Y-4.949 E1104.98391
G0 F12000 X-60.574 Y-5.399
G1 F900 X-58.975 Y-5.399 E1105.07901
G0 F12000 X-58.975 Y-5.849
G1 F900 X-60.574 Y-5.849 E1105.17412
G0 F12000 X-60.574 Y-6.299
G1 F900 X-58.975 Y-6.299 E1105.26922
G0 F12000 X-58.975 Y-6.749
G1 F900 X-60.574 Y-6.749 E1105.36432
G0 F12000 X-60.574 Y-7.199
G1 F900 X-58.975 Y-7.199 E1105.45943
G0 F12000 X-58.975 Y-7.649
G1 F900 X-60.574 Y-7.649 E1105.55453
G0 F12000 X-60.574 Y-8.099
G1 F900 X-58.975 Y-8.099 E1105.64963
G0 F12000 X-58.975 Y-8.549
G1 F900 X-60.574 Y-8.549 E1105.74474
G0 F12000 X-60.574 Y-8.999
G1 F900 X-58.975 Y-8.999 E1105.83984
G0 F12000 X-58.975 Y-9.449
G1 F900 X-60.574 Y-9.449 E1105.93494
G0 F12000 X-60.574 Y-9.899
G1 F900 X-58.975 Y-9.899 E1106.03005
G0 F12000 X-58.975 Y-10.349
G1 F900 X-60.574 Y-10.349 E1106.12515
G0 F12000 X-60.574 Y-10.799
G1 F900 X-58.975 Y-10.799 E1106.22025
G0 F12000 X-58.975 Y-11.249
G1 F900 X-60.574 Y-11.249 E1106.31535
G0 F12000 X-60.574 Y-11.699
G1 F900 X-58.975 Y-11.699 E1106.41046
G0 F12000 X-58.975 Y-12.149
G1 F900 X-60.574 Y-12.149 E1106.50556
G0 F12000 X-60.574 Y-12.599
G1 F900 X-58.975 Y-12.599 E1106.60066
G0 F12000 X-58.975 Y-13.049
G1 F900 X-60.574 Y-13.049 E1106.69577
G0 F12000 X-60.574 Y-13.499
G1 F900 X-58.975 Y-13.499 E1106.79087
G0 F12000 X-58.975 Y-13.949
G1 F900 X-60.574 Y-13.949 E1106.88597
G0 F12000 X-60.574 Y-14.399
G1 F900 X-58.975 Y-14.399 E1106.98108
G0 F12000 X-58.975 Y-14.849
G1 F900 X-60.574 Y-14.849 E1107.07618
G0 F12000 X-60.574 Y-15.299
G1 F900 X-58.975 Y-15.299 E1107.17128
G0 F12000 X-58.975 Y-15.749
G1 F900 X-60.574 Y-15.749 E1107.26639
G0 F12000 X-60.574 Y-16.199
G1 F900 X-58.975 Y-16.199 E1107.36149
G0 F12000 X-58.975 Y-16.649
G1 F900 X-60.574 Y-16.649 E1107.45659
G0 F12000 X-60.574 Y-17.099
G1 F900 X-58.975 Y-17.099 E1107.55169
G0 F12000 X-58.975 Y-17.549
G1 F900 X-60.574 Y-17.549 E1107.6468
G0 F12000 X-60.574 Y-17.999
G1 F900 X-58.975 Y-17.999 E1107.7419
G0 F12000 X-58.975 Y-18.449
G1 F900 X-60.574 Y-18.449 E1107.837
G0 F12000 X-60.574 Y-18.899
G1 F900 X-58.975 Y-18.899 E1107.93211
G0 F12000 X-58.975 Y-19.349
G1 F900 X-60.574 Y-19.349 E1108.02721
G0 F12000 X-60.574 Y-19.799
G1 F900 X-58.975 Y-19.799 E1108.12231
G0 F12000 X-58.975 Y-20.249
G1 F900 X-60.574 Y-20.249 E1108.21742
G0 F12000 X-60.574 Y-20.699
G1 F900 X-58.975 Y-20.699 E1108.31252
G0 F12000 X-58.975 Y-21.149
G1 F900 X-60.574 Y-21.149 E1108.40762
G0 F12000 X-60.574 Y-21.599
G1 F900 X-58.975 Y-21.599 E1108.50273
G0 F12000 X-58.975 Y-22.049
G1 F900 X-60.574 Y-22.049 E1108.59783
G0 F12000 X-60.574 Y-22.499
G1 F900 X-58.975 Y-22.499 E1108.69293
G0 F12000 X-58.975 Y-22.949
G1 F900 X-60.574 Y-22.949 E1108.78803
G0 F12000 X-60.574 Y-23.399
G1 F900 X-58.975 Y-23.399 E1108.88314
G0 F12000 X-58.975 Y-23.849
G1 F900 X-60.574 Y-23.849 E1108.97824
G0 F12000 X-60.574 Y-24.299
G1 F900 X-58.975 Y-24.299 E1109.07334
G0 F12000 X-58.975 Y-24.749
G1 F900 X-60.574 Y-24.749 E1109.16845
G0 F12000 X-60.574 Y-25.199
G1 F900 X-58.975 Y-25.199 E1109.26355
G0 F12000 X-58.975 Y-25.649
G1 F900 X-60.574 Y-25.649 E1109.35865
G0 F12000 X-60.574 Y-26.099
G1 F900 X-58.975 Y-26.099 E1109.45376
G0 F12000 X-58.975 Y-26.549
G1 F900 X-60.574 Y-26.549 E1109.54886
G0 F12000 X-60.574 Y-26.999
G1 F900 X-58.975 Y-26.999 E1109.64396
G0 F12000 X-58.975 Y-27.449
G1 F900 X-60.574 Y-27.449 E1109.73907
G0 F12000 X-60.574 Y-27.899
G1 F900 X-58.975 Y-27.899 E1109.83417
G0 F12000 X-58.975 Y-28.349
G1 F900 X-60.574 Y-28.349 E1109.92927
G0 F12000 X-60.574 Y-28.799
G1 F900 X-58.975 Y-28.799 E1110.02437
G0 F12000 X-58.975 Y-29.249
G1 F900 X-60.574 Y-29.249 E1110.11948
G0 F12000 X-60.574 Y-29.699
G1 F900 X-58.975 Y-29.699 E1110.21458
G0 F12000 X-58.975 Y-30.149
G1 F900 X-60.574 Y-30.149 E1110.30968
G0 F12000 X-60.574 Y-30.599
G1 F900 X-58.975 Y-30.599 E1110.40479
G0 F12000 X-58.975 Y-31.049
G1 F900 X-60.574 Y-31.049 E1110.49989
G0 F12000 X-60.574 Y-31.499
G1 F900 X-58.975 Y-31.499 E1110.59499
G0 F12000 X-58.975 Y-31.949
G1 F900 X-60.574 Y-31.949 E1110.6901
G0 F12000 X-60.574 Y-32.399
G1 F900 X-58.975 Y-32.399 E1110.7852
G0 F12000 X-58.975 Y-32.85
G1 F900 X-60.574 Y-32.849 E1110.8803
G0 F12000 X-60.574 Y-33.299
G1 F900 X-58.975 Y-33.3 E1110.9754
G0 F12000 X-58.975 Y-33.75
G1 F900 X-60.574 Y-33.749 E1111.07051
G0 F12000 X-60.574 Y-34.199
G1 F900 X-58.975 Y-34.2 E1111.16561
G0 F12000 X-58.975 Y-34.65
G1 F900 X-60.574 Y-34.649 E1111.26071
G0 F12000 X-60.574 Y-35.099
G1 F900 X-58.975 Y-35.1 E1111.35582
G0 F12000 X-58.975 Y-35.55
G1 F900 X-60.574 Y-35.549 E1111.45092
G0 F12000 X-60.574 Y-35.999
G1 F900 X-58.975 Y-36 E1111.54602
G0 F12000 X-58.975 Y-36.45
G1 F900 X-60.574 Y-36.449 E1111.64113
G0 F12000 X-60.574 Y-36.899
G1 F900 X-58.975 Y-36.9 E1111.73623
G0 F12000 X-58.975 Y-37.35
G1 F900 X-60.574 Y-37.349 E1111.83133
G0 F12000 X-60.574 Y-37.799
G1 F900 X-58.975 Y-37.8 E1111.92644
G0 F12000 X-58.975 Y-38.25
G1 F900 X-60.574 Y-38.249 E1112.02154
G0 F12000 X-60.574 Y-38.699
G1 F900 X-58.975 Y-38.7 E1112.11664
G0 F12000 X-60.574 Y-39.149
G1 F900 X60.575 Y-39.15 E1119.32217
G0 F12000 X60.575 Y-38.7
G1 F900 X58.975 Y-38.7 E1119.41733
G0 F12000 X58.975 Y-38.25
G1 F900 X60.575 Y-38.25 E1119.5125
G0 F12000 X60.575 Y-37.8
G1 F900 X58.975 Y-37.8 E1119.60766
G0 F12000 X58.975 Y-37.35
G1 F900 X60.575 Y-37.35 E1119.70282
G0 F12000 X60.575 Y-36.9
G1 F900 X58.975 Y-36.9 E1119.79798
G0 F12000 X58.975 Y-36.45
G1 F900 X60.575 Y-36.45 E1119.89315
G0 F12000 X60.575 Y-36
G1 F900 X58.975 Y-36 E1119.98831
G0 F12000 X58.975 Y-35.55
G1 F900 X60.575 Y-35.55 E1120.08347
G0 F12000 X60.575 Y-35.1
G1 F900 X58.975 Y-35.1 E1120.17863
G0 F12000 X58.975 Y-34.65
G1 F900 X60.575 Y-34.65 E1120.2738
G0 F12000 X60.575 Y-34.2
G1 F900 X58.975 Y-34.2 E1120.36896
G0 F12000 X58.975 Y-33.75
G1 F900 X60.575 Y-33.75 E1120.46412
G0 F12000 X60.575 Y-33.3
G1 F900 X58.975 Y-33.3 E1120.55928
G0 F12000 X58.975 Y-32.85
G1 F900 X60.575 Y-32.85 E1120.65445
G0 F12000 X60.575 Y-32.4
G1 F900 X58.975 Y-32.4 E1120.74961
G0 F12000 X58.975 Y-31.95
G1 F900 X60.575 Y-31.95 E1120.84477
G0 F12000 X60.575 Y-31.5
G1 F900 X58.975 Y-31.5 E1120.93993
G0 F12000 X58.975 Y-31.05
G1 F900 X60.575 Y-31.05 E1121.0351
G0 F12000 X60.575 Y-30.6
G1 F900 X58.975 Y-30.6 E1121.13026
G0 F12000 X58.975 Y-30.15
G1 F900 X60.575 Y-30.15 E1121.22542
G0 F12000 X60.575 Y-29.7
G1 F900 X58.975 Y-29.7 E1121.32058
G0 F12000 X58.975 Y-29.25
G1 F900 X60.575 Y-29.25 E1121.41575
G0 F12000 X60.575 Y-28.8
G1 F900 X58.975 Y-28.8 E1121.51091
G0 F12000 X58.975 Y-28.35
G1 F900 X60.575 Y-28.35 E1121.60607
G0 F12000 X60.575 Y-27.9
G1 F900 X58.975 Y-27.9 E1121.70123
G0 F12000 X58.975 Y-27.45
G1 F900 X60.575 Y-27.45 E1121.7964
G0 F12000 X60.575 Y-27
G1 F900 X58.975 Y-27 E1121.89156
G0 F12000 X58.975 Y-26.55
G1 F900 X60.575 Y-26.55 E1121.98672
G0 F12000 X60.575 Y-26.1
G1 F900 X58.975 Y-26.1 E1122.08188
G0 F12000 X58.975 Y-25.65
G1 F900 X60.575 Y-25.65 E1122.17705
G0 F12000 X60.575 Y-25.2
G1 F900 X58.975 Y-25.2 E1122.27221
G0 F12000 X58.975 Y-24.75
G1 F900 X60.575 Y-24.75 E1122.36737
G0 F12000 X60.575 Y-24.3
G1 F900 X58.975 Y-24.3 E1122.46253
G0 F12000 X58.975 Y-23.85
G1 F900 X60.575 Y-23.85 E1122.5577
G0 F12000 X60.575 Y-23.4
G1 F900 X58.975 Y-23.4 E1122.65286
G0 F12000 X58.975 Y-22.95
G1 F900 X60.575 Y-22.95 E1122.74802
G0 F12000 X60.575 Y-22.5
G1 F900 X58.975 Y-22.5 E1122.84319
G0 F12000 X58.975 Y-22.05
G1 F900 X60.575 Y-22.05 E1122.93835
G0 F12000 X60.575 Y-21.6
G1 F900 X58.975 Y-21.6 E1123.03351
G0 F12000 X58.975 Y-21.15
G1 F900 X60.575 Y-21.15 E1123.12867
G0 F12000 X60.575 Y-20.7
G1 F900 X58.975 Y-20.7 E1123.22384
G0 F12000 X58.975 Y-20.25
G1 F900 X60.575 Y-20.25 E1123.319
G0 F12000 X60.575 Y-19.8
G1 F900 X58.975 Y-19.8 E1123.41416
G0 F12000 X58.975 Y-19.35
G1 F900 X60.575 Y-19.35 E1123.50932
G0 F12000 X60.575 Y-18.9
G1 F900 X58.975 Y-18.9 E1123.60449
G0 F12000 X58.975 Y-18.45
G1 F900 X60.575 Y-18.45 E1123.69965
G0 F12000 X60.575 Y-18
G1 F900 X58.975 Y-18 E1123.79481
G0 F12000 X58.975 Y-17.55
G1 F900 X60.575 Y-17.55 E1123.88997
G0 F12000 X60.575 Y-17.1
G1 F900 X58.975 Y-17.1 E1123.98514
G0 F12000 X58.975 Y-16.65
G1 F900 X60.575 Y-16.65 E1124.0803
G0 F12000 X60.575 Y-16.2
G1 F900 X58.975 Y-16.2 E1124.17546
G0 F12000 X58.975 Y-15.75
G1 F900 X60.575 Y-15.75 E1124.27062
G0 F12000 X60.575 Y-15.3
G1 F900 X58.975 Y-15.3 E1124.36579
G0 F12000 X58.975 Y-14.85
G1 F900 X60.575 Y-14.85 E1124.46095
G0 F12000 X60.575 Y-14.4
G1 F900 X58.975 Y-14.4 E1124.55611
G0 F12000 X58.975 Y-13.95
G1 F900 X60.575 Y-13.95 E1124.65127
G0 F12000 X60.575 Y-13.5
G1 F900 X58.975 Y-13.5 E1124.74644
G0 F12000 X58.975 Y-13.05
G1 F900 X60.575 Y-13.05 E1124.8416
G0 F12000 X60.575 Y-12.6
G1 F900 X58.975 Y-12.6 E1124.93676
G0 F12000 X58.975 Y-12.15
G1 F900 X60.575 Y-12.15 E1125.03192
G0 F12000 X60.575 Y-11.7
G1 F900 X58.975 Y-11.7 E1125.12709
G0 F12000 X58.975 Y-11.25
G1 F900 X60.575 Y-11.25 E1125.22225
G0 F12000 X60.575 Y-10.8
G1 F900 X58.975 Y-10.8 E1125.31741
G0 F12000 X58.975 Y-10.35
G1 F900 X60.575 Y-10.35 E1125.41257
G0 F12000 X60.575 Y-9.9
G1 F900 X58.975 Y-9.9 E1125.50774
G0 F12000 X58.975 Y-9.45
G1 F900 X60.575 Y-9.45 E1125.6029
G0 F12000 X60.575 Y-9
G1 F900 X58.975 Y-9 E1125.69806
G0 F12000 X58.975 Y-8.55
G1 F900 X60.575 Y-8.55 E1125.79322
G0 F12000 X60.575 Y-8.1
G1 F900 X58.975 Y-8.1 E1125.88839
G0 F12000 X58.975 Y-7.65
G1 F900 X60.575 Y-7.65 E1125.98355
G0 F12000 X60.575 Y-7.2
G1 F900 X58.975 Y-7.2 E1126.07871
G0 F12000 X58.975 Y-6.75
G1 F900 X60.575 Y-6.75 E1126.17387
G0 F12000 X60.575 Y-6.3
G1 F900 X58.975 Y-6.3 E1126.26904
G0 F12000 X58.975 Y-5.85
G1 F900 X60.575 Y-5.85 E1126.3642
G0 F12000 X60.575 Y-5.4
G1 F900 X58.975 Y-5.4 E1126.45936
G0 F12000 X58.975 Y-4.95
G1 F900 X60.575 Y-4.95 E1126.55452
G0 F12000 X60.575 Y-4.5
G1 F900 X58.975 Y-4.5 E1126.64969
G0 F12000 X58.975 Y-4.05
G1 F900 X60.575 Y-4.05 E1126.74485
G0 F12000 X60.575 Y-3.6
G1 F900 X58.975 Y-3.6 E1126.84001
G0 F12000 X58.975 Y-3.15
G1 F900 X60.575 Y-3.15 E1126.93517
G0 F12000 X60.575 Y-2.7
G1 F900 X58.975 Y-2.7 E1127.03034
G0 F12000 X58.975 Y-2.25
G1 F900 X60.575 Y-2.25 E1127.1255
G0 F12000 X60.575 Y-1.8
G1 F900 X58.975 Y-1.8 E1127.22066
G0 F12000 X58.975 Y-1.35
G1 F900 X60.575 Y-1.35 E1127.31582
G0 F12000 X60.575 Y-0.9
G1 F900 X58.975 Y-0.9 E1127.41099
G0 F12000 X58.975 Y-0.45
G1 F900 X60.575 Y-0.45 E1127.50615
G0 F12000 X60.575 Y0
G1 F900 X58.975 Y0 E1127.60131
G0 F12000 X58.975 Y0.449
G1 F900 X60.575 Y0.449 E1127.69647
G0 F12000 X60.575 Y0.899
G1 F900 X58.975 Y0.899 E1127.79164
G0 F12000 X58.975 Y1.349
G1 F900 X60.575 Y1.349 E1127.8868
G0 F12000 X60.575 Y1.799
G1 F900 X58.975 Y1.799 E1127.98196
G0 F12000 X58.975 Y2.249
G1 F900 X60.575 Y2.249 E1128.07712
G0 F12000 X60.575 Y2.699
G1 F900 X58.975 Y2.699 E1128.17229
G0 F12000 X58.975 Y3.149
G1 F900 X60.575 Y3.149 E1128.26745
G0 F12000 X60.575 Y3.599
G1 F900 X58.975 Y3.599 E1128.36261
G0 F12000 X58.975 Y4.049
G1 F900 X60.575 Y4.049 E1128.45777
G0 F12000 X60.575 Y4.499
G1 F900 X58.975 Y4.499 E1128.55294
G0 F12000 X58.975 Y4.949
G1 F900 X60.575 Y4.949 E1128.6481
G0 F12000 X60.575 Y5.399
G1 F900 X58.975 Y5.399 E1128.74326
G0 F12000 X58.975 Y5.849
G1 F900 X60.575 Y5.849 E1128.83843
G0 F12000 X60.575 Y6.299
G1 F900 X58.975 Y6.299 E1128.93359
G0 F12000 X58.975 Y6.749
G1 F900 X60.575 Y6.749 E1129.02875
G0 F12000 X60.575 Y7.199
G1 F900 X58.975 Y7.199 E1129.12391
G0 F12000 X58.975 Y7.649
G1 F900 X60.575 Y7.649 E1129.21908
G0 F12000 X60.575 Y8.099
G1 F900 X58.975 Y8.099 E1129.31424
G0 F12000 X58.975 Y8.549
G1 F900 X60.575 Y8.549 E1129.4094
G0 F12000 X60.575 Y8.999
G1 F900 X58.975 Y8.999 E1129.50456
G0 F12000 X58.975 Y9.449
G1 F900 X60.575 Y9.449 E1129.59973
G0 F12000 X60.575 Y9.899
G1 F900 X58.975 Y9.899 E1129.69489
G0 F12000 X58.975 Y10.349
G1 F900 X60.575 Y10.349 E1129.79005
G0 F12000 X60.575 Y10.799
G1 F900 X58.975 Y10.799 E1129.88521
G0 F12000 X58.975 Y11.249
G1 F900 X60.575 Y11.249 E1129.98038
G0 F12000 X60.575 Y11.699
G1 F900 X58.975 Y11.699 E1130.07554
G0 F12000 X58.975 Y12.149
G1 F900 X60.575 Y12.149 E1130.1707
G0 F12000 X60.575 Y12.599
G1 F900 X58.975 Y12.599 E1130.26586
G0 F12000 X58.975 Y13.049
G1 F900 X60.575 Y13.049 E1130.36103
G0 F12000 X60.575 Y13.499
G1 F900 X58.975 Y13.499 E1130.45619
G0 F12000 X58.975 Y13.949
G1 F900 X60.575 Y13.949 E1130.55135
G0 F12000 X60.575 Y14.399
G1 F900 X58.975 Y14.399 E1130.64651
G0 F12000 X58.975 Y14.849
G1 F900 X60.575 Y14.849 E1130.74168
G0 F12000 X60.575 Y15.299
G1 F900 X58.975 Y15.299 E1130.83684
G0 F12000 X58.975 Y15.749
G1 F900 X60.575 Y15.749 E1130.932
G0 F12000 X60.575 Y16.199
G1 F900 X58.975 Y16.199 E1131.02716
G0 F12000 X58.975 Y16.649
G1 F900 X60.575 Y16.649 E1131.12233
G0 F12000 X60.575 Y17.099
G1 F900 X58.975 Y17.099 E1131.21749
G0 F12000 X58.975 Y17.549
G1 F900 X60.575 Y17.549 E1131.31265
G0 F12000 X60.575 Y17.999
G1 F900 X58.975 Y17.999 E1131.40781
G0 F12000 X58.975 Y18.449
G1 F900 X60.575 Y18.449 E1131.50298
G0 F12000 X60.575 Y18.899
G1 F900 X58.975 Y18.899 E1131.59814
G0 F12000 X58.975 Y19.349
G1 F900 X60.575 Y19.349 E1131.6933
G0 F12000 X60.575 Y19.799
G1 F900 X58.975 Y19.799 E1131.78846
G0 F12000 X58.975 Y20.249
G1 F900 X60.575 Y20.249 E1131.88363
G0 F12000 X60.575 Y20.699
G1 F900 X58.975 Y20.699 E1131.97879
G0 F12000 X58.975 Y21.149
G1 F900 X60.575 Y21.149 E1132.07395
G0 F12000 X60.575 Y21.599
G1 F900 X58.975 Y21.599 E1132.16911
G0 F12000 X58.975 Y22.049
G1 F900 X60.575 Y22.049 E1132.26428
G0 F12000 X60.575 Y22.499
G1 F900 X58.975 Y22.499 E1132.35944
G0 F12000 X58.975 Y22.949
G1 F900 X60.575 Y22.949 E1132.4546
G0 F12000 X60.575 Y23.399
G1 F900 X58.975 Y23.399 E1132.54976
G0 F12000 X58.975 Y23.849
G1 F900 X60.575 Y23.849 E1132.64493
G0 F12000 X60.575 Y24.299
G1 F900 X58.975 Y24.299 E1132.74009
G0 F12000 X58.975 Y24.749
G1 F900 X60.575 Y24.749 E1132.83525
G0 F12000 X60.575 Y25.199
G1 F900 X58.975 Y25.199 E1132.93041
G0 F12000 X58.975 Y25.649
G1 F900 X60.575 Y25.649 E1133.02558
G0 F12000 X60.575 Y26.099
G1 F900 X58.975 Y26.099 E1133.12074
G0 F12000 X58.975 Y26.549
G1 F900 X60.575 Y26.549 E1133.2159
G0 F12000 X60.575 Y26.999
G1 F900 X58.975 Y26.999 E1133.31106
G0 F12000 X58.975 Y27.449
G1 F900 X60.575 Y27.449 E1133.40623
G0 F12000 X60.575 Y27.899
G1 F900 X58.975 Y27.899 E1133.50139
G0 F12000 X58.975 Y28.349
G1 F900 X60.575 Y28.349 E1133.59655
G0 F12000 X60.575 Y28.799
G1 F900 X58.975 Y28.799 E1133.69171
G0 F12000 X58.975 Y29.249
G1 F900 X60.575 Y29.249 E1133.78688
G0 F12000 X60.575 Y29.699
G1 F900 X58.975 Y29.699 E1133.88204
G0 F12000 X58.975 Y30.149
G1 F900 X60.575 Y30.149 E1133.9772
G0 F12000 X60.575 Y30.599
G1 F900 X58.975 Y30.599 E1134.07236
G0 F12000 X58.975 Y31.049
G1 F900 X60.575 Y31.049 E1134.16753
G0 F12000 X60.575 Y31.499
G1 F900 X58.975 Y31.499 E1134.26269
G0 F12000 X58.975 Y31.949
G1 F900 X60.575 Y31.949 E1134.35785
G0 F12000 X60.575 Y32.399
G1 F900 X58.975 Y32.399 E1134.45301
G0 F12000 X58.975 Y32.85
G1 F900 X60.575 Y32.849 E1134.54818
G0 F12000 X60.575 Y33.299
G1 F900 X58.975 Y33.3 E1134.64334
G0 F12000 X58.975 Y33.75
G1 F900 X60.575 Y33.749 E1134.7385
G0 F12000 X60.575 Y34.199
G1 F900 X58.975 Y34.2 E1134.83367
G0 F12000 X58.975 Y34.65
G1 F900 X60.575 Y34.649 E1134.92883
G0 F12000 X60.575 Y35.099
G1 F900 X58.975 Y35.1 E1135.02399
G0 F12000 X58.975 Y35.55
G1 F900 X60.575 Y35.549 E1135.11915
G0 F12000 X60.575 Y35.999
G1 F900 X58.975 Y36 E1135.21432
G0 F12000 X58.975 Y36.45
G1 F900 X60.575 Y36.449 E1135.30948
G0 F12000 X60.575 Y36.899
G1 F900 X58.975 Y36.9 E1135.40464
G0 F12000 X58.975 Y37.35
G1 F900 X60.575 Y37.349 E1135.4998
G0 F12000 X60.575 Y37.799
G1 F900 X58.975 Y37.8 E1135.59497
G0 F12000 X58.975 Y38.25
G1 F900 X60.575 Y38.249 E1135.69013
G0 F12000 X60.575 Y38.699
G1 F900 X58.975 Y38.7 E1135.78529
G0 F12000 X60.575 Y39.149
G1 F900 X-60.574 Y39.15 E1142.99082
G0 F12000 X-60.574 Y38.7
G1 F900 X-58.975 Y38.7 E1143.08592
G0 F12000 X-58.975 Y38.25
G1 F900 X-60.574 Y38.25 E1143.18103
G0 F12000 X-60.574 Y37.8
G1 F900 X-58.975 Y37.8 E1143.27613
G0 F12000 X-58.975 Y37.35
G1 F900 X-60.574 Y37.35 E1143.37123
G0 F12000 X-60.574 Y36.9
G1 F900 X-58.975 Y36.9 E1143.46634
G0 F12000 X-58.975 Y36.45
G1 F900 X-60.574 Y36.45 E1143.56144
G0 F12000 X-60.574 Y36
G1 F900 X-58.975 Y36 E1143.65654
G0 F12000 X-58.975 Y35.55
G1 F900 X-60.574 Y35.55 E1143.75164
G0 F12000 X-60.574 Y35.1
G1 F900 X-58.975 Y35.1 E1143.84675
G0 F12000 X-58.975 Y34.65
G1 F900 X-60.574 Y34.65 E1143.94185
G0 F12000 X-60.574 Y34.2
G1 F900 X-58.975 Y34.2 E1144.03695
G0 F12000 X-58.975 Y33.75
G1 F900 X-60.574 Y33.75 E1144.13206
G0 F12000 X-60.574 Y33.3
G1 F900 X-58.975 Y33.3 E1144.22716
G0 F12000 X-58.975 Y32.85
G1 F900 X-60.574 Y32.85 E1144.32226
G0 F12000 X-60.574 Y32.4
G1 F900 X-58.975 Y32.4 E1144.41737
G0 F12000 X-58.975 Y31.95
G1 F900 X-60.574 Y31.95 E1144.51247
G0 F12000 X-60.574 Y31.5
G1 F900 X-58.975 Y31.5 E1144.60757
G0 F12000 X-58.975 Y31.05
G1 F900 X-60.574 Y31.05 E1144.70268
G0 F12000 X-60.574 Y30.6
G1 F900 X-58.975 Y30.6 E1144.79778
G0 F12000 X-58.975 Y30.15
G1 F900 X-60.574 Y30.15 E1144.89288
G0 F12000 X-60.574 Y29.7
G1 F900 X-58.975 Y29.7 E1144.98798
G0 F12000 X-58.975 Y29.25
G1 F900 X-60.574 Y29.25 E1145.08309
G0 F12000 X-60.574 Y28.8
G1 F900 X-58.975 Y28.8 E1145.17819
G0 F12000 X-58.975 Y28.35
G1 F900 X-60.574 Y28.35 E1145.27329
G0 F12000 X-60.574 Y27.9
G1 F900 X-58.975 Y27.9 E1145.3684
G0 F12000 X-58.975 Y27.45
G1 F900 X-60.574 Y27.45 E1145.4635
G0 F12000 X-60.574 Y27
G1 F900 X-58.975 Y27 E1145.5586
G0 F12000 X-58.975 Y26.55
G1 F900 X-60.574 Y26.55 E1145.65371
G0 F12000 X-60.574 Y26.1
G1 F900 X-58.975 Y26.1 E1145.74881
G0 F12000 X-58.975 Y25.65
G1 F900 X-60.574 Y25.65 E1145.84391
G0 F12000 X-60.574 Y25.2
G1 F900 X-58.975 Y25.2 E1145.93901
G0 F12000 X-58.975 Y24.75
G1 F900 X-60.574 Y24.75 E1146.03412
G0 F12000 X-60.574 Y24.3
G1 F900 X-58.975 Y24.3 E1146.12922
G0 F12000 X-58.975 Y23.85
G1 F900 X-60.574 Y23.85 E1146.22432
G0 F12000 X-60.574 Y23.4
G1 F900 X-58.975 Y23.4 E1146.31943
G0 F12000 X-58.975 Y22.95
G1 F900 X-60.574 Y22.95 E1146.41453
G0 F12000 X-60.574 Y22.5
G1 F900 X-58.975 Y22.5 E1146.50963
G0 F12000 X-58.975 Y22.05
G1 F900 X-60.574 Y22.05 E1146.60474
G0 F12000 X-60.574 Y21.6
G1 F900 X-58.975 Y21.6 E1146.69984
G0 F12000 X-58.975 Y21.15
G1 F900 X-60.574 Y21.15 E1146.79494
G0 F12000 X-60.574 Y20.7
G1 F900 X-58.975 Y20.7 E1146.89005
G0 F12000 X-58.975 Y20.25
G1 F900 X-60.574 Y20.25 E1146.98515
G0 F12000 X-60.574 Y19.8
G1 F900 X-58.975 Y19.8 E1147.08025
G0 F12000 X-58.975 Y19.35
G1 F900 X-60.574 Y19.35 E1147.17535
G0 F12000 X-60.574 Y18.9
G1 F900 X-58.975 Y18.9 E1147.27046
G0 F12000 X-58.975 Y18.45
G1 F900 X-60.574 Y18.45 E1147.36556
G0 F12000 X-60.574 Y18
G1 F900 X-58.975 Y18 E1147.46066
G0 F12000 X-58.975 Y17.55
G1 F900 X-60.574 Y17.55 E1147.55577
G0 F12000 X-60.574 Y17.1
G1 F900 X-58.975 Y17.1 E1147.65087
G0 F12000 X-58.975 Y16.65
G1 F900 X-60.574 Y16.65 E1147.74597
G0 F12000 X-60.574 Y16.2
G1 F900 X-58.975 Y16.2 E1147.84108
G0 F12000 X-58.975 Y15.75
G1 F900 X-60.574 Y15.75 E1147.93618
G0 F12000 X-60.574 Y15.3
G1 F900 X-58.975 Y15.3 E1148.03128
G0 F12000 X-58.975 Y14.85
G1 F900 X-60.574 Y14.85 E1148.12639
G0 F12000 X-60.574 Y14.4
G1 F900 X-58.975 Y14.4 E1148.22149
G0 F12000 X-58.975 Y13.95
G1 F900 X-60.574 Y13.95 E1148.31659
G0 F12000 X-60.574 Y13.5
G1 F900 X-58.975 Y13.5 E1148.41169
G0 F12000 X-58.975 Y13.05
G1 F900 X-60.574 Y13.05 E1148.5068
G0 F12000 X-60.574 Y12.6
G1 F900 X-58.975 Y12.6 E1148.6019
G0 F12000 X-58.975 Y12.15
G1 F900 X-60.574 Y12.15 E1148.697
G0 F12000 X-60.574 Y11.7
G1 F900 X-58.975 Y11.7 E1148.79211
G0 F12000 X-58.975 Y11.25
G1 F900 X-60.574 Y11.25 E1148.88721
G0 F12000 X-60.574 Y10.8
G1 F900 X-58.975 Y10.8 E1148.98231
G0 F12000 X-58.975 Y10.35
G1 F900 X-60.574 Y10.35 E1149.07742
G0 F12000 X-60.574 Y9.9
G1 F900 X-58.975 Y9.9 E1149.17252
G0 F12000 X-58.975 Y9.45
G1 F900 X-60.574 Y9.45 E1149.26762
G0 F12000 X-60.574 Y9
G1 F900 X-58.975 Y9 E1149.36273
G0 F12000 X-58.975 Y8.55
G1 F900 X-60.574 Y8.55 E1149.45783
G0 F12000 X-60.574 Y8.1
G1 F900 X-58.975 Y8.1 E1149.55293
G0 F12000 X-58.975 Y7.65
G1 F900 X-60.574 Y7.65 E1149.64803
G0 F12000 X-60.574 Y7.2
G1 F900 X-58.975 Y7.2 E1149.74314
G0 F12000 X-58.975 Y6.75
G1 F900 X-60.574 Y6.75 E1149.83824
G0 F12000 X-60.574 Y6.3
G1 F900 X-58.975 Y6.3 E1149.93334
G0 F12000 X-58.975 Y5.85
G1 F900 X-60.574 Y5.85 E1150.02845
G0 F12000 X-60.574 Y5.4
G1 F900 X-58.975 Y5.4 E1150.12355
G0 F12000 X-58.975 Y4.95
G1 F900 X-60.574 Y4.95 E1150.21865
G0 F12000 X-60.574 Y4.5
G1 F900 X-58.975 Y4.5 E1150.31376
G0 F12000 X-60.574 Y39.6
G1 F900 X60.575 Y39.599 E1157.51928
G0 F12000 X60.575 Y40.049
G1 F900 X-60.574 Y40.05 E1164.72481
G0 F12000 X-60.574 Y40.5
G1 F900 X60.575 Y40.499 E1171.93034
G0 F12000 X60.575 Y-39.6
G1 F900 X-60.574 Y-39.599 E1179.13587
G0 F12000 X-60.574 Y-40.049
G1 F900 X60.575 Y-40.05 E1186.3414
G0 F12000 X60.575 Y-40.5
G1 F900 X-60.574 Y-40.499 E1193.54693
G1 F6000 E1191.74693
G1 Z0.8
G0 F12000 X-25.2 Y-12.71
; TYPE:SUPPORT-INTERFACE
G1 Z0.3
G1 F6000 E1193.54693
G1 F900 X-25.2 Y-9.285 E1193.75064
G0 F12000 X-24.75 Y-8.815
G1 F900 X-24.75 Y-13.18 E1194.01025
G0 F12000 X-24.3 Y-13.498
G1 F900 X-24.3 Y-12.162 E1194.08971
G0 F12000 X-23.85 Y-12.541
G1 F900 X-23.85 Y-13.689 E1194.15799
G0 F12000 X-23.4 Y-13.791
G1 F900 X-23.4 Y-12.725 E1194.2214
G0 F12000 X-22.95 Y-12.786
G1 F900 X-22.95 Y-13.848 E1194.28456
G0 F12000 X-22.5 Y-13.793
G1 F900 X-22.5 Y-12.729 E1194.34784
G0 F12000 X-22.05 Y-12.54
G1 F900 X-22.05 Y-13.686 E1194.416
G0 F12000 X-21.6 Y-13.502
G1 F900 X-21.6 Y-12.153 E1194.49624
G0 F12000 X-20.7 Y-12.713
G1 F900 X-20.7 Y-9.285 E1194.70012
G0 F12000 X-21.15 Y-8.815
G1 F900 X-21.15 Y-13.183 E1194.95992
G0 F12000 X-20.25 Y-11.875
G1 F900 X-20.25 Y-10.128 E1195.06382
G0 F12000 X-21.6 Y-9.835
G1 F900 X-21.6 Y-8.499 E1195.14328
G0 F12000 X-22.05 Y-8.308
G1 F900 X-22.05 Y-9.455 E1195.2115
G0 F12000 X-22.5 Y-9.271
G1 F900 X-22.5 Y-8.207 E1195.27478
G0 F12000 X-22.95 Y-8.149
G1 F900 X-22.95 Y-9.211 E1195.33795
G0 F12000 X-23.4 Y-9.268
G1 F900 X-23.4 Y-8.204 E1195.40123
G0 F12000 X-23.85 Y-8.311
G1 F900 X-23.85 Y-9.458 E1195.46945
G0 F12000 X-24.3 Y-9.845
G1 F900 X-24.3 Y-8.495 E1195.54975
G0 F12000 X-25.65 Y-10.121
G1 F900 X-25.65 Y-11.868 E1195.65365
G1 F6000 E1193.85365
G1 Z0.8
G0 F12000 X-40.5 Y-12.42
G1 Z0.3
G1 F6000 E1195.65365
G1 F900 X-40.5 Y-9.578 E1195.82268
G0 F12000 X-40.95 Y-8.99
G1 F900 X-40.95 Y-13.006 E1196.06154
G0 F12000 X-41.4 Y-13.385
G1 F900 X-41.4 Y-11.874 E1196.15141
G0 F12000 X-41.85 Y-12.392
G1 F900 X-41.85 Y-13.61 E1196.22385
G0 F12000 X-42.3 Y-13.751
G1 F900 X-42.3 Y-12.655 E1196.28904
G0 F12000 X-42.75 Y-12.77
G1 F900 X-42.75 Y-13.842 E1196.3528
G0 F12000 X-43.2 Y-13.816
G1 F900 X-43.2 Y-12.76 E1196.41561
G0 F12000 X-43.65 Y-12.634
G1 F900 X-43.65 Y-13.746 E1196.48174
G0 F12000 X-44.1 Y-13.596
G1 F900 X-44.1 Y-12.371 E1196.5546
G0 F12000 X-44.55 Y-11.775
G1 F900 X-44.55 Y-13.331 E1196.64715
G0 F12000 X-45 Y-12.948
G1 F900 X-45 Y-9.035 E1196.87988
G0 F12000 X-44.55 Y-8.637
G1 F900 X-44.55 Y-10.196 E1196.9726
G0 F12000 X-44.1 Y-9.648
G1 F900 X-44.1 Y-8.412 E1197.04612
G0 F12000 X-43.65 Y-8.256
G1 F900 X-43.65 Y-9.367 E1197.1122
G0 F12000 X-43.2 Y-9.237
G1 F900 X-43.2 Y-8.165 E1197.17595
G0 F12000 X-42.75 Y-8.178
G1 F900 X-42.75 Y-9.233 E1197.2387
G0 F12000 X-42.3 Y-9.345
G1 F900 X-42.3 Y-8.234 E1197.30478
G0 F12000 X-41.85 Y-8.385
G1 F900 X-41.85 Y-9.593 E1197.37663
G0 F12000 X-41.4 Y-10.124
G1 F900 X-41.4 Y-8.633 E1197.46531
G0 F12000 X-45.45 Y-9.653
G1 F900 X-45.45 Y-12.32 E1197.62393
G1 F6000 E1195.82393
G1 Z0.8
G0 F12000 X-25.2 Y-23.286
G1 Z0.3
G1 F6000 E1197.62393
G1 F900 X-25.2 Y-26.709 E1197.82752
G0 F12000 X-24.75 Y-27.178
G1 F900 X-24.75 Y-22.813 E1198.08714
G0 F12000 X-24.3 Y-22.491
G1 F900 X-24.3 Y-23.848 E1198.16785
G0 F12000 X-23.85 Y-23.459
G1 F900 X-23.85 Y-22.314 E1198.23595
G0 F12000 X-23.4 Y-22.204
G1 F900 X-23.4 Y-23.271 E1198.29941
G0 F12000 X-22.95 Y-23.214
G1 F900 X-22.95 Y-22.154 E1198.36245
G0 F12000 X-22.5 Y-22.206
G1 F900 X-22.5 Y-23.272 E1198.42585
G0 F12000 X-22.05 Y-23.455
G1 F900 X-22.05 Y-22.306 E1198.49419
G0 F12000 X-21.6 Y-22.502
G1 F900 X-21.6 Y-23.834 E1198.57342
G0 F12000 X-20.7 Y-23.282
G1 F900 X-20.7 Y-26.714 E1198.77754
G0 F12000 X-21.15 Y-27.186
G1 F900 X-21.15 Y-22.815 E1199.03751
G0 F12000 X-20.25 Y-24.131
G1 F900 X-20.25 Y-25.881 E1199.1416
G0 F12000 X-21.6 Y-26.152
G1 F900 X-21.6 Y-27.507 E1199.22219
G0 F12000 X-22.05 Y-27.684
G1 F900 X-22.05 Y-26.539 E1199.29029
G0 F12000 X-22.5 Y-26.726
G1 F900 X-22.5 Y-27.793 E1199.35375
G0 F12000 X-22.95 Y-27.844
G1 F900 X-22.95 Y-26.783 E1199.41685
G0 F12000 X-23.4 Y-26.723
G1 F900 X-23.4 Y-27.79 E1199.48031
G0 F12000 X-23.85 Y-27.69
G1 F900 X-23.85 Y-26.54 E1199.54871
G0 F12000 X-24.3 Y-26.161
G1 F900 X-24.3 Y-27.495 E1199.62805
G0 F12000 X-25.65 Y-25.86
G1 F900 X-25.65 Y-24.118 E1199.73166
G1 F6000 E1197.93166
G1 Z0.8
G0 F12000 X-40.5 Y-23.549
G1 Z0.3
G1 F6000 E1199.73166
G1 F900 X-40.5 Y-26.437 E1199.90343
G0 F12000 X-40.95 Y-27.017
G1 F900 X-40.95 Y-22.977 E1200.14372
G0 F12000 X-41.4 Y-22.628
G1 F900 X-41.4 Y-24.111 E1200.23192
G0 F12000 X-41.85 Y-23.599
G1 F900 X-41.85 Y-22.39 E1200.30383
G0 F12000 X-42.3 Y-22.224
G1 F900 X-42.3 Y-23.347 E1200.37062
G0 F12000 X-42.75 Y-23.235
G1 F900 X-42.75 Y-22.177 E1200.43355
G0 F12000 X-43.2 Y-22.174
G1 F900 X-43.2 Y-23.242 E1200.49707
G0 F12000 X-43.65 Y-23.368
G1 F900 X-43.65 Y-22.246 E1200.5638
G0 F12000 X-44.1 Y-22.415
G1 F900 X-44.1 Y-23.646 E1200.63702
G0 F12000 X-44.55 Y-24.206
G1 F900 X-44.55 Y-22.655 E1200.72926
G0 F12000 X-45 Y-23.021
G1 F900 X-45 Y-26.96 E1200.96354
G0 F12000 X-44.55 Y-27.333
G1 F900 X-44.55 Y-25.766 E1201.05674
G0 F12000 X-44.1 Y-26.361
G1 F900 X-44.1 Y-27.588 E1201.12972
G0 F12000 X-43.65 Y-27.758
G1 F900 X-43.65 Y-26.629 E1201.19687
G0 F12000 X-43.2 Y-26.756
G1 F900 X-43.2 Y-27.815 E1201.25985
G0 F12000 X-42.75 Y-27.831
G1 F900 X-42.75 Y-26.763 E1201.32338
G0 F12000 X-42.3 Y-26.651
G1 F900 X-42.3 Y-27.759 E1201.38928
G0 F12000 X-41.85 Y-27.605
G1 F900 X-41.85 Y-26.389 E1201.4616
G0 F12000 X-41.4 Y-25.884
G1 F900 X-41.4 Y-27.382 E1201.5507
G0 F12000 X-45.45 Y-26.335
G1 F900 X-45.45 Y-23.627 E1201.71176
G0 F12000 X-45.45 Y-23.627 Z0.55
; Layer Change GCode
; LAYER:1
G1 F6000 E1199.91176
G1 Z1.05
G0 F12000 X-46.502 Y-22.868 Z1
G0 X-57.513 Y37.309
G0 X-57.585 Y37.703
G0 X-57.54 Y37.45
G0 X-57.54 Y37.45
G0 X-57.775 Y37.775
G0 X-57.775 Y37.775
G0 X-56.875 Y36.875
; TYPE:WALL-INNER
G1 Z0.5
G1 F6000 E1201.71176
G1 F2400 X-56.875 Y36.875 E1201.71176
G1 X-56.875 Y-36.875 E1204.63602
G1 X56.875 Y-36.875 E1209.14633
G1 X56.875 Y36.875 E1212.0706
G1 X-56.875 Y36.875 E1216.5809
G0 F12000 X-57.325 Y37.325
G1 F2400 X-57.325 Y37.325 E1216.5809
G1 X-57.325 Y-37.325 E1219.54086
G1 X57.325 Y-37.325 E1224.08685
G1 X57.325 Y37.325 E1227.0468
G1 X-57.325 Y37.325 E1231.5928
G0 F12000 X-57.775 Y37.775
; TYPE:WALL-OUTER
G1 F1800 X-57.775 Y37.775 E1231.5928
G1 X-57.775 Y-37.775 E1234.58843
G1 X57.775 Y-37.775 E1239.17011
G1 X57.775 Y37.775 E1242.16575
G1 X-57.775 Y37.775 E1246.74743
G1 F6000 E1244.94743
G1 Z1
G0 F12000 X-57.54 Y37.45
G0 X-49.238 Y28.429
G0 X-49.238 Y28.429
; TYPE:WALL-INNER
G0 X-49.238 Y28.429
G1 Z0.5
G1 F6000 E1246.74743
G1 F2400 X-46.373 Y31.29 E1246.90797
G1 X-42.463 Y30.239 E1247.06851
G1 X-41.799 Y27.751 E1247.17062
G1 X-40.054 Y28.95 E1247.25457
G1 X-36.201 Y30.313 E1247.41662
G1 X-32.126 Y30.633 E1247.57869
G1 X-28.108 Y29.887 E1247.74074
G1 X-24.421 Y28.126 E1247.90275
G0 F12000 X-24.23 Y28.069
G1 F2400 X-24.09 Y27.843 E1247.91329
G0 F12000 X-24.04 Y28.012
G1 F2400 X-23.363 Y30.311 E1248.00832
G1 X-19.427 Y31.262 E1248.16887
G1 X-16.635 Y28.329 E1248.32944
G1 X-17.779 Y24.445 E1248.48998
G1 X-20.206 Y23.859 E1248.58898
G1 X-19 Y22.103 E1248.67345
G1 X-17.636 Y18.251 E1248.83548
G1 X-17.317 Y14.176 E1248.99755
G1 X-18.063 Y10.158 E1249.15959
G1 X-19.822 Y6.47 E1249.32161
G0 F12000 X-19.872 Y6.383
G1 F2400 X-19.955 Y6.314 E1249.32589
G0 F12000 X-19.923 Y6.296
G1 F2400 X-17.065 Y4.645 E1249.45676
G1 X-17.065 Y0.596 E1249.61731
G1 X-20.571 Y-1.427 E1249.7778
G1 X-23.038 Y-0.004 E1249.89073
G1 X-42.862 Y-0.004 E1250.67677
G1 X-45.329 Y-1.427 E1250.7897
G1 X-48.835 Y0.596 E1250.9502
G1 X-48.835 Y4.645 E1251.11074
G1 X-45.851 Y6.368 E1251.24737
G1 X-46.9 Y7.896 E1251.32086
G1 X-48.263 Y11.748 E1251.48288
G1 X-48.583 Y15.823 E1251.64495
G1 X-47.837 Y19.841 E1251.80699
G1 X-46.076 Y23.529 E1251.96904
G0 F12000 X-46.023 Y23.723
G1 F2400 X-45.785 Y23.869 E1251.98011
G0 F12000 X-45.97 Y23.918
G1 F2400 X-48.194 Y24.517 E1252.07144
G1 X-49.238 Y28.429 E1252.23198
G0 F12000 X-48.737 Y28.294
G0 X-48.737 Y28.294
G1 F2400 X-46.239 Y30.788 E1252.37195
G1 X-42.83 Y29.872 E1252.51191
G1 X-42.069 Y27.019 E1252.62899
G1 X-39.848 Y28.546 E1252.73586
G1 X-36.106 Y29.869 E1252.89324
G1 X-32.15 Y30.18 E1253.05058
G1 X-28.248 Y29.455 E1253.20795
G1 X-24.668 Y27.746 E1253.36524
G1 X-23.854 Y27.051 E1253.40768
G1 X-23.004 Y29.935 E1253.5269
G1 X-19.574 Y30.764 E1253.66682
G1 X-17.14 Y28.207 E1253.8068
G1 X-18.138 Y24.821 E1253.94676
G1 X-20.946 Y24.142 E1254.06131
G1 X-19.404 Y21.897 E1254.16931
G1 X-18.08 Y18.156 E1254.32666
G1 X-17.77 Y14.2 E1254.484
G1 X-18.495 Y10.298 E1254.64136
G1 X-20.203 Y6.717 E1254.79868
G1 X-20.638 Y6.208 E1254.82523
G0 F12000 X-20.604 Y6.179
G1 F2400 X-20.801 Y6.017 E1254.83534
G0 F12000 X-20.571 Y6.15
G1 F2400 X-17.515 Y4.386 E1254.97525
G1 X-17.515 Y0.856 E1255.11522
G1 X-20.571 Y-0.907 E1255.25511
G1 X-23.185 Y0.6 E1255.37475
G0 F12000 X-23.23 Y0.523
G1 F2400 X-23.275 Y0.652 E1255.38017
G0 F12000 X-23.275 Y0.446
G1 F2400 X-42.625 Y0.446 E1256.14741
G0 F12000 X-42.669 Y0.524
G1 F2400 X-42.625 Y0.652 E1256.15278
G0 F12000 X-42.713 Y0.602
G1 F2400 X-45.329 Y-0.907 E1256.27253
G1 X-48.385 Y0.856 E1256.41242
G1 X-48.385 Y4.386 E1256.55239
G1 X-45.329 Y6.15 E1256.6923
G0 F12000 X-45.27 Y6.19
G1 F2400 X-45.042 Y5.984 E1256.70448
G0 F12000 X-45.211 Y6.23
G1 F2400 X-46.496 Y8.102 E1256.79452
G1 X-47.819 Y11.843 E1256.95185
G1 X-48.13 Y15.799 E1257.1092
G1 X-47.405 Y19.701 E1257.26656
G1 X-45.696 Y23.282 E1257.42389
G1 X-44.98 Y24.119 E1257.46757
G1 X-47.827 Y24.884 E1257.58446
G1 X-48.737 Y28.294 E1257.7244
G0 F12000 X-48.235 Y28.159
; TYPE:WALL-OUTER
G1 F1800 X-48.235 Y28.159 E1257.7244
G1 X-46.105 Y30.286 E1257.84376
G1 X-43.198 Y29.505 E1257.96311
G1 X-42.422 Y26.597 E1258.08245
G1 X-44.552 Y24.47 E1258.20181
G1 X-47.459 Y25.251 E1258.32116
G1 X-48.235 Y28.159 E1258.4405
G1 F6000 E1256.6405
G1 Z1
G0 F12000 X-48.548 Y28.076
G0 X-43.288 Y-6.268
G0 X-43.288 Y-6.268
; TYPE:WALL-INNER
G1 Z0.5
G1 F6000 E1258.4405
G1 F2400 X-43.288 Y-6.268 E1258.4405
G1 X-42.052 Y-6.342 E1258.4896
G1 X-40.877 Y-6.733 E1258.5387
G1 X-39.844 Y-7.414 E1258.58776
G1 X-39.021 Y-8.341 E1258.63691
G1 X-38.468 Y-9.448 E1258.68598
G1 X-38.218 Y-10.661 E1258.73508
G1 X-38.292 Y-11.897 E1258.78418
G1 X-38.683 Y-13.072 E1258.83328
G1 X-39.365 Y-14.106 E1258.8824
G1 X-40.291 Y-14.928 E1258.93149
G1 X-41.399 Y-15.482 E1258.98061
G1 X-42.611 Y-15.731 E1259.02967
G1 X-43.848 Y-15.657 E1259.07881
G1 X-45.023 Y-15.266 E1259.12791
G1 X-46.056 Y-14.585 E1259.17697
G1 X-46.878 Y-13.658 E1259.22609
G1 X-47.432 Y-12.551 E1259.27518
G1 X-47.681 Y-11.338 E1259.32428
G1 X-47.607 Y-10.103 E1259.37333
G1 X-47.217 Y-8.928 E1259.42242
G1 X-46.535 Y-7.893 E1259.47157
G1 X-45.609 Y-7.071 E1259.52067
G1 X-44.501 Y-6.517 E1259.56979
G1 X-43.288 Y-6.268 E1259.61889
G0 F12000 X-43.255 Y-6.721
G1 F2400 X-43.255 Y-6.721 E1259.61889
G1 X-42.138 Y-6.787 E1259.66325
G1 X-41.076 Y-7.142 E1259.70765
G1 X-40.141 Y-7.757 E1259.75203
G1 X-39.397 Y-8.595 E1259.79646
G1 X-38.897 Y-9.596 E1259.84083
G1 X-38.671 Y-10.693 E1259.88524
G1 X-38.737 Y-11.811 E1259.92965
G1 X-39.092 Y-12.874 E1259.97408
G1 X-39.708 Y-13.809 E1260.01848
G1 X-40.545 Y-14.552 E1260.06286
G1 X-41.547 Y-15.053 E1260.10728
G1 X-42.643 Y-15.278 E1260.15164
G1 X-43.762 Y-15.212 E1260.19609
G1 X-44.824 Y-14.857 E1260.24049
G1 X-45.759 Y-14.242 E1260.28486
G1 X-46.502 Y-13.404 E1260.32927
G1 X-47.003 Y-12.403 E1260.37365
G1 X-47.228 Y-11.305 E1260.4181
G1 X-47.162 Y-10.188 E1260.46246
G1 X-46.809 Y-9.126 E1260.50684
G1 X-46.192 Y-8.19 E1260.55129
G1 X-45.355 Y-7.447 E1260.59567
G1 X-44.353 Y-6.946 E1260.64009
G1 X-43.255 Y-6.721 E1260.68453
G0 F12000 X-43.223 Y-7.174
; TYPE:WALL-OUTER
G1 F1800 X-43.223 Y-7.174 E1260.68453
G1 X-42.224 Y-7.233 E1260.72421
G1 X-41.274 Y-7.55 E1260.76392
G1 X-40.438 Y-8.1 E1260.8036
G1 X-39.773 Y-8.85 E1260.84334
G1 X-39.326 Y-9.745 E1260.88301
G1 X-39.124 Y-10.726 E1260.92272
G1 X-39.183 Y-11.725 E1260.9624
G1 X-39.5 Y-12.675 E1261.00211
G1 X-40.051 Y-13.512 E1261.04185
G1 X-40.8 Y-14.176 E1261.08154
G1 X-41.696 Y-14.624 E1261.12126
G1 X-42.676 Y-14.825 E1261.16092
G1 X-43.676 Y-14.766 E1261.20064
G1 X-44.626 Y-14.449 E1261.24035
G1 X-45.462 Y-13.899 E1261.28003
G1 X-46.126 Y-13.149 E1261.31975
G1 X-46.574 Y-12.254 E1261.35944
G1 X-46.775 Y-11.273 E1261.39914
G1 X-46.716 Y-10.274 E1261.43882
G1 X-46.4 Y-9.324 E1261.47852
G1 X-45.849 Y-8.487 E1261.51825
G1 X-45.1 Y-7.823 E1261.55794
G1 X-44.204 Y-7.375 E1261.59766
G1 X-43.223 Y-7.174 E1261.63737
G1 F6000 E1259.83737
G1 Z1
G0 F12000 X-43.288 Y-6.855
G0 X-43.288 Y-6.743
G0 X-43.253 Y-6.748
G0 X-44.343 Y-6.971
G0 X-45.339 Y-7.47
G0 X-46.171 Y-8.209
G0 X-46.783 Y-9.138
G0 X-47.135 Y-10.194
G0 X-47.201 Y-11.303
G0 X-46.978 Y-12.393
G0 X-46.479 Y-13.388
G0 X-45.74 Y-14.221
G0 X-44.812 Y-14.832
G0 X-43.756 Y-15.185
G0 X-43.159 Y-15.221
G0 X-43.083 Y-20.258
G0 X-43.083 Y-20.258
; TYPE:WALL-INNER
G1 Z0.5
G1 F6000 E1261.63737
G1 F2400 X-43.083 Y-20.258 E1261.63737
G1 X-41.851 Y-20.385 E1261.68648
G1 X-40.694 Y-20.827 E1261.73559
G1 X-39.692 Y-21.552 E1261.78463
G1 X-38.909 Y-22.513 E1261.83378
G1 X-38.405 Y-23.644 E1261.88288
G1 X-38.209 Y-24.866 E1261.93195
G1 X-38.335 Y-26.098 E1261.98105
G1 X-38.777 Y-27.256 E1262.0302
G1 X-39.504 Y-28.259 E1262.07932
G1 X-40.464 Y-29.039 E1262.12837
G1 X-41.595 Y-29.545 E1262.17749
G1 X-42.817 Y-29.741 E1262.22657
G1 X-44.049 Y-29.614 E1262.27568
G1 X-45.206 Y-29.172 E1262.32479
G1 X-46.209 Y-28.447 E1262.37386
G1 X-46.989 Y-27.486 E1262.42293
G1 X-47.495 Y-26.355 E1262.47206
G1 X-47.691 Y-25.133 E1262.52114
G1 X-47.564 Y-23.9 E1262.57028
G1 X-47.122 Y-22.743 E1262.61939
G1 X-46.397 Y-21.74 E1262.66847
G1 X-45.436 Y-20.96 E1262.71754
G1 X-44.305 Y-20.454 E1262.76667
G1 X-43.083 Y-20.258 E1262.81574
G0 F12000 X-43.07 Y-20.711
G1 F2400 X-43.07 Y-20.711 E1262.81574
G1 X-41.956 Y-20.827 E1262.86015
G1 X-40.91 Y-21.226 E1262.90454
G1 X-40.003 Y-21.882 E1262.94893
G1 X-39.296 Y-22.751 E1262.99335
G1 X-38.84 Y-23.774 E1263.03776
G1 X-38.662 Y-24.879 E1263.08214
G1 X-38.777 Y-25.993 E1263.12654
G1 X-39.176 Y-27.04 E1263.17097
G1 X-39.833 Y-27.947 E1263.21538
G1 X-40.702 Y-28.653 E1263.25977
G1 X-41.724 Y-29.11 E1263.30416
G1 X-42.83 Y-29.288 E1263.34858
G1 X-43.944 Y-29.172 E1263.39299
G1 X-44.99 Y-28.773 E1263.43738
G1 X-45.897 Y-28.117 E1263.48177
G1 X-46.603 Y-27.248 E1263.52616
G1 X-47.06 Y-26.226 E1263.57055
G1 X-47.238 Y-25.12 E1263.61497
G1 X-47.122 Y-24.005 E1263.65942
G1 X-46.723 Y-22.959 E1263.70381
G1 X-46.067 Y-22.052 E1263.74819
G1 X-45.198 Y-21.346 E1263.79259
G1 X-44.176 Y-20.889 E1263.83698
G1 X-43.07 Y-20.711 E1263.8814
G0 F12000 X-43.057 Y-21.165
; TYPE:WALL-OUTER
G1 F1800 X-43.057 Y-21.165 E1263.8814
G1 X-42.061 Y-21.268 E1263.9211
G1 X-41.126 Y-21.625 E1263.96078
G1 X-40.315 Y-22.212 E1264.00048
G1 X-39.683 Y-22.989 E1264.04019
G1 X-39.275 Y-23.903 E1264.07988
G1 X-39.116 Y-24.892 E1264.1196
G1 X-39.218 Y-25.888 E1264.1593
G1 X-39.575 Y-26.824 E1264.19902
G1 X-40.163 Y-27.635 E1264.23874
G1 X-40.94 Y-28.266 E1264.27843
G1 X-41.854 Y-28.675 E1264.31813
G1 X-42.843 Y-28.834 E1264.35785
G1 X-43.839 Y-28.731 E1264.39756
G1 X-44.774 Y-28.374 E1264.43724
G1 X-45.585 Y-27.787 E1264.47694
G1 X-46.216 Y-27.01 E1264.51662
G1 X-46.625 Y-26.096 E1264.55633
G1 X-46.784 Y-25.107 E1264.59605
G1 X-46.681 Y-24.11 E1264.63579
G1 X-46.324 Y-23.175 E1264.67547
G1 X-45.737 Y-22.364 E1264.71517
G1 X-44.96 Y-21.733 E1264.75486
G1 X-44.046 Y-21.324 E1264.79456
G1 X-43.057 Y-21.165 E1264.83428
G1 F6000 E1263.03428
G1 Z1
G0 F12000 X-43.108 Y-20.845
G0 X-43.011 Y-20.861
G0 X-43.069 Y-20.738
G0 X-41.963 Y-20.853
G0 X-41.821 Y-21.078
G0 X-27.508 Y-23.687
G0 X-27.508 Y-23.687
; TYPE:WALL-INNER
G1 Z0.5
G1 F6000 E1264.83428
G1 F2400 X-27.508 Y-23.687 E1264.83428
G1 X-27.013 Y-22.552 E1264.88338
G1 X-26.241 Y-21.584 E1264.93247
G1 X-25.245 Y-20.849 E1264.98155
G1 X-24.093 Y-20.396 E1265.03064
G1 X-22.862 Y-20.256 E1265.07976
G1 X-21.638 Y-20.442 E1265.12885
G1 X-20.503 Y-20.936 E1265.17793
G1 X-19.534 Y-21.708 E1265.22706
G1 X-18.799 Y-22.704 E1265.27614
G1 X-18.347 Y-23.857 E1265.32525
G1 X-18.207 Y-25.087 E1265.37433
G1 X-18.392 Y-26.312 E1265.42345
G1 X-18.887 Y-27.447 E1265.47255
G1 X-19.659 Y-28.415 E1265.52165
G1 X-20.655 Y-29.15 E1265.57073
G1 X-21.806 Y-29.603 E1265.61977
G1 X-23.038 Y-29.743 E1265.66894
G1 X-24.262 Y-29.557 E1265.71803
G1 X-25.397 Y-29.063 E1265.76711
G1 X-26.365 Y-28.291 E1265.8162
G1 X-27.101 Y-27.295 E1265.86531
G1 X-27.553 Y-26.142 E1265.91441
G1 X-27.693 Y-24.912 E1265.9635
G1 X-27.508 Y-23.687 E1266.01262
G0 F12000 X-27.072 Y-23.813
G1 F2400 X-27.072 Y-23.813 E1266.01262
G1 X-26.624 Y-22.787 E1266.05701
G1 X-25.926 Y-21.911 E1266.10143
G1 X-25.025 Y-21.246 E1266.14583
G1 X-23.983 Y-20.836 E1266.19023
G1 X-22.87 Y-20.71 E1266.23464
G1 X-21.764 Y-20.878 E1266.279
G1 X-20.737 Y-21.325 E1266.32341
G1 X-19.861 Y-22.023 E1266.36782
G1 X-19.196 Y-22.924 E1266.41223
G1 X-18.787 Y-23.966 E1266.45661
G1 X-18.661 Y-25.078 E1266.50099
G1 X-18.828 Y-26.186 E1266.54541
G1 X-19.276 Y-27.212 E1266.58981
G1 X-19.974 Y-28.088 E1266.63422
G1 X-20.874 Y-28.753 E1266.67859
G1 X-21.916 Y-29.163 E1266.72299
G1 X-23.03 Y-29.289 E1266.76744
G1 X-24.136 Y-29.121 E1266.8118
G1 X-25.163 Y-28.674 E1266.85621
G1 X-26.038 Y-27.976 E1266.90059
G1 X-26.704 Y-27.075 E1266.94502
G1 X-27.113 Y-26.033 E1266.9894
G1 X-27.239 Y-24.921 E1267.03378
G1 X-27.072 Y-23.813 E1267.07821
G0 F12000 X-26.636 Y-23.938
; TYPE:WALL-OUTER
G1 F1800 X-26.636 Y-23.938 E1267.07821
G1 X-26.235 Y-23.021 E1267.11789
G1 X-25.611 Y-22.238 E1267.15759
G1 X-24.806 Y-21.643 E1267.19728
G1 X-23.874 Y-21.277 E1267.23698
G1 X-22.879 Y-21.164 E1267.27669
G1 X-21.889 Y-21.314 E1267.31639
G1 X-20.971 Y-21.714 E1267.3561
G1 X-20.188 Y-22.338 E1267.3958
G1 X-19.593 Y-23.143 E1267.43549
G1 X-19.228 Y-24.075 E1267.47518
G1 X-19.115 Y-25.07 E1267.51488
G1 X-19.264 Y-26.061 E1267.55462
G1 X-19.665 Y-26.978 E1267.59431
G1 X-20.289 Y-27.761 E1267.634
G1 X-21.094 Y-28.356 E1267.6737
G1 X-22.025 Y-28.722 E1267.71336
G1 X-23.021 Y-28.835 E1267.75311
G1 X-24.011 Y-28.685 E1267.79281
G1 X-24.929 Y-28.285 E1267.83252
G1 X-25.711 Y-27.661 E1267.87218
G1 X-26.307 Y-26.856 E1267.9119
G1 X-26.672 Y-25.924 E1267.95159
G1 X-26.785 Y-24.929 E1267.99129
G1 X-26.636 Y-23.938 E1268.03103
G1 F6000 E1266.23103
G1 Z1
G0 F12000 X-26.934 Y-23.809
G0 X-26.832 Y-23.504
G0 X-26.706 Y-23.124
G0 X-24.209 Y-15.573
G0 X-24.209 Y-15.573
; TYPE:WALL-INNER
G1 Z0.5
G1 F6000 E1268.03103
G1 F2400 X-24.209 Y-15.573 E1268.03103
G1 X-25.351 Y-15.09 E1268.08019
G1 X-26.327 Y-14.33 E1268.12924
G1 X-27.075 Y-13.343 E1268.17835
G1 X-27.54 Y-12.194 E1268.2275
G1 X-27.693 Y-10.966 E1268.27656
G1 X-27.523 Y-9.74 E1268.32564
G1 X-27.041 Y-8.599 E1268.37475
G1 X-26.281 Y-7.622 E1268.42383
G1 X-25.292 Y-6.875 E1268.47298
G1 X-24.145 Y-6.409 E1268.52207
G1 X-22.917 Y-6.256 E1268.57114
G1 X-21.69 Y-6.426 E1268.62025
G1 X-20.55 Y-6.909 E1268.66934
G1 X-19.572 Y-7.669 E1268.71846
G1 X-18.825 Y-8.657 E1268.76757
G1 X-18.36 Y-9.804 E1268.81664
G1 X-18.206 Y-11.033 E1268.86575
G1 X-18.377 Y-12.259 E1268.91484
G1 X-18.858 Y-13.4 E1268.96394
G1 X-19.619 Y-14.377 E1269.01304
G1 X-20.606 Y-15.123 E1269.0621
G1 X-21.754 Y-15.59 E1269.11124
G1 X-22.983 Y-15.743 E1269.16034
G1 X-24.209 Y-15.573 E1269.20942
G0 F12000 X-24.089 Y-15.135
G1 F2400 X-24.089 Y-15.135 E1269.20942
G1 X-25.121 Y-14.699 E1269.25384
G1 X-26.004 Y-14.011 E1269.29823
G1 X-26.68 Y-13.118 E1269.34264
G1 X-27.101 Y-12.08 E1269.38705
G1 X-27.239 Y-10.969 E1269.43144
G1 X-27.085 Y-9.86 E1269.47584
G1 X-26.649 Y-8.828 E1269.52026
G1 X-25.962 Y-7.945 E1269.56462
G1 X-25.068 Y-7.27 E1269.60904
G1 X-24.031 Y-6.848 E1269.65343
G1 X-22.92 Y-6.71 E1269.69782
G1 X-21.81 Y-6.864 E1269.74226
G1 X-20.779 Y-7.3 E1269.78664
G1 X-19.895 Y-7.988 E1269.83106
G1 X-19.22 Y-8.881 E1269.87544
G1 X-18.799 Y-9.918 E1269.91982
G1 X-18.66 Y-11.03 E1269.96426
G1 X-18.815 Y-12.139 E1270.00866
G1 X-19.25 Y-13.171 E1270.05306
G1 X-19.938 Y-14.054 E1270.09745
G1 X-20.831 Y-14.729 E1270.14183
G1 X-21.868 Y-15.151 E1270.18623
G1 X-22.98 Y-15.289 E1270.23066
G1 X-24.089 Y-15.135 E1270.27505
G0 F12000 X-23.968 Y-14.698
; TYPE:WALL-OUTER
G1 F1800 X-23.968 Y-14.698 E1270.27505
G1 X-24.891 Y-14.308 E1270.31478
G1 X-25.681 Y-13.692 E1270.3545
G1 X-26.285 Y-12.894 E1270.39419
G1 X-26.662 Y-11.966 E1270.4339
G1 X-26.785 Y-10.972 E1270.47362
G1 X-26.648 Y-9.981 E1270.51329
G1 X-26.258 Y-9.058 E1270.55302
G1 X-25.643 Y-8.268 E1270.59271
G1 X-24.844 Y-7.665 E1270.6324
G1 X-23.916 Y-7.287 E1270.67214
G1 X-22.923 Y-7.164 E1270.71181
G1 X-21.931 Y-7.301 E1270.75152
G1 X-21.009 Y-7.691 E1270.79121
G1 X-20.218 Y-8.307 E1270.83096
G1 X-19.615 Y-9.105 E1270.87062
G1 X-19.238 Y-10.033 E1270.91034
G1 X-19.114 Y-11.027 E1270.95006
G1 X-19.252 Y-12.018 E1270.98973
G1 X-19.641 Y-12.941 E1271.02945
G1 X-20.257 Y-13.731 E1271.06917
G1 X-21.055 Y-14.334 E1271.10883
G1 X-21.983 Y-14.712 E1271.14856
G1 X-22.977 Y-14.835 E1271.18827
G1 X-23.968 Y-14.698 E1271.22794
G1 F6000 E1269.42794
G1 Z1
G0 F12000 X-24.013 Y-15.02
G0 X-23.886 Y-15.035
G0 X-24.082 Y-15.109
G0 X-13.328 Y-16.388
G0 X14.864 Y-20
G0 X14.864 Y-20
; TYPE:WALL-INNER
G1 Z0.5
G1 F6000 E1271.22794
G1 F2400 X14.864 Y-20 E1271.22794
G1 X15.04 Y-18.67 E1271.28114
G1 X15.552 Y-17.432 E1271.33426
G1 X16.369 Y-16.369 E1271.38742
G1 X17.432 Y-15.552 E1271.44058
G1 X18.67 Y-15.04 E1271.4937
G1 X19.999 Y-14.864 E1271.54685
G1 X21.329 Y-15.04 E1271.60005
G1 X22.566 Y-15.552 E1271.65313
G1 X23.63 Y-16.368 E1271.7063
G1 X24.447 Y-17.432 E1271.75949
G1 X24.959 Y-18.671 E1271.81265
G1 X25.134 Y-20 E1271.8658
G1 X24.959 Y-21.328 E1271.91891
G1 X24.447 Y-22.567 E1271.97207
G1 X23.63 Y-23.63 E1272.02523
G1 X22.567 Y-24.447 E1272.07839
G1 X21.329 Y-24.959 E1272.13151
G1 X19.999 Y-25.135 E1272.18471
G1 X18.67 Y-24.959 E1272.23786
G1 X17.432 Y-24.447 E1272.29098
G1 X16.369 Y-23.63 E1272.34414
G1 X15.552 Y-22.567 E1272.3973
G1 X15.04 Y-21.329 E1272.45042
G1 X14.864 Y-20 E1272.50358
G0 F12000 X15.318 Y-20
G1 F2400 X15.318 Y-20 E1272.50358
G1 X15.478 Y-18.788 E1272.55205
G1 X15.945 Y-17.659 E1272.6005
G1 X16.69 Y-16.69 E1272.64896
G1 X17.659 Y-15.945 E1272.69743
G1 X18.788 Y-15.478 E1272.74587
G1 X19.999 Y-15.318 E1272.79431
G1 X21.211 Y-15.478 E1272.84278
G1 X22.339 Y-15.945 E1272.89119
G1 X23.309 Y-16.689 E1272.93966
G1 X24.054 Y-17.659 E1272.98816
G1 X24.521 Y-18.788 E1273.0366
G1 X24.68 Y-20 E1273.08507
G1 X24.521 Y-21.211 E1273.1335
G1 X24.054 Y-22.34 E1273.18194
G1 X23.309 Y-23.309 E1273.23041
G1 X22.34 Y-24.054 E1273.27887
G1 X21.211 Y-24.521 E1273.32732
G1 X19.999 Y-24.681 E1273.37579
G1 X18.788 Y-24.521 E1273.42423
G1 X17.659 Y-24.054 E1273.47267
G1 X16.69 Y-23.309 E1273.52114
G1 X15.945 Y-22.34 E1273.5696
G1 X15.478 Y-21.211 E1273.61805
G1 X15.318 Y-20 E1273.66648
G0 F12000 X15.772 Y-20
; TYPE:WALL-OUTER
G1 F1800 X15.772 Y-20 E1273.66648
G1 X15.917 Y-18.905 E1273.71028
G1 X16.338 Y-17.886 E1273.754
G1 X17.011 Y-17.011 E1273.79777
G1 X17.886 Y-16.338 E1273.84154
G1 X18.905 Y-15.917 E1273.88525
G1 X19.999 Y-15.772 E1273.92901
G1 X21.094 Y-15.917 E1273.97281
G1 X22.112 Y-16.338 E1274.01649
G1 X22.988 Y-17.01 E1274.06027
G1 X23.661 Y-17.886 E1274.10407
G1 X24.082 Y-18.905 E1274.14778
G1 X24.226 Y-20 E1274.19158
G1 X24.082 Y-21.094 E1274.23533
G1 X23.661 Y-22.113 E1274.27904
G1 X22.988 Y-22.988 E1274.32282
G1 X22.113 Y-23.661 E1274.36659
G1 X21.094 Y-24.082 E1274.4103
G1 X19.999 Y-24.227 E1274.4541
G1 X18.905 Y-24.082 E1274.49786
G1 X17.886 Y-23.661 E1274.54157
G1 X17.011 Y-22.988 E1274.58534
G1 X16.338 Y-22.113 E1274.62911
G1 X15.917 Y-21.094 E1274.67283
G1 X15.772 Y-20 E1274.71659
G1 F6000 E1272.91659
G1 Z1
G0 F12000 X15.45 Y-20.043
G0 X-17.64 Y1.116
G0 X-17.64 Y1.116
G0 X-17.965 Y1.116
G1 Z0.5
G1 F6000 E1274.71659
G1 F1800 X-17.965 Y1.116 E1274.71659
G1 X-20.571 Y-0.388 E1274.83589
G1 X-23.178 Y1.116 E1274.95523
G1 X-23.178 Y4.126 E1275.07458
G1 X-20.571 Y5.631 E1275.19394
G1 X-17.965 Y4.126 E1275.31326
G1 X-17.965 Y1.116 E1275.43261
G1 F6000 E1273.63261
G1 Z1
G0 F12000 X-17.64 Y1.116
G0 X-17.539 Y1.119
G0 X-17.567 Y0.886
G0 X-20.571 Y-0.848
G0 X-23.576 Y0.886
G0 X-23.576 Y4.356
G0 X-23.087 Y4.499
G0 X-23.359 Y4.409
G0 X-23.699 Y0.884
G0 X-23.4 Y0.896
G0 X-23.4 Y0.896
G0 X-23.725 Y0.896
G1 Z0.5
G1 F6000 E1275.43261
G1 F1800 X-23.725 Y0.896 E1275.43261
G1 X-42.175 Y0.896 E1276.16418
G1 X-42.175 Y4.775 E1276.31798
G1 X-43.49 Y4.775 E1276.37012
G1 X-43.912 Y5.134 E1276.39209
G1 X-46.091 Y8.308 E1276.54475
G1 X-47.375 Y11.937 E1276.69738
G1 X-47.677 Y15.775 E1276.85003
G1 X-46.974 Y19.56 E1277.00268
G1 X-45.315 Y23.035 E1277.15536
G1 X-42.815 Y25.961 E1277.30796
G1 X-39.642 Y28.141 E1277.46061
G1 X-36.012 Y29.425 E1277.61328
G1 X-32.174 Y29.727 E1277.76593
G1 X-28.389 Y29.024 E1277.91858
G1 X-24.915 Y27.365 E1278.07123
G1 X-21.988 Y24.865 E1278.22386
G1 X-19.809 Y21.691 E1278.37651
G1 X-18.524 Y18.062 E1278.52916
G1 X-18.223 Y14.224 E1278.68181
G1 X-18.926 Y10.439 E1278.83446
G1 X-20.584 Y6.964 E1278.98712
G1 X-22.455 Y4.775 E1279.1013
G1 X-23.725 Y4.775 E1279.15166
G1 X-23.725 Y0.896 E1279.30547
G1 F6000 E1277.50547
G1 Z1
G0 F12000 X-23.4 Y0.896
G0 X-23.3 Y0.893
G0 X-23.359 Y0.53
G0 X-42.541 Y0.53
G0 X-42.541 Y4.409
G0 X-42.813 Y4.499
G0 X-42.324 Y4.356
G0 X-42.696 Y1.118
G0 X-42.397 Y1.116
G0 X-42.397 Y1.116
G0 X-42.722 Y1.116
G1 Z0.5
G1 F6000 E1279.30547
G1 F1800 X-42.722 Y1.116 E1279.30547
G1 X-45.329 Y-0.388 E1279.42481
G1 X-47.935 Y1.116 E1279.54411
G1 X-47.935 Y4.126 E1279.66346
G1 X-45.329 Y5.631 E1279.78278
G1 X-42.722 Y4.126 E1279.90214
G1 X-42.722 Y1.116 E1280.02149
G1 F6000 E1278.22149
G1 Z1
G0 F12000 X-42.397 Y1.116
G0 X-21.284 Y24.191
G0 X-21.284 Y24.191
G0 X-21.422 Y24.491
G1 Z0.5
G1 F6000 E1280.02149
G1 F1800 X-21.422 Y24.491 E1280.02149
G1 X-23.497 Y26.671 E1280.14083
G1 X-22.646 Y29.558 E1280.26017
G1 X-19.721 Y30.265 E1280.37949
G1 X-17.645 Y28.085 E1280.49885
G1 X-18.496 Y25.198 E1280.6182
G1 X-21.422 Y24.491 E1280.73755
G0 F12000 X-21.284 Y24.191
G0 X-21.436 Y24.235
G0 X-21.052 Y24.121
G0 X-19.799 Y23.751
G0 X-19.799 Y23.751
; TYPE:FILL
G1 F2400 X-19.574 Y23.739 E1280.74276
G1 X-19.349 Y22.964 E1280.77475
G0 F12000 X-18.899 Y22.309
G1 F2400 X-18.899 Y23.968 E1280.84054
G0 F12000 X-18.449 Y24.077
G1 F2400 X-18.449 Y21.145 E1280.95679
G0 F12000 X-17.999 Y19.876
G1 F2400 X-17.999 Y24.185 E1281.12765
G0 F12000 X-17.549 Y24.515
G1 F2400 X-17.549 Y18.606 E1281.36195
G0 F12000 X-17.55 Y11.826
G0 X-17.55 Y11.826
G1 F2400 X-17.55 Y5.155 E1281.62646
G0 F12000 X-17.1 Y4.895
G1 F2400 X-17.099 Y26.043 E1282.465
G0 F12000 X-16.649 Y27.571
G0 X-16.649 Y27.571
G1 F2400 X-16.65 Y-36.675 E1285.01242
G0 F12000 X-17.1 Y-36.675
G1 F2400 X-17.1 Y0.344 E1286.48026
G0 F12000 X-17.55 Y0.085
G1 F2400 X-17.55 Y-36.675 E1287.93784
G0 F12000 X-18 Y-36.675
G1 F2400 X-18 Y-0.174 E1289.38514
G0 F12000 X-18.45 Y-0.433
G1 F2400 X-18.45 Y-9.049 E1289.72677
G0 F12000 X-18.9 Y-8.224
G1 F2400 X-18.9 Y-0.693 E1290.02539
G0 F12000 X-19.35 Y-0.953
G1 F2400 X-19.35 Y-7.629 E1290.2901
G0 F12000 X-19.8 Y-7.237
G1 F2400 X-19.8 Y-1.212 E1290.52899
G0 F12000 X-20.25 Y-1.472
G1 F2400 X-20.25 Y-6.887 E1290.7437
G0 F12000 X-20.7 Y-6.627
G1 F2400 X-20.7 Y-1.583 E1290.9437
G0 F12000 X-21.15 Y-1.323
G1 F2400 X-21.15 Y-6.437 E1291.14648
G0 F12000 X-21.6 Y-6.246
G1 F2400 X-21.6 Y-1.064 E1291.35195
G0 F12000 X-22.05 Y-0.804
G1 F2400 X-22.05 Y-6.173 E1291.56484
G0 F12000 X-22.5 Y-6.111
G1 F2400 X-22.5 Y-0.544 E1291.78558
G0 F12000 X-22.95 Y-0.285
G1 F2400 X-22.95 Y-6.057 E1292.01444
G0 F12000 X-23.4 Y-6.114
G1 F2400 X-23.4 Y-0.203 E1292.24882
G0 F12000 X-23.85 Y-0.203
G1 F2400 X-23.85 Y-6.17 E1292.48542
G0 F12000 X-24.3 Y-6.256
G1 F2400 X-24.3 Y-0.203 E1292.72542
G0 F12000 X-24.75 Y-0.203
G1 F2400 X-24.75 Y-6.438 E1292.97265
G0 F12000 X-25.2 Y-6.621
G1 F2400 X-25.2 Y-0.203 E1293.22713
G0 F12000 X-25.65 Y-0.203
G1 F2400 X-25.65 Y-6.893 E1293.49239
G0 F12000 X-26.1 Y-7.234
G1 F2400 X-26.1 Y-0.203 E1293.77118
G0 F12000 X-26.55 Y-0.203
G1 F2400 X-26.55 Y-7.641 E1294.06611
G0 F12000 X-27 Y-8.22
G1 F2400 X-27 Y-0.203 E1294.38399
G0 F12000 X-27.45 Y-0.203
G1 F2400 X-27.45 Y-9.05 E1294.73478
G0 F12000 X-27.45 Y-12.948
G0 X-27.45 Y-12.948
G1 F2400 X-27.45 Y-23.054 E1295.1355
G0 F12000 X-27 Y-22.214
G1 F2400 X-27 Y-13.773 E1295.47019
G0 F12000 X-26.55 Y-14.366
G1 F2400 X-26.55 Y-21.65 E1295.75901
G0 F12000 X-26.1 Y-21.231
G1 F2400 X-26.1 Y-14.759 E1296.01563
G0 F12000 X-25.65 Y-15.109
G1 F2400 X-25.65 Y-20.899 E1296.24521
G0 F12000 X-25.2 Y-20.616
G1 F2400 X-25.2 Y-15.37 E1296.45322
G0 F12000 X-24.75 Y-15.56
G1 F2400 X-24.75 Y-20.439 E1296.64668
G0 F12000 X-24.3 Y-20.262
G1 F2400 X-24.3 Y-15.75 E1296.82558
G0 F12000 X-23.85 Y-15.823
G1 F2400 X-23.85 Y-20.166 E1296.99779
G0 F12000 X-23.4 Y-20.115
G1 F2400 X-23.4 Y-15.886 E1297.16547
G0 F12000 X-22.95 Y-15.94
G1 F2400 X-22.95 Y-20.063 E1297.32895
G0 F12000 X-22.5 Y-20.107
G1 F2400 X-22.5 Y-15.884 E1297.4964
G0 F12000 X-22.05 Y-15.827
G1 F2400 X-22.05 Y-20.176 E1297.66884
G0 F12000 X-21.6 Y-20.244
G1 F2400 X-21.6 Y-15.742 E1297.84735
G0 F12000 X-21.15 Y-15.559
G1 F2400 X-21.15 Y-20.435 E1298.04069
G0 F12000 X-20.7 Y-20.63
G1 F2400 X-20.7 Y-15.377 E1298.24898
G0 F12000 X-20.25 Y-15.105
G1 F2400 X-20.25 Y-20.88 E1298.47796
G0 F12000 X-19.8 Y-21.239
G1 F2400 X-19.8 Y-14.764 E1298.7347
G0 F12000 X-19.35 Y-14.356
G1 F2400 X-19.35 Y-21.617 E1299.02261
G0 F12000 X-18.9 Y-22.228
G1 F2400 X-18.9 Y-13.778 E1299.35766
G0 F12000 X-18.45 Y-12.948
G1 F2400 X-18.45 Y-23.045 E1299.75802
G0 F12000 X-18.45 Y-26.948
G0 X-18.45 Y-26.948
G1 F2400 X-18.45 Y-36.675 E1300.1437
G0 F12000 X-18.9 Y-36.675
G1 F2400 X-18.9 Y-27.785 E1300.4962
G0 F12000 X-19.35 Y-28.349
G1 F2400 X-19.35 Y-36.675 E1300.82633
G0 F12000 X-19.8 Y-36.675
G1 F2400 X-19.8 Y-28.768 E1301.13985
G0 F12000 X-20.25 Y-29.1
G1 F2400 X-20.25 Y-36.675 E1301.44021
G0 F12000 X-20.7 Y-36.675
G1 F2400 X-20.7 Y-29.382 E1301.72939
G0 F12000 X-21.15 Y-29.559
G1 F2400 X-21.15 Y-36.675 E1302.01154
G0 F12000 X-21.6 Y-36.675
G1 F2400 X-21.6 Y-29.736 E1302.28668
G0 F12000 X-22.05 Y-29.831
G1 F2400 X-22.05 Y-36.675 E1302.55805
G0 F12000 X-22.5 Y-36.675
G1 F2400 X-22.5 Y-29.882 E1302.8274
G0 F12000 X-22.95 Y-29.934
G1 F2400 X-22.95 Y-36.675 E1303.09469
G0 F12000 X-23.4 Y-36.675
G1 F2400 X-23.4 Y-29.889 E1303.36376
G0 F12000 X-23.85 Y-29.821
G1 F2400 X-23.85 Y-36.675 E1303.63553
G0 F12000 X-24.3 Y-36.675
G1 F2400 X-24.3 Y-29.753 E1303.91
G0 F12000 X-24.75 Y-29.562
G1 F2400 X-24.75 Y-36.675 E1304.19203
G0 F12000 X-25.2 Y-36.675
G1 F2400 X-25.2 Y-29.366 E1304.48184
G0 F12000 X-25.65 Y-29.116
G1 F2400 X-25.65 Y-36.675 E1304.78157
G0 F12000 X-26.1 Y-36.675
G1 F2400 X-26.1 Y-28.757 E1305.09552
G0 F12000 X-26.55 Y-28.374
G1 F2400 X-26.55 Y-36.675 E1305.42467
G0 F12000 X-27 Y-36.675
G1 F2400 X-27 Y-27.765 E1305.77796
G0 F12000 X-27.45 Y-26.948
G1 F2400 X-27.45 Y-36.675 E1306.16364
G0 F12000 X-27.9 Y-36.675
G1 F2400 X-27.9 Y-0.203 E1307.6098
G0 F12000 X-28.35 Y-0.203
G1 F2400 X-28.35 Y-36.675 E1309.05595
G0 F12000 X-28.8 Y-36.675
G1 F2400 X-28.8 Y-0.203 E1310.5021
G0 F12000 X-29.25 Y-0.203
G1 F2400 X-29.25 Y-36.675 E1311.94826
G0 F12000 X-29.7 Y-36.675
G1 F2400 X-29.7 Y-0.203 E1313.39441
G0 F12000 X-30.15 Y-0.203
G1 F2400 X-30.15 Y-36.674 E1314.84052
G0 F12000 X-30.6 Y-36.674
G1 F2400 X-30.6 Y-0.203 E1316.28664
G0 F12000 X-31.05 Y-0.203
G1 F2400 X-31.05 Y-36.674 E1317.73275
G0 F12000 X-31.5 Y-36.674
G1 F2400 X-31.5 Y-0.203 E1319.17887
G0 F12000 X-31.95 Y-0.203
G1 F2400 X-31.95 Y-36.674 E1320.62498
G0 F12000 X-32.4 Y-36.674
G1 F2400 X-32.4 Y-0.203 E1322.07109
G0 F12000 X-32.85 Y-0.203
G1 F2400 X-32.85 Y-36.674 E1323.51721
G0 F12000 X-33.3 Y-36.674
G1 F2400 X-33.3 Y-0.203 E1324.96332
G0 F12000 X-33.75 Y-0.203
G1 F2400 X-33.75 Y-36.674 E1326.40943
G0 F12000 X-34.2 Y-36.674
G1 F2400 X-34.2 Y-0.203 E1327.85555
G0 F12000 X-34.65 Y-0.203
G1 F2400 X-34.65 Y-36.674 E1329.30166
G0 F12000 X-35.1 Y-36.674
G1 F2400 X-35.1 Y-0.203 E1330.74778
G0 F12000 X-35.55 Y-0.203
G1 F2400 X-35.55 Y-36.674 E1332.19389
G0 F12000 X-36 Y-36.674
G1 F2400 X-36 Y-0.203 E1333.64
G0 F12000 X-36.45 Y-0.203
G1 F2400 X-36.45 Y-36.674 E1335.08612
G0 F12000 X-36.9 Y-36.674
G1 F2400 X-36.9 Y-0.203 E1336.53223
G0 F12000 X-37.35 Y-0.203
G1 F2400 X-37.35 Y-36.674 E1337.97834
G0 F12000 X-37.8 Y-36.674
G1 F2400 X-37.8 Y-0.203 E1339.42446
G0 F12000 X-38.25 Y-0.203
G1 F2400 X-38.25 Y-9.513 E1339.79361
G0 F12000 X-38.7 Y-8.536
G1 F2400 X-38.7 Y-0.203 E1340.12402
G0 F12000 X-39.15 Y-0.203
G1 F2400 X-39.15 Y-7.894 E1340.42898
G0 F12000 X-39.6 Y-7.387
G1 F2400 X-39.6 Y-0.203 E1340.71383
G0 F12000 X-40.05 Y-0.203
G1 F2400 X-40.05 Y-7.039 E1340.98489
G0 F12000 X-40.5 Y-6.742
G1 F2400 X-40.5 Y-0.203 E1341.24416
G0 F12000 X-40.95 Y-0.203
G1 F2400 X-40.95 Y-6.497 E1341.49373
G0 F12000 X-41.4 Y-6.347
G1 F2400 X-41.4 Y-0.203 E1341.73734
G0 F12000 X-41.85 Y-0.203
G1 F2400 X-41.85 Y-6.197 E1341.97501
G0 F12000 X-42.3 Y-6.126
G1 F2400 X-42.3 Y-0.203 E1342.20987
G0 F12000 X-42.75 Y-0.203
G1 F2400 X-42.75 Y-6.099 E1342.44365
G0 F12000 X-43.2 Y-6.072
G1 F2400 X-43.2 Y-0.429 E1342.6674
G0 F12000 X-43.65 Y-0.689
G1 F2400 X-43.65 Y-6.137 E1342.88342
G0 F12000 X-44.1 Y-6.229
G1 F2400 X-44.1 Y-0.948 E1343.09282
G0 F12000 X-44.55 Y-1.208
G1 F2400 X-44.55 Y-6.322 E1343.29559
G0 F12000 X-45 Y-6.543
G1 F2400 X-45 Y-1.467 E1343.49686
G0 F12000 X-45.45 Y-1.587
G1 F2400 X-45.45 Y-6.768 E1343.70229
G0 F12000 X-45.9 Y-7.061
G1 F2400 X-45.9 Y-1.328 E1343.92961
G0 F12000 X-46.35 Y-1.068
G1 F2400 X-46.35 Y-7.461 E1344.1831
G0 F12000 X-46.8 Y-7.932
G1 F2400 X-46.8 Y-0.808 E1344.46558
G0 F12000 X-47.25 Y-0.549
G1 F2400 X-47.25 Y-8.615 E1344.7854
G0 F12000 X-47.7 Y-9.745
G1 F2400 X-47.7 Y-0.289 E1345.16034
G0 F12000 X-48.15 Y-0.03
G1 F2400 X-48.15 Y-36.674 E1346.61331
G0 F12000 X-48.6 Y-36.674
G1 F2400 X-48.6 Y0.229 E1348.07656
G0 F12000 X-48.6 Y5.011
G0 X-48.6 Y5.011
G1 F2400 X-48.6 Y13.482 E1348.41244
G0 F12000 X-48.15 Y10.829
G0 X-48.15 Y10.829
G1 F2400 X-48.15 Y5.271 E1348.63282
G0 F12000 X-47.7 Y5.531
G1 F2400 X-47.7 Y9.558 E1348.7925
G0 F12000 X-47.25 Y8.288
G1 F2400 X-47.25 Y5.791 E1348.89151
G0 F12000 X-46.8 Y6.051
G1 F2400 X-46.8 Y7.397 E1348.94488
G0 F12000 X-46.35 Y6.741
G1 F2400 X-46.35 Y6.311 E1348.96193
G1 F6000 E1347.16193
G1 Z1
G0 F12000 X-45.586 Y5.934
G0 X-48.333 Y4.356
G0 X-48.333 Y0.886
G0 X-45.329 Y-0.848
G0 X-42.324 Y0.886
G0 X-42.324 Y4.356
G0 X-42.813 Y4.499
G0 X-42.608 Y4.461
G0 X-42.524 Y4.419
G0 X-42.524 Y4.419
G1 Z0.5
G1 F6000 E1348.96193
G1 F2400 X-42.448 Y4.403 E1348.96375
G0 F12000 X-42.475 Y4.419
G1 F2400 X-42.448 Y4.256 E1348.96517
G1 X-42.448 Y0.986 E1348.99311
G1 X-42.48 Y0.81 E1348.99464
G0 F12000 X-39.209 Y-9.403
G0 X-38.922 Y-9.606
G0 X-38.698 Y-10.695
G0 X-38.819 Y-10.623
G0 X-38.25 Y-12.405
G0 X-38.25 Y-12.405
G1 F2400 X-38.25 Y-23.499 E1349.43453
G0 F12000 X-38.7 Y-22.488
G1 F2400 X-38.7 Y-13.459 E1349.79254
G0 F12000 X-39.15 Y-14.141
G1 F2400 X-39.15 Y-21.899 E1350.10015
G0 F12000 X-39.6 Y-21.371
G1 F2400 X-39.6 Y-14.581 E1350.36938
G0 F12000 X-40.05 Y-14.98
G1 F2400 X-40.05 Y-21.045 E1350.60987
G0 F12000 X-40.5 Y-20.72
G1 F2400 X-40.5 Y-15.255 E1350.82656
G0 F12000 X-40.95 Y-15.48
G1 F2400 X-40.95 Y-20.515 E1351.0262
G0 F12000 X-41.4 Y-20.343
G1 F2400 X-41.4 Y-15.685 E1351.2109
G0 F12000 X-41.85 Y-15.778
G1 F2400 X-41.85 Y-20.183 E1351.38556
G0 F12000 X-42.3 Y-20.137
G1 F2400 X-42.3 Y-15.87 E1351.55475
G0 F12000 X-42.75 Y-15.922
G1 F2400 X-42.75 Y-20.09 E1351.72002
G0 F12000 X-43.2 Y-20.073
G1 F2400 X-43.2 Y-15.895 E1351.88568
G0 F12000 X-43.65 Y-15.868
G1 F2400 X-43.65 Y-20.145 E1352.05527
G0 F12000 X-44.1 Y-20.217
G1 F2400 X-44.1 Y-15.784 E1352.23104
G0 F12000 X-44.55 Y-15.633
G1 F2400 X-44.55 Y-20.343 E1352.4178
