; Generated with MatterSlice 1.0
; filamentDiameter = 1.75
; extrusionWidth = 0.5
; firstLayerExtrusionWidth = 0.625
; layerThickness = 0.2
; firstLayerThickness = 0.3
; automatic settings before start_gcode
G21 ; set units to millimeters
M107 ; fan off
M190 S60 ; wait for bed temperature to be reached
M104 T0 S210 ; start heating extruder 1
M109 T0 S210 ; wait for extruder 1
T0 ; set the active extruder to 0
; settings from start_gcode
G28
; automatic settings after start_gcode
T0 ; set the active extruder to 0
G90 ; use absolute coordinates
G92 E0 ; reset the expected extruder position
M82 ; use absolute distance for extrusion
; Layer count: 139
; Layer Change GCode
; LAYER:0
G4 P0
M107
G0 F12000 X64.687 Y44.687 Z0.8
; TYPE:SKIRT
G1 Z0.3
G1 F6000 E0
G1 F900 X-64.686 Y44.687 E10.08507
G1 X-64.686 Y-44.686 E17.052
G1 X64.687 Y-44.686 E27.13707
G1 X64.687 Y44.687 E34.10401
G0 F12000 X64.062 Y44.062
G1 F900 X-64.061 Y44.062 E44.09164
G1 X-64.061 Y-44.061 E50.96113
G1 X64.062 Y-44.061 E60.94876
G1 X64.062 Y44.062 E67.81825
G1 F6000 E66.01825
G1 Z0.8
G0 F12000 X-57.688 Y37.688
; TYPE:WALL-OUTER
G1 Z0.3
G1 F6000 E67.81825
G1 F900 X-57.688 Y37.688 E67.81825
G1 X-57.688 Y-37.688 E73.69407
G1 X57.688 Y-37.688 E82.68802
G1 X57.688 Y37.688 E88.56384
G1 X-57.688 Y37.688 E97.5578
G0 F12000 X-57.064 Y37.064
; TYPE:WALL-INNER
G1 F900 X-57.064 Y37.064 E97.5578
G1 X-57.064 Y-37.064 E103.33633
G1 X57.064 Y-37.064 E112.233
G1 X57.064 Y37.064 E118.01153
G1 X-57.064 Y37.064 E126.9082
G0 F12000 X-56.44 Y36.44
G1 F900 X-56.44 Y36.44 E126.9082
G1 X-56.44 Y-36.44 E132.58945
G1 X56.44 Y-36.44 E141.38883
G1 X56.44 Y36.44 E147.07008
G1 X-56.44 Y36.44 E155.86947
G0 F12000 X-45.688 Y30.813
G0 X-45.688 Y30.813
G0 X-45.612 Y30.408
; TYPE:WALL-OUTER
G1 F900 X-45.612 Y30.408 E155.86947
G1 X-44.853 Y30.351 E155.9288
G1 X-44.136 Y30.099 E155.98804
G1 X-43.517 Y29.682 E156.04622
G1 X-43.018 Y29.106 E156.10563
G1 X-42.685 Y28.423 E156.16486
G1 X-42.541 Y27.675 E156.22424
G1 X-42.594 Y26.916 E156.28356
G1 X-42.843 Y26.196 E156.34294
G1 X-43.279 Y25.557 E156.40325
G1 X-43.855 Y25.061 E156.4625
G1 X-44.541 Y24.732 E156.52181
G1 X-45.288 Y24.591 E156.58107
G1 X-46.047 Y24.648 E156.6404
G1 X-46.764 Y24.9 E156.69965
G1 X-47.383 Y25.317 E156.75783
G1 X-47.882 Y25.893 E156.81723
G1 X-48.215 Y26.576 E156.87647
G1 X-48.359 Y27.324 E156.93585
G1 X-48.305 Y28.083 E156.99516
G1 X-48.057 Y28.802 E157.05445
G1 X-47.621 Y29.442 E157.11482
G1 X-47.044 Y29.938 E157.17413
G1 X-46.359 Y30.267 E157.23337
G1 X-45.612 Y30.408 E157.29263
G0 F12000 X-45.647 Y31.037
; TYPE:WALL-INNER
G1 F900 X-45.647 Y31.037 E157.29263
G1 X-44.724 Y30.967 E157.36479
G1 X-43.853 Y30.661 E157.43675
G1 X-43.1 Y30.153 E157.50756
G1 X-42.493 Y29.453 E157.57979
G1 X-42.088 Y28.622 E157.65185
G1 X-41.913 Y27.713 E157.72401
G1 X-41.977 Y26.79 E157.79614
G1 X-42.28 Y25.913 E157.86847
G1 X-42.81 Y25.138 E157.94166
G1 X-43.51 Y24.534 E158.01373
G1 X-44.345 Y24.134 E158.0859
G1 X-45.253 Y23.962 E158.15794
G1 X-46.176 Y24.032 E158.2301
G1 X-47.047 Y24.338 E158.30207
G1 X-47.8 Y24.846 E158.37287
G1 X-48.407 Y25.546 E158.4451
G1 X-48.812 Y26.377 E158.51716
G1 X-48.987 Y27.286 E158.58932
G1 X-48.922 Y28.209 E158.66145
G1 X-48.62 Y29.085 E158.73369
G1 X-48.09 Y29.861 E158.80694
G1 X-47.389 Y30.465 E158.87907
G1 X-46.555 Y30.865 E158.95118
G1 X-45.647 Y31.037 E159.02322
G0 F12000 X-45.682 Y31.665
G0 X-45.682 Y31.665
G1 F900 X-44.595 Y31.583 E159.10819
G1 X-43.571 Y31.223 E159.19281
G1 X-42.682 Y30.624 E159.27637
G1 X-41.968 Y29.8 E159.36136
G1 X-41.491 Y28.821 E159.44626
G1 X-41.285 Y27.752 E159.53112
G1 X-41.345 Y26.888 E159.59864
G1 X-40.284 Y27.702 E159.70288
G1 X-36.746 Y29.167 E160.00139
G1 X-32.95 Y29.666 E160.29985
G1 X-29.154 Y29.167 E160.5983
G1 X-25.616 Y27.702 E160.89681
G1 X-24.94 Y27.183 E160.96325
G0 F12000 X-24.781 Y27.389
G1 F900 X-24.545 Y26.88 E161.00698
G0 F12000 X-24.622 Y27.596
G1 F900 X-24.455 Y28.672 E161.09187
G1 X-24.014 Y29.672 E161.17706
G1 X-23.316 Y30.531 E161.26334
G1 X-22.432 Y31.171 E161.34842
G1 X-21.415 Y31.558 E161.43324
G1 X-20.334 Y31.67 E161.51796
G1 X-19.257 Y31.498 E161.60298
G1 X-18.267 Y31.053 E161.68759
G1 X-17.431 Y30.382 E161.77116
G1 X-16.788 Y29.501 E161.85618
G1 X-16.395 Y28.486 E161.94103
G1 X-16.278 Y27.403 E162.02594
G1 X-16.445 Y26.327 E162.11083
G1 X-16.886 Y25.327 E162.19602
G1 X-17.583 Y24.468 E162.28226
G1 X-18.466 Y23.828 E162.36727
G1 X-19.484 Y23.441 E162.45216
G1 X-20.566 Y23.329 E162.53696
G0 F12000 X-20.706 Y23.221
G1 F900 X-21.074 Y23.41 E162.56921
G0 F12000 X-20.847 Y23.114
G1 F900 X-20.248 Y22.333 E162.64594
G1 X-18.783 Y18.795 E162.94444
G1 X-18.282 Y14.999 E163.24292
G1 X-18.783 Y11.204 E163.54132
G1 X-20.248 Y7.666 E163.83983
G1 X-20.828 Y6.909 E163.91417
G0 F12000 X-20.673 Y6.79
G1 F900 X-21.075 Y6.588 E163.94924
G0 F12000 X-20.518 Y6.671
G1 F900 X-19.434 Y6.546 E164.0343
G1 X-18.427 Y6.147 E164.11874
G1 X-17.563 Y5.514 E164.20223
G1 X-16.881 Y4.663 E164.28725
G1 X-16.442 Y3.666 E164.37217
G1 X-16.277 Y2.588 E164.45718
G1 X-16.397 Y1.505 E164.54212
G1 X-16.793 Y0.487 E164.62727
G1 X-17.452 Y-0.401 E164.71347
G1 X-18.305 Y-1.078 E164.79836
G1 X-19.306 Y-1.512 E164.88341
G1 X-20.384 Y-1.671 E164.96836
G1 X-21.464 Y-1.546 E165.05311
G1 X-22.471 Y-1.148 E165.13751
G1 X-23.338 Y-0.514 E165.22124
G1 X-24.019 Y0.337 E165.30621
G1 X-24.457 Y1.333 E165.39102
G1 X-24.622 Y2.41 E165.47596
G0 F12000 X-24.778 Y2.615
G1 F900 X-24.544 Y3.12 E165.51935
G0 F12000 X-24.935 Y2.82
G1 F900 X-25.616 Y2.297 E165.58628
G1 X-29.154 Y0.832 E165.88479
G1 X-32.95 Y0.333 E166.18325
G1 X-36.746 Y0.832 E166.48171
G1 X-40.284 Y2.297 E166.78021
G1 X-41.331 Y3.101 E166.88312
G1 X-41.296 Y2.103 E166.96096
G1 X-41.54 Y1.043 E167.04576
G1 X-42.051 Y0.077 E167.13095
G1 X-42.808 Y-0.73 E167.2172
G1 X-43.732 Y-1.302 E167.30191
G1 X-44.761 Y-1.616 E167.38578
G1 X-45.863 Y-1.651 E167.47173
G1 X-46.925 Y-1.403 E167.55674
G1 X-47.882 Y-0.889 E167.64142
G1 X-48.666 Y-0.159 E167.72493
G1 X-49.246 Y0.764 E167.80991
G1 X-49.566 Y1.807 E167.89495
G1 X-49.604 Y2.896 E167.97989
G1 X-49.36 Y3.956 E168.06469
G1 X-48.849 Y4.922 E168.14988
G1 X-48.092 Y5.729 E168.23613
G1 X-47.165 Y6.303 E168.32112
G1 X-46.123 Y6.616 E168.40594
G1 X-45.035 Y6.651 E168.49079
G0 F12000 X-44.983 Y6.69
G1 F900 X-44.837 Y6.605 E168.50396
G0 F12000 X-44.932 Y6.729
G1 F900 X-45.652 Y7.666 E168.59608
G1 X-47.117 Y11.204 E168.89459
G1 X-47.616 Y15 E169.19305
G1 X-47.117 Y18.795 E169.49143
G1 X-45.652 Y22.333 E169.78993
G1 X-45.008 Y23.172 E169.87238
G0 F12000 X-45.113 Y23.253
G1 F900 X-44.827 Y23.408 E169.89774
G0 F12000 X-45.218 Y23.334
G1 F900 X-46.305 Y23.416 E169.98272
G1 X-47.329 Y23.776 E170.06733
G1 X-48.218 Y24.375 E170.15089
G1 X-48.932 Y25.199 E170.23589
G1 X-49.409 Y26.178 E170.32078
G1 X-49.616 Y27.248 E170.40574
G1 X-49.539 Y28.335 E170.49069
G1 X-49.182 Y29.368 E170.57588
G1 X-48.559 Y30.28 E170.66198
G1 X-47.733 Y30.992 E170.74699
G1 X-46.751 Y31.463 E170.83189
G1 X-45.682 Y31.665 E170.9167
G0 F12000 X-33.003 Y28.816
G0 X-33.003 Y28.816
G0 X-32.95 Y28.408
; TYPE:WALL-OUTER
G1 F900 X-32.95 Y28.408 E170.9167
G1 X-29.48 Y27.951 E171.18953
G1 X-26.246 Y26.612 E171.46239
G1 X-23.468 Y24.48 E171.73537
G1 X-21.338 Y21.703 E172.00819
G1 X-19.999 Y18.469 E172.28104
G1 X-19.541 Y14.999 E172.55389
G1 X-19.999 Y11.53 E172.82666
G1 X-21.338 Y8.296 E173.09951
G1 X-23.468 Y5.519 E173.37233
G1 X-26.246 Y3.387 E173.64531
G1 X-29.48 Y2.048 E173.91817
G1 X-32.95 Y1.591 E174.191
G1 X-36.42 Y2.048 E174.46384
G1 X-39.654 Y3.387 E174.73669
G1 X-42.431 Y5.519 E175.00961
G1 X-44.562 Y8.296 E175.28248
G1 X-45.901 Y11.53 E175.55533
G1 X-46.358 Y15 E175.82817
G1 X-45.901 Y18.469 E176.10092
G1 X-44.562 Y21.703 E176.37378
G1 X-42.431 Y24.48 E176.64665
G1 X-39.654 Y26.612 E176.91957
G1 X-36.42 Y27.951 E177.19242
G1 X-32.95 Y28.408 E177.46526
G0 F12000 X-32.95 Y29.037
; TYPE:WALL-INNER
G1 F900 X-32.95 Y29.037 E177.46526
G1 X-29.317 Y28.559 E177.7509
G1 X-25.931 Y27.157 E178.03658
G1 X-23.023 Y24.925 E178.32235
G1 X-20.793 Y22.018 E178.60796
G1 X-19.391 Y18.632 E178.89364
G1 X-18.912 Y14.999 E179.17929
G1 X-19.391 Y11.367 E179.46487
G1 X-20.793 Y7.981 E179.75055
G1 X-23.023 Y5.074 E180.03616
G1 X-25.931 Y2.842 E180.32192
G1 X-29.317 Y1.44 E180.60761
G1 X-32.95 Y0.962 E180.89325
G1 X-36.583 Y1.44 E181.1789
G1 X-39.969 Y2.842 E181.46458
G1 X-42.876 Y5.074 E181.75028
G1 X-45.107 Y7.981 E182.03594
G1 X-46.509 Y11.367 E182.32162
G1 X-46.987 Y15 E182.60726
G1 X-46.509 Y18.632 E182.89283
G1 X-45.107 Y22.018 E183.17851
G1 X-42.876 Y24.925 E183.46417
G1 X-39.969 Y27.157 E183.74987
G1 X-36.583 Y28.559 E184.03555
G1 X-32.95 Y29.037 E184.3212
G0 F12000 X-23.173 Y30.427
G0 X-20.355 Y30.927
G0 X-20.495 Y30.808
G0 X-20.41 Y30.821
G0 X-20.41 Y30.821
G0 X-20.368 Y30.412
; TYPE:WALL-OUTER
G1 F900 X-20.368 Y30.412 E184.3212
G1 X-19.617 Y30.292 E184.38048
G1 X-18.924 Y29.98 E184.43973
G1 X-18.341 Y29.512 E184.49801
G1 X-17.893 Y28.898 E184.55726
G1 X-17.618 Y28.188 E184.61661
G1 X-17.536 Y27.432 E184.67589
G1 X-17.653 Y26.681 E184.73514
G1 X-17.96 Y25.984 E184.79451
G1 X-18.449 Y25.382 E184.85497
G1 X-19.064 Y24.936 E184.91419
G1 X-19.775 Y24.666 E184.97348
G1 X-20.532 Y24.587 E185.03281
G1 X-21.283 Y24.707 E185.09209
G1 X-21.976 Y25.019 E185.15134
G1 X-22.558 Y25.487 E185.20955
G1 X-23.007 Y26.101 E185.26885
G1 X-23.282 Y26.811 E185.3282
G1 X-23.364 Y27.567 E185.38748
G1 X-23.247 Y28.318 E185.44673
G1 X-22.94 Y29.015 E185.5061
G1 X-22.451 Y29.617 E185.56656
G1 X-21.834 Y30.063 E185.62591
G1 X-21.124 Y30.333 E185.68512
G1 X-20.368 Y30.412 E185.74438
G0 F12000 X-20.351 Y31.041
; TYPE:WALL-INNER
G1 F900 X-20.351 Y31.041 E185.74438
G1 X-19.437 Y30.895 E185.81653
G1 X-18.595 Y30.517 E185.88848
G1 X-17.886 Y29.947 E185.95939
G1 X-17.34 Y29.2 E186.03152
G1 X-17.007 Y28.337 E186.10363
G1 X-16.907 Y27.417 E186.17577
G1 X-17.049 Y26.504 E186.24779
G1 X-17.423 Y25.655 E186.32011
G1 X-18.016 Y24.925 E186.39343
G1 X-18.765 Y24.382 E186.46555
G1 X-19.63 Y24.054 E186.53766
G1 X-20.549 Y23.958 E186.60969
G1 X-21.463 Y24.104 E186.68184
G1 X-22.305 Y24.482 E186.75379
G1 X-23.013 Y25.052 E186.82464
G1 X-23.559 Y25.799 E186.89677
G1 X-23.893 Y26.662 E186.96891
G1 X-23.993 Y27.582 E187.04105
G1 X-23.851 Y28.495 E187.11308
G1 X-23.477 Y29.344 E187.1854
G1 X-22.884 Y30.074 E187.25871
G1 X-22.133 Y30.617 E187.33095
G1 X-21.269 Y30.945 E187.403
G1 X-20.351 Y31.041 E187.47495
G1 F6000 E185.67495
G1 Z0.8
G0 F12000 X-20.351 Y30.925
G0 X-19.47 Y30.785
G0 X-18.655 Y30.419
G0 X-17.969 Y29.868
G0 X-17.441 Y29.144
G0 X-17.117 Y28.31
G0 X-17.021 Y27.42
G0 X-17.158 Y26.536
G0 X-17.521 Y25.715
G0 X-18.095 Y25.008
G0 X-18.819 Y24.483
G0 X-19.656 Y24.165
G0 X-20.406 Y24.086
G0 X-20.435 Y20.548
G0 X-19.501 Y18.602
G0 X-19.026 Y14.999
G0 X-19.501 Y11.397
G0 X-20.528 Y9.235
G0 X-20.555 Y5.933
G0 X-20.558 Y5.533
G0 X-20.557 Y5.819
G0 X-20.557 Y5.819
G0 X-20.497 Y5.413
; TYPE:WALL-OUTER
G1 Z0.3
G1 F6000 E187.47495
G1 F900 X-20.497 Y5.413 E187.47495
G1 X-19.741 Y5.325 E187.53428
G1 X-19.036 Y5.045 E187.59341
G1 X-18.433 Y4.604 E187.65165
G1 X-17.957 Y4.01 E187.71098
G1 X-17.651 Y3.314 E187.77025
G1 X-17.535 Y2.562 E187.82957
G1 X-17.619 Y1.805 E187.88894
G1 X-17.895 Y1.096 E187.94825
G1 X-18.357 Y0.474 E188.00865
G1 X-18.952 Y0.001 E188.0679
G1 X-19.651 Y-0.302 E188.12729
G1 X-20.403 Y-0.413 E188.18654
G1 X-21.158 Y-0.325 E188.2458
G1 X-21.864 Y-0.046 E188.30497
G1 X-22.467 Y0.395 E188.36321
G1 X-22.942 Y0.989 E188.4225
G1 X-23.248 Y1.685 E188.48177
G1 X-23.364 Y2.437 E188.54108
G1 X-23.281 Y3.194 E188.60044
G1 X-23.005 Y3.903 E188.65975
G1 X-22.543 Y4.525 E188.72015
G1 X-21.947 Y4.997 E188.77942
G1 X-21.263 Y5.298 E188.83767
G1 X-20.497 Y5.413 E188.89805
G0 F12000 X-20.507 Y6.042
; TYPE:WALL-INNER
G1 F900 X-20.507 Y6.042 E188.89805
G1 X-19.588 Y5.936 E188.97017
G1 X-18.732 Y5.596 E189.04197
G1 X-17.998 Y5.059 E189.11286
G1 X-17.419 Y4.336 E189.18507
G1 X-17.047 Y3.49 E189.25711
G1 X-16.906 Y2.575 E189.32928
G1 X-17.008 Y1.655 E189.40144
G1 X-17.344 Y0.791 E189.4737
G1 X-17.905 Y0.037 E189.54696
G1 X-18.628 Y-0.539 E189.61902
G1 X-19.478 Y-0.907 E189.69123
G1 X-20.393 Y-1.042 E189.76333
G1 X-21.311 Y-0.936 E189.83536
G1 X-22.168 Y-0.597 E189.90721
G1 X-22.902 Y-0.06 E189.9781
G1 X-23.481 Y0.663 E190.05031
G1 X-23.852 Y1.509 E190.12232
G1 X-23.993 Y2.424 E190.19449
G1 X-23.892 Y3.344 E190.26664
G1 X-23.556 Y4.208 E190.3389
G1 X-22.995 Y4.963 E190.41223
G1 X-22.272 Y5.536 E190.48414
G1 X-21.438 Y5.903 E190.55517
G1 X-20.507 Y6.042 E190.62855
G0 F12000 X-2.305 Y6.695
G0 X-1.906 Y6.709
G0 X-1.714 Y6.717
G0 X-1.714 Y6.717
G0 X-1.681 Y6.306
; TYPE:WALL-OUTER
G1 F900 X-1.681 Y6.306 E190.62855
G1 X-0.059 Y6.008 E190.75711
G1 X1.429 Y5.302 E190.88549
G1 X2.684 Y4.234 E191.01396
G1 X3.62 Y2.877 E191.14246
G1 X4.174 Y1.324 E191.271
G1 X4.306 Y-0.318 E191.39941
G1 X4.008 Y-1.94 E191.52796
G1 X3.302 Y-3.429 E191.65642
G1 X2.234 Y-4.684 E191.78489
G1 X0.877 Y-5.62 E191.91339
G1 X-0.675 Y-6.174 E192.04185
G1 X-2.318 Y-6.306 E192.17034
G1 X-3.94 Y-6.008 E192.2989
G1 X-5.429 Y-5.302 E192.42736
G1 X-6.684 Y-4.234 E192.55582
G1 X-7.62 Y-2.877 E192.68433
G1 X-8.174 Y-1.324 E192.81286
G1 X-8.306 Y0.318 E192.94127
G1 X-8.008 Y1.94 E193.06983
G1 X-7.302 Y3.429 E193.19829
G1 X-6.234 Y4.684 E193.32675
G1 X-4.877 Y5.62 E193.45525
G1 X-3.324 Y6.174 E193.58379
G1 X-1.681 Y6.306 E193.71228
G0 F12000 X-1.649 Y6.935
; TYPE:WALL-INNER
G1 F900 X-1.649 Y6.935 E193.71228
G1 X0.134 Y6.607 E193.8536
G1 X1.771 Y5.831 E193.99482
G1 X3.151 Y4.656 E194.13611
G1 X4.18 Y3.164 E194.2774
G1 X4.789 Y1.456 E194.41875
G1 X4.935 Y-0.35 E194.55999
G1 X4.607 Y-2.133 E194.70132
G1 X3.831 Y-3.771 E194.84261
G1 X2.656 Y-5.151 E194.9839
G1 X1.164 Y-6.18 E195.12518
G1 X-0.543 Y-6.789 E195.26646
G1 X-2.35 Y-6.935 E195.40779
G1 X-4.133 Y-6.607 E195.54911
G1 X-5.771 Y-5.831 E195.6904
G1 X-7.151 Y-4.656 E195.83169
G1 X-8.18 Y-3.164 E195.97297
G1 X-8.789 Y-1.456 E196.11433
G1 X-8.935 Y0.35 E196.25557
G1 X-8.607 Y2.133 E196.39689
G1 X-7.831 Y3.771 E196.53819
G1 X-6.656 Y5.151 E196.67947
G1 X-5.164 Y6.18 E196.82076
G1 X-3.456 Y6.789 E196.96211
G1 X-1.649 Y6.935 E197.10344
G0 F12000 X-1.618 Y7.563
G1 F900 X-1.618 Y7.563 E197.10344
G1 X0.328 Y7.206 E197.25766
G1 X2.112 Y6.359 E197.41161
G1 X3.618 Y5.078 E197.56573
G1 X4.741 Y3.451 E197.71984
G1 X5.404 Y1.588 E197.87399
G1 X5.563 Y-0.381 E198.02798
G1 X5.206 Y-2.326 E198.18214
G1 X4.359 Y-4.112 E198.33622
G1 X3.078 Y-5.618 E198.49035
G1 X1.451 Y-6.741 E198.64445
G1 X-0.411 Y-7.404 E198.79853
G1 X-2.381 Y-7.563 E198.9526
G1 X-4.326 Y-7.206 E199.10675
G1 X-6.112 Y-6.359 E199.26084
G1 X-7.618 Y-5.078 E199.41496
G1 X-8.741 Y-3.451 E199.56907
G1 X-9.404 Y-1.588 E199.72322
G1 X-9.563 Y0.381 E199.87721
G1 X-9.206 Y2.326 E200.03136
G1 X-8.359 Y4.112 E200.18545
G1 X-7.078 Y5.618 E200.33957
G1 X-5.451 Y6.741 E200.49368
G1 X-3.588 Y7.404 E200.64783
G1 X-1.618 Y7.563 E200.8019
G1 F6000 E199.0019
G1 Z0.8
G0 F12000 X-2.934 Y6.621
G0 X-3.431 Y6.677
G0 X-5.112 Y6.079
G0 X-6.58 Y5.067
G0 X-7.734 Y3.708
G0 X-7.934 Y3.05
G0 X-22.959 Y-7.678
G0 X-22.959 Y-7.678
G0 X-22.912 Y-8.087
; TYPE:WALL-OUTER
G1 Z0.3
G1 F6000 E200.8019
G1 F900 X-22.912 Y-8.087 E200.8019
G1 X-22.174 Y-8.19 E200.85999
G1 X-21.461 Y-8.496 E200.92047
G1 X-20.875 Y-8.953 E200.9784
G1 X-20.415 Y-9.559 E201.03771
G1 X-20.129 Y-10.265 E201.09709
G1 X-20.035 Y-11.02 E201.1564
G1 X-20.14 Y-11.774 E201.21574
G1 X-20.436 Y-12.475 E201.27506
G1 X-20.919 Y-13.087 E201.33583
G1 X-21.528 Y-13.541 E201.39505
G1 X-22.235 Y-13.823 E201.45438
G1 X-22.989 Y-13.912 E201.51357
G1 X-23.741 Y-13.802 E201.57281
G1 X-24.439 Y-13.503 E201.63201
G1 X-25.025 Y-13.046 E201.68993
G1 X-25.485 Y-12.44 E201.74924
G1 X-25.771 Y-11.734 E201.80862
G1 X-25.865 Y-10.979 E201.86793
G1 X-25.759 Y-10.225 E201.92729
G1 X-25.463 Y-9.524 E201.9866
G1 X-24.98 Y-8.912 E202.04738
G1 X-24.372 Y-8.458 E202.10653
G1 X-23.665 Y-8.176 E202.16587
G1 X-22.912 Y-8.087 E202.22497
G0 F12000 X-22.905 Y-7.458
; TYPE:WALL-INNER
G1 F900 X-22.905 Y-7.458 E202.22497
G1 X-22.005 Y-7.583 E202.2958
G1 X-21.141 Y-7.955 E202.36913
G1 X-20.427 Y-8.511 E202.43968
G1 X-19.868 Y-9.248 E202.51179
G1 X-19.52 Y-10.106 E202.58396
G1 X-19.406 Y-11.024 E202.65607
G1 X-19.533 Y-11.941 E202.72824
G1 X-19.894 Y-12.796 E202.80059
G1 X-20.48 Y-13.538 E202.87429
G1 X-21.221 Y-14.09 E202.94632
G1 X-22.08 Y-14.433 E203.01842
G1 X-22.998 Y-14.541 E203.09048
G1 X-23.912 Y-14.407 E203.16249
G1 X-24.759 Y-14.045 E203.23429
G1 X-25.473 Y-13.488 E203.30488
G1 X-26.032 Y-12.751 E203.37699
G1 X-26.38 Y-11.893 E203.44917
G1 X-26.494 Y-10.974 E203.52136
G1 X-26.366 Y-10.058 E203.59346
G1 X-26.005 Y-9.203 E203.6658
G1 X-25.419 Y-8.461 E203.73951
G1 X-24.679 Y-7.909 E203.81148
G1 X-23.82 Y-7.566 E203.88358
G1 X-22.905 Y-7.458 E203.9554
G0 F12000 X-22.898 Y-6.829
G1 F900 X-22.898 Y-6.829 E203.9554
G1 X-21.836 Y-6.977 E204.03899
G1 X-20.82 Y-7.413 E204.12517
G1 X-19.979 Y-8.069 E204.20832
G1 X-19.321 Y-8.937 E204.29323
G1 X-18.911 Y-9.948 E204.37827
G1 X-18.777 Y-11.029 E204.46318
G1 X-18.926 Y-12.108 E204.54809
G1 X-19.352 Y-13.116 E204.6334
G1 X-20.041 Y-13.989 E204.72009
G1 X-20.914 Y-14.639 E204.80494
G1 X-21.925 Y-15.043 E204.88981
G1 X-23.007 Y-15.17 E204.97473
G1 X-24.083 Y-15.013 E205.0595
G1 X-25.079 Y-14.586 E205.14398
G1 X-25.921 Y-13.93 E205.22718
G1 X-26.579 Y-13.062 E205.31209
G1 X-26.989 Y-12.051 E205.39714
G1 X-27.124 Y-10.969 E205.48213
G1 X-26.973 Y-9.89 E205.56707
G1 X-26.547 Y-8.883 E205.6523
G1 X-25.858 Y-8.01 E205.739
G1 X-24.987 Y-7.36 E205.82372
G1 X-23.975 Y-6.956 E205.90866
G1 X-22.898 Y-6.829 E205.9932
G1 F6000 E204.1932
G1 Z0.8
G0 F12000 X-22.898 Y-7.572
G0 X-22.037 Y-7.693
G0 X-21.199 Y-8.053
G0 X-20.508 Y-8.591
G0 X-19.968 Y-9.305
G0 X-19.631 Y-10.135
G0 X-19.52 Y-11.023
G0 X-19.643 Y-11.909
G0 X-19.992 Y-12.737
G0 X-20.56 Y-13.456
G0 X-21.277 Y-13.99
G0 X-22.108 Y-14.322
G0 X-22.908 Y-14.415
G0 X-22.918 Y-21.565
G0 X-22.919 Y-21.965
G0 X-22.919 Y-21.679
G0 X-22.919 Y-21.679
G0 X-22.877 Y-22.088
; TYPE:WALL-OUTER
G1 Z0.3
G1 F6000 E205.9932
G1 F900 X-22.877 Y-22.088 E205.9932
G1 X-22.126 Y-22.206 E206.05246
G1 X-21.432 Y-22.514 E206.11165
G1 X-20.851 Y-22.977 E206.16956
G1 X-20.4 Y-23.589 E206.22882
G1 X-20.121 Y-24.297 E206.28814
G1 X-20.035 Y-25.054 E206.34753
G1 X-20.149 Y-25.806 E206.40682
G1 X-20.454 Y-26.504 E206.4662
G1 X-20.943 Y-27.11 E206.5269
G1 X-21.557 Y-27.557 E206.58611
G1 X-22.266 Y-27.831 E206.64536
G1 X-23.023 Y-27.911 E206.7047
G1 X-23.774 Y-27.793 E206.76396
G1 X-24.467 Y-27.485 E206.82308
G1 X-25.049 Y-27.022 E206.88105
G1 X-25.5 Y-26.41 E206.94031
G1 X-25.778 Y-25.702 E206.99961
G1 X-25.864 Y-24.945 E207.059
G1 X-25.75 Y-24.193 E207.11829
G1 X-25.446 Y-23.495 E207.17764
G1 X-24.957 Y-22.889 E207.23834
G1 X-24.342 Y-22.442 E207.29761
G1 X-23.633 Y-22.168 E207.35686
G1 X-22.877 Y-22.088 E207.41612
G0 F12000 X-22.861 Y-21.459
; TYPE:WALL-INNER
G1 F900 X-22.861 Y-21.459 E207.41612
G1 X-21.948 Y-21.602 E207.48816
G1 X-21.106 Y-21.976 E207.55998
G1 X-20.398 Y-22.54 E207.63054
G1 X-19.849 Y-23.284 E207.70262
G1 X-19.51 Y-24.145 E207.77475
G1 X-19.406 Y-25.066 E207.847
G1 X-19.544 Y-25.981 E207.91914
G1 X-19.916 Y-26.831 E207.99147
G1 X-20.509 Y-27.566 E208.06509
G1 X-21.256 Y-28.11 E208.13712
G1 X-22.119 Y-28.443 E208.20923
G1 X-23.039 Y-28.54 E208.28134
G1 X-23.952 Y-28.397 E208.35338
G1 X-24.793 Y-28.023 E208.42513
G1 X-25.502 Y-27.459 E208.49576
G1 X-26.051 Y-26.715 E208.56783
G1 X-26.389 Y-25.853 E208.64001
G1 X-26.493 Y-24.933 E208.71218
G1 X-26.355 Y-24.019 E208.78424
G1 X-25.985 Y-23.168 E208.85658
G1 X-25.391 Y-22.433 E208.93025
G1 X-24.643 Y-21.889 E209.00235
G1 X-23.78 Y-21.556 E209.07445
G1 X-22.861 Y-21.459 E209.14649
G0 F12000 X-22.845 Y-20.83
G1 F900 X-22.845 Y-20.83 E209.14649
G1 X-21.77 Y-20.999 E209.23132
G1 X-20.779 Y-21.438 E209.31581
G1 X-19.945 Y-22.103 E209.39896
G1 X-19.299 Y-22.979 E209.48381
G1 X-18.899 Y-23.993 E209.56878
G1 X-18.777 Y-25.077 E209.65382
G1 X-18.939 Y-26.155 E209.7388
G1 X-19.378 Y-27.158 E209.82414
G1 X-20.076 Y-28.022 E209.91073
G1 X-20.955 Y-28.663 E209.99553
G1 X-21.971 Y-29.055 E210.08043
G1 X-23.055 Y-29.169 E210.16539
G1 X-24.13 Y-29 E210.25022
G1 X-25.119 Y-28.561 E210.33457
G1 X-25.955 Y-27.896 E210.41784
G1 X-26.602 Y-27.019 E210.5028
G1 X-27 Y-26.005 E210.58772
G1 X-27.122 Y-24.922 E210.67267
G1 X-26.96 Y-23.845 E210.75757
G1 X-26.523 Y-22.842 E210.84286
G1 X-25.824 Y-21.977 E210.92955
G1 X-24.944 Y-21.336 E211.01442
G1 X-23.928 Y-20.944 E211.09931
G1 X-22.845 Y-20.83 E211.1842
G0 F12000 X-39.754 Y-9.923
G0 X-39.708 Y-9.878
G0 X-40.11 Y-9.077
G0 X-40.703 Y-8.408
G0 X-41.434 Y-7.925
G0 X-42.28 Y-7.637
G0 X-43.243 Y-7.673
G0 X-43.22 Y-7.689
G0 X-43.22 Y-7.689
G0 X-43.139 Y-8.093
; TYPE:WALL-OUTER
G1 F900 X-43.139 Y-8.093 E211.1842
G1 X-42.38 Y-8.142 E211.24349
G1 X-41.661 Y-8.388 E211.30273
G1 X-41.041 Y-8.797 E211.36063
G1 X-40.536 Y-9.366 E211.41994
G1 X-40.196 Y-10.046 E211.4792
G1 X-40.042 Y-10.792 E211.53858
G1 X-40.088 Y-11.552 E211.59794
G1 X-40.328 Y-12.275 E211.65732
G1 X-40.762 Y-12.921 E211.71799
G1 X-41.333 Y-13.423 E211.77725
G1 X-42.015 Y-13.758 E211.83649
G1 X-42.76 Y-13.906 E211.8957
G1 X-43.52 Y-13.857 E211.95506
G1 X-44.239 Y-13.611 E212.0143
G1 X-44.858 Y-13.202 E212.07214
G1 X-45.364 Y-12.634 E212.13144
G1 X-45.704 Y-11.953 E212.19077
G1 X-45.854 Y-11.225 E212.24871
G1 X-45.812 Y-10.448 E212.30937
G1 X-45.572 Y-9.724 E212.36883
G1 X-45.138 Y-9.078 E212.4295
G1 X-44.567 Y-8.576 E212.48876
G1 X-43.884 Y-8.241 E212.54807
G1 X-43.139 Y-8.093 E212.60728
G0 F12000 X-43.18 Y-7.465
; TYPE:WALL-INNER
G1 F900 X-43.18 Y-7.465 E212.60728
G1 X-42.257 Y-7.525 E212.67938
G1 X-41.384 Y-7.823 E212.75129
G1 X-40.629 Y-8.322 E212.82184
G1 X-40.015 Y-9.013 E212.89389
G1 X-39.601 Y-9.84 E212.96599
G1 X-39.414 Y-10.747 E213.03818
G1 X-39.47 Y-11.671 E213.11034
G1 X-39.763 Y-12.552 E213.18272
G1 X-40.289 Y-13.336 E213.25631
G1 X-40.984 Y-13.946 E213.3284
G1 X-41.813 Y-14.354 E213.40042
G1 X-42.719 Y-14.534 E213.47243
G1 X-43.643 Y-14.474 E213.54461
G1 X-44.516 Y-14.176 E213.61652
G1 X-45.27 Y-13.677 E213.687
G1 X-45.885 Y-12.987 E213.75906
G1 X-46.299 Y-12.159 E213.83122
G1 X-46.481 Y-11.272 E213.9018
G1 X-46.431 Y-10.331 E213.97526
G1 X-46.137 Y-9.447 E214.04788
G1 X-45.611 Y-8.663 E214.12148
G1 X-44.916 Y-8.053 E214.19357
G1 X-44.085 Y-7.645 E214.26573
G1 X-43.18 Y-7.465 E214.33766
G0 F12000 X-43.221 Y-6.837
G1 F900 X-43.221 Y-6.837 E214.33766
G1 X-42.134 Y-6.908 E214.42258
G1 X-41.107 Y-7.258 E214.50716
G1 X-40.216 Y-7.846 E214.59038
G1 X-39.494 Y-8.66 E214.67519
G1 X-39.006 Y-9.634 E214.76012
G1 X-38.786 Y-10.702 E214.84512
G1 X-38.852 Y-11.79 E214.93009
G1 X-39.197 Y-12.829 E215.01543
G1 X-39.816 Y-13.751 E215.102
G1 X-40.634 Y-14.47 E215.1869
G1 X-41.611 Y-14.95 E215.27175
G1 X-42.678 Y-15.162 E215.35655
G1 X-43.766 Y-15.091 E215.44155
G1 X-44.793 Y-14.741 E215.52613
G1 X-45.682 Y-14.153 E215.60922
G1 X-46.406 Y-13.34 E215.69408
G1 X-46.894 Y-12.365 E215.77907
G1 X-47.108 Y-11.319 E215.8623
G1 X-47.05 Y-10.214 E215.94856
G1 X-46.703 Y-9.17 E216.03432
G1 X-46.084 Y-8.248 E216.12089
G1 X-45.266 Y-7.529 E216.20578
G1 X-44.287 Y-7.049 E216.29078
G1 X-43.221 Y-6.837 E216.37551
G1 F6000 E214.57551
G1 Z0.8
G0 F12000 X-44.173 Y-0.665
G0 X-44.039 Y-0.625
G0 X-43.28 Y-0.154
G0 X-42.657 Y0.509
G0 X-42.236 Y1.303
G0 X-42.035 Y2.174
G0 X-42.067 Y3.068
G0 X-42.33 Y3.925
G0 X-42.805 Y4.683
G0 X-43.45 Y5.284
G0 X-44.238 Y5.707
G0 X-45.189 Y5.916
G0 X-45.173 Y5.81
G0 X-45.173 Y5.81
G0 X-45.16 Y5.398
; TYPE:WALL-OUTER
G1 Z0.3
G1 F6000 E216.37551
G1 F900 X-45.16 Y5.398 E216.37551
G1 X-44.42 Y5.224 E216.43476
G1 X-43.75 Y4.865 E216.49402
G1 X-43.202 Y4.355 E216.55237
G1 X-42.799 Y3.711 E216.6116
G1 X-42.576 Y2.983 E216.67095
G1 X-42.549 Y2.223 E216.73023
G1 X-42.719 Y1.482 E216.78949
G1 X-43.076 Y0.809 E216.84888
G1 X-43.606 Y0.244 E216.90927
G1 X-44.251 Y-0.156 E216.96843
G1 X-44.967 Y-0.374 E217.02678
G1 X-45.739 Y-0.398 E217.08699
G1 X-46.48 Y-0.225 E217.1463
G1 X-47.149 Y0.134 E217.20549
G1 X-47.696 Y0.643 E217.26374
G1 X-48.101 Y1.288 E217.32311
G1 X-48.324 Y2.016 E217.38246
G1 X-48.351 Y2.776 E217.44174
G1 X-48.181 Y3.517 E217.501
G1 X-47.824 Y4.19 E217.56039
G1 X-47.294 Y4.755 E217.62078
G1 X-46.648 Y5.155 E217.68001
G1 X-45.92 Y5.374 E217.73927
G1 X-45.16 Y5.398 E217.79855
G0 F12000 X-45.098 Y6.025
; TYPE:WALL-INNER
G1 F900 X-45.098 Y6.025 E217.79855
G1 X-44.197 Y5.813 E217.8707
G1 X-43.384 Y5.377 E217.94262
G1 X-42.717 Y4.756 E218.01366
G1 X-42.226 Y3.972 E218.08577
G1 X-41.955 Y3.087 E218.15792
G1 X-41.922 Y2.163 E218.22999
G1 X-42.129 Y1.262 E218.30206
G1 X-42.564 Y0.443 E218.37435
G1 X-43.207 Y-0.243 E218.44765
G1 X-43.992 Y-0.729 E218.51962
G1 X-44.864 Y-0.995 E218.59069
G1 X-45.801 Y-1.024 E218.66376
G1 X-46.703 Y-0.814 E218.73596
G1 X-47.515 Y-0.377 E218.80784
G1 X-48.181 Y0.242 E218.87872
G1 X-48.674 Y1.026 E218.95091
G1 X-48.945 Y1.912 E219.02314
G1 X-48.978 Y2.836 E219.09521
G1 X-48.771 Y3.737 E219.16728
G1 X-48.336 Y4.556 E219.23957
G1 X-47.693 Y5.242 E219.31286
G1 X-46.907 Y5.729 E219.38494
G1 X-46.021 Y5.995 E219.45706
G1 X-45.098 Y6.025 E219.52904
G0 F12000 X-45.704 Y6.944
; TYPE:FILL
G1 F900 X-45.937 Y7.158 E219.55189
G1 X-45.619 Y7.106 E219.56764
G1 F6000 E217.76764
G1 Z0.8
G0 F12000 X-44.779 Y6.264
G0 X-42.805 Y4.683
G0 X-42.618 Y4.097
G0 X-40.898 Y2.372
G0 X-40.898 Y2.372
G1 Z0.3
G1 F6000 E219.56764
G1 F900 X-40.711 Y2.047 E219.57868
G0 F12000 X-40.724 Y3.614
G0 X-42.795 Y5.154
G0 X-45.008 Y8.039
G0 X-46.399 Y11.397
G0 X-46.873 Y15
G0 X-46.399 Y18.602
G0 X-45.008 Y21.96
G0 X-42.795 Y24.845
G0 X-40.916 Y26.237
G0 X-40.928 Y27.604
G0 X-40.928 Y27.604
G1 F900 X-40.818 Y27.816 E219.60606
G1 X-40.975 Y27.896 E219.61393
G1 X-40.24 Y28.125 E219.67394
G0 F12000 X-41.096 Y28.75
; TYPE:BOTTOM-FILL
G1 F900 X-38.73 Y28.75 E219.85838
G0 F12000 X-37.221 Y29.375
G0 X-37.221 Y29.375
G1 F900 X-41.344 Y29.375 E220.17978
G0 F12000 X-41.649 Y30
G1 F900 X-33.277 Y30 E220.8324
G0 F12000 X-32.621 Y30
G1 F900 X-24.229 Y30 E221.48659
G0 F12000 X-24.554 Y29.375
G1 F900 X-28.677 Y29.375 E221.80799
G0 F12000 X-27.167 Y28.75
G0 X-27.167 Y28.75
G1 F900 X-24.822 Y28.75 E221.99079
G0 F12000 X-24.92 Y28.125
G1 F900 X-25.657 Y28.125 E222.04824
G0 F12000 X-23.722 Y30.625
G0 X-23.722 Y30.625
G1 F900 X-42.188 Y30.625 E223.48773
G0 F12000 X-42.941 Y31.25
G1 F900 X-22.962 Y31.25 E225.04516
G0 F12000 X-21.634 Y31.875
G1 F900 X-44.297 Y31.875 E226.81182
G0 F12000 X-46.584 Y31.875
G1 F900 X-56.065 Y31.875 E227.5509
G0 F12000 X-56.065 Y31.25
G1 F900 X-48.007 Y31.25 E228.17905
G0 F12000 X-48.732 Y30.625
G1 F900 X-56.065 Y30.625 E228.75068
G0 F12000 X-56.065 Y30
G1 F900 X-49.204 Y30 E229.28552
G0 F12000 X-49.576 Y29.375
G1 F900 X-56.065 Y29.375 E229.79136
G0 F12000 X-56.065 Y28.75
G1 F900 X-49.792 Y28.75 E230.28036
G0 F12000 X-49.93 Y28.125
G1 F900 X-56.065 Y28.125 E230.75861
G0 F12000 X-56.065 Y27.5
G1 F900 X-49.974 Y27.5 E231.23342
G0 F12000 X-49.927 Y26.875
G1 F900 X-56.065 Y26.875 E231.7119
G0 F12000 X-56.065 Y26.25
G1 F900 X-49.806 Y26.25 E232.19981
G0 F12000 X-49.557 Y25.625
G1 F900 X-56.065 Y25.625 E232.70713
G0 F12000 X-56.065 Y25
G1 F900 X-49.252 Y25 E233.23823
G0 F12000 X-48.715 Y24.375
G1 F900 X-56.065 Y24.375 E233.81118
G0 F12000 X-56.065 Y23.75
G1 F900 X-47.963 Y23.75 E234.44276
G0 F12000 X-46.611 Y23.125
G1 F900 X-56.065 Y23.125 E235.17974
G0 F12000 X-56.065 Y22.5
G1 F900 X-45.989 Y22.5 E235.96519
G0 F12000 X-46.247 Y21.875
G1 F900 X-56.065 Y21.875 E236.73054
G0 F12000 X-56.065 Y21.25
G1 F900 X-46.506 Y21.25 E237.4757
G0 F12000 X-46.765 Y20.625
G1 F900 X-56.065 Y20.625 E238.20067
G0 F12000 X-56.065 Y20
G1 F900 X-47.023 Y20 E238.90552
G0 F12000 X-47.282 Y19.375
G1 F900 X-56.065 Y19.375 E239.59019
G0 F12000 X-56.065 Y18.75
G1 F900 X-47.501 Y18.75 E240.25778
G0 F12000 X-47.583 Y18.125
G1 F900 X-56.065 Y18.125 E240.91898
G0 F12000 X-56.065 Y17.5
G1 F900 X-47.665 Y17.5 E241.57379
G0 F12000 X-47.747 Y16.875
G1 F900 X-56.065 Y16.875 E242.22221
G0 F12000 X-56.065 Y16.25
G1 F900 X-47.829 Y16.25 E242.86423
G0 F12000 X-47.912 Y15.625
G1 F900 X-56.065 Y15.625 E243.49978
G0 F12000 X-56.065 Y15
G1 F900 X-47.994 Y15 E244.12895
G0 F12000 X-47.912 Y14.375
G1 F900 X-56.065 Y14.375 E244.7645
G0 F12000 X-56.065 Y13.75
G1 F900 X-47.83 Y13.75 E245.40645
G0 F12000 X-47.748 Y13.125
G1 F900 X-56.065 Y13.125 E246.05479
G0 F12000 X-56.065 Y12.5
G1 F900 X-47.665 Y12.5 E246.7096
G0 F12000 X-47.583 Y11.875
G1 F900 X-56.065 Y11.875 E247.3708
G0 F12000 X-56.065 Y11.25
G1 F900 X-47.501 Y11.25 E248.03839
G0 F12000 X-47.283 Y10.625
G1 F900 X-56.065 Y10.625 E248.72298
G0 F12000 X-56.065 Y10
G1 F900 X-47.025 Y10 E249.42768
G0 F12000 X-46.766 Y9.375
G1 F900 X-56.065 Y9.375 E250.15256
G0 F12000 X-56.065 Y8.75
G1 F900 X-46.507 Y8.75 E250.89764
G0 F12000 X-46.248 Y8.125
G1 F900 X-56.065 Y8.125 E251.66291
G0 F12000 X-56.065 Y7.5
G1 F900 X-45.99 Y7.5 E252.44829
G0 F12000 X-46.563 Y6.875
G1 F900 X-56.065 Y6.875 E253.18901
G0 F12000 X-56.065 Y6.25
G1 F900 X-47.961 Y6.25 E253.82074
G0 F12000 X-48.703 Y5.625
G1 F900 X-56.065 Y5.625 E254.39464
G0 F12000 X-56.065 Y5
G1 F900 X-49.231 Y5 E254.92737
G0 F12000 X-49.562 Y4.375
G1 F900 X-56.065 Y4.375 E255.4343
G0 F12000 X-56.065 Y3.75
G1 F900 X-49.792 Y3.75 E255.9233
G0 F12000 X-49.935 Y3.125
G1 F900 X-56.065 Y3.125 E256.40116
G0 F12000 X-56.065 Y2.5
G1 F900 X-49.965 Y2.5 E256.87667
G0 F12000 X-49.944 Y1.875
G1 F900 X-56.065 Y1.875 E257.35383
G0 F12000 X-56.065 Y1.25
G1 F900 X-49.788 Y1.25 E257.84314
G0 F12000 X-49.596 Y0.625
G1 F900 X-56.065 Y0.625 E258.34742
G0 F12000 X-56.065 Y0
G1 F900 X-49.209 Y0 E258.88187
G0 F12000 X-48.716 Y-0.624
G1 F900 X-56.065 Y-0.624 E259.45475
G0 F12000 X-56.065 Y-1.249
G1 F900 X-48.003 Y-1.249 E260.08321
G0 F12000 X-46.553 Y-1.874
G0 X-46.553 Y-1.874
G1 F900 X-56.065 Y-1.874 E260.8247
G0 F12000 X-56.065 Y-2.499
G1 F900 X-9.477 Y-2.499 E264.4564
G0 F12000 X-9.699 Y-1.874
G1 F900 X-19.2 Y-1.874 E265.19703
G0 F12000 X-17.918 Y-1.249
G1 F900 X-9.808 Y-1.249 E265.82924
G0 F12000 X-9.858 Y-0.624
G1 F900 X-17.151 Y-0.624 E266.39775
G0 F12000 X-16.687 Y0
G1 F900 X-9.909 Y0 E266.92612
G0 F12000 X-9.899 Y0.625
G1 F900 X-16.337 Y0.625 E267.42798
G0 F12000 X-16.094 Y1.25
G1 F900 X-9.785 Y1.25 E267.91979
G0 F12000 X-9.67 Y1.875
G1 F900 X-15.978 Y1.875 E268.41152
G0 F12000 X-15.909 Y2.5
G1 F900 X-9.538 Y2.5 E268.90816
G0 F12000 X-9.242 Y3.125
G1 F900 X-15.98 Y3.125 E269.43341
G0 F12000 X-16.076 Y3.75
G1 F900 X-8.945 Y3.75 E269.9893
G0 F12000 X-8.627 Y4.375
G1 F900 X-16.346 Y4.375 E270.59102
G0 F12000 X-16.671 Y5
G1 F900 X-8.096 Y5 E271.25947
G0 F12000 X-7.565 Y5.625
G1 F900 X-17.172 Y5.625 E272.00837
G0 F12000 X-17.935 Y6.25
G1 F900 X-6.823 Y6.25 E272.87459
G0 F12000 X-5.917 Y6.875
G1 F900 X-19.248 Y6.875 E273.91379
G0 F12000 X-19.91 Y7.5
G1 F900 X-4.434 Y7.5 E275.12019
G0 F12000 X0.583 Y7.5
G0 X0.583 Y7.5
G1 F900 X56.065 Y7.499 E279.44521
G0 F12000 X56.065 Y6.874
G1 F900 X1.898 Y6.875 E283.66771
G0 F12000 X2.818 Y6.25
G1 F900 X56.065 Y6.249 E287.8185
G0 F12000 X56.065 Y5.624
G1 F900 X3.553 Y5.625 E291.91199
G0 F12000 X4.127 Y5
G1 F900 X56.065 Y4.999 E295.96074
G0 F12000 X56.065 Y4.374
G1 F900 X4.558 Y4.375 E299.97588
G0 F12000 X4.99 Y3.749
G1 F900 X56.065 Y3.749 E303.95736
G0 F12000 X56.065 Y3.124
G1 F900 X5.254 Y3.124 E307.91825
G0 F12000 X5.477 Y2.499
G1 F900 X56.065 Y2.499 E311.86176
G0 F12000 X56.065 Y1.874
G1 F900 X5.699 Y1.874 E315.78796
G0 F12000 X5.808 Y1.249
G1 F900 X56.065 Y1.249 E319.70567
G0 F12000 X56.065 Y0.624
G1 F900 X5.858 Y0.624 E323.61947
G0 F12000 X5.909 Y0
G1 F900 X56.065 Y0 E327.52931
G0 F12000 X56.065 Y-0.625
G1 F900 X5.899 Y-0.625 E331.43992
G0 F12000 X5.785 Y-1.25
G1 F900 X56.065 Y-1.25 E335.35942
G0 F12000 X56.065 Y-1.875
G1 F900 X5.67 Y-1.875 E339.28788
G0 F12000 X5.538 Y-2.5
G1 F900 X56.065 Y-2.5 E343.22664
G0 F12000 X56.065 Y-3.125
G1 F900 X5.242 Y-3.125 E347.18846
G0 F12000 X4.945 Y-3.75
G1 F900 X56.065 Y-3.75 E351.17344
G0 F12000 X56.065 Y-4.375
G1 F900 X4.628 Y-4.375 E355.18313
G0 F12000 X4.095 Y-5
G1 F900 X56.065 Y-5 E359.23437
G0 F12000 X56.065 Y-5.625
G1 F900 X3.564 Y-5.625 E363.32701
G0 F12000 X2.822 Y-6.25
G1 F900 X56.065 Y-6.25 E367.47748
G0 F12000 X56.065 Y-6.875
G1 F900 X1.916 Y-6.875 E371.69858
G0 F12000 X0.435 Y-7.5
G0 X0.435 Y-7.5
G1 F900 X56.065 Y-7.5 E376.03513
G0 F12000 X56.065 Y-8.125
G1 F900 X-19.466 Y-8.124 E381.92304
G0 F12000 X-18.992 Y-8.749
G1 F900 X56.065 Y-8.75 E387.77399
G0 F12000 X56.065 Y-9.375
G1 F900 X-18.739 Y-9.374 E393.60522
G0 F12000 X-18.527 Y-9.999
G1 F900 X56.065 Y-10 E399.41992
G0 F12000 X56.065 Y-10.625
G1 F900 X-18.449 Y-10.624 E405.22854
G0 F12000 X-18.429 Y-11.249
G1 F900 X56.065 Y-11.25 E411.03561
G0 F12000 X56.065 Y-11.875
G1 F900 X-18.516 Y-11.874 E416.84945
G0 F12000 X-18.684 Y-12.499
G1 F900 X56.065 Y-12.5 E422.67639
G0 F12000 X56.065 Y-13.125
G1 F900 X-18.948 Y-13.124 E428.52391
G0 F12000 X-19.374 Y-13.749
G1 F900 X56.065 Y-13.75 E434.40464
G0 F12000 X56.065 Y-14.375
G1 F900 X-19.931 Y-14.374 E440.32879
G0 F12000 X-20.807 Y-14.999
G1 F900 X56.065 Y-15 E446.32123
G0 F12000 X56.065 Y-15.625
G1 F900 X-56.065 Y-15.624 E455.06215
G0 F12000 X-56.065 Y-16.249
G1 F900 X56.065 Y-16.25 E463.80307
G0 F12000 X56.065 Y-16.875
G1 F900 X-56.065 Y-16.874 E472.54399
G0 F12000 X-56.065 Y-17.499
G1 F900 X56.065 Y-17.5 E481.28491
G0 F12000 X56.065 Y-18.125
G1 F900 X-56.065 Y-18.124 E490.02583
G0 F12000 X-56.065 Y-18.749
G1 F900 X56.065 Y-18.75 E498.76675
G0 F12000 X56.065 Y-19.375
G1 F900 X-56.065 Y-19.374 E507.50767
G0 F12000 X-56.065 Y-19.999
G1 F900 X56.065 Y-20 E516.24859
G0 F12000 X56.065 Y-20.625
G1 F900 X-21.734 Y-20.625 E522.31329
G0 F12000 X-20.413 Y-21.25
G1 F900 X56.065 Y-21.25 E528.27501
G0 F12000 X56.065 Y-21.875
G1 F900 X-19.647 Y-21.875 E534.17702
G0 F12000 X-19.186 Y-22.5
G1 F900 X56.065 Y-22.5 E540.04309
G0 F12000 X56.065 Y-23.125
G1 F900 X-18.839 Y-23.125 E545.88212
G0 F12000 X-18.592 Y-23.75
G1 F900 X56.065 Y-23.75 E551.70189
G0 F12000 X56.065 Y-24.375
G1 F900 X-18.478 Y-24.375 E557.51277
G0 F12000 X-18.408 Y-25
G1 F900 X56.065 Y-25 E563.3182
G0 F12000 X56.065 Y-25.625
G1 F900 X-18.48 Y-25.625 E569.12924
G0 F12000 X-18.574 Y-26.25
G1 F900 X56.065 Y-26.25 E574.94761
G0 F12000 X56.065 Y-26.875
G1 F900 X-18.845 Y-26.875 E580.7871
G0 F12000 X-19.173 Y-27.5
G1 F900 X56.065 Y-27.5 E586.65216
G0 F12000 X56.065 Y-28.125
G1 F900 X-19.677 Y-28.125 E592.55651
G0 F12000 X-20.437 Y-28.75
G1 F900 X56.065 Y-28.75 E598.5201
G0 F12000 X56.065 Y-29.375
G1 F900 X-21.758 Y-29.375 E604.58667
G0 F12000 X-24.16 Y-29.375
G0 X-24.16 Y-29.375
G1 F900 X-56.065 Y-29.374 E607.07378
G0 F12000 X-56.065 Y-29.999
G1 F900 X56.065 Y-30 E615.8147
G0 F12000 X56.065 Y-30.625
G1 F900 X-56.065 Y-30.624 E624.55562
G0 F12000 X-56.065 Y-31.249
G1 F900 X56.065 Y-31.25 E633.29654
G0 F12000 X56.065 Y-31.875
G1 F900 X-56.065 Y-31.874 E642.03746
G0 F12000 X-56.065 Y-32.499
G1 F900 X56.065 Y-32.5 E650.77838
G0 F12000 X56.065 Y-33.125
G1 F900 X-56.065 Y-33.125 E659.51929
G0 F12000 X-56.065 Y-33.75
G1 F900 X56.065 Y-33.75 E668.26021
G0 F12000 X56.065 Y-34.375
G1 F900 X-56.065 Y-34.375 E677.00113
G0 F12000 X-56.065 Y-35
G1 F900 X56.065 Y-35 E685.74205
G0 F12000 X56.065 Y-35.625
G1 F900 X-56.065 Y-35.625 E694.48297
G0 F12000 X-56.065 Y-28.749
G0 X-56.065 Y-28.749
G1 F900 X-25.484 Y-28.75 E696.86687
G0 F12000 X-26.253 Y-28.125
G1 F900 X-56.065 Y-28.124 E699.19081
G0 F12000 X-56.065 Y-27.499
G1 F900 X-26.714 Y-27.5 E701.47883
G0 F12000 X-27.061 Y-26.875
G1 F900 X-56.065 Y-26.874 E703.73979
G0 F12000 X-56.065 Y-26.249
G1 F900 X-27.307 Y-26.25 E705.98157
G0 F12000 X-27.421 Y-25.625
G1 F900 X-56.065 Y-25.624 E708.21447
G0 F12000 X-56.065 Y-24.999
G1 F900 X-27.49 Y-25 E710.44199
G0 F12000 X-27.419 Y-24.375
G1 F900 X-56.065 Y-24.374 E712.67504
G0 F12000 X-56.065 Y-23.749
G1 F900 X-27.325 Y-23.75 E714.91543
G0 F12000 X-27.055 Y-23.125
G1 F900 X-56.065 Y-23.124 E717.17686
G0 F12000 X-56.065 Y-22.499
G1 F900 X-26.729 Y-22.5 E719.4637
G0 F12000 X-26.224 Y-21.875
G1 F900 X-56.065 Y-21.874 E721.78991
G0 F12000 X-56.065 Y-21.249
G1 F900 X-25.464 Y-21.25 E724.17536
G0 F12000 X-24.144 Y-20.625
G1 F900 X-56.065 Y-20.624 E726.66371
G0 F12000 X-56.065 Y-14.999
G0 X-56.065 Y-14.999
G1 F900 X-45.083 Y-14.999 E727.5198
G0 F12000 X-45.987 Y-14.374
G1 F900 X-56.065 Y-14.374 E728.30541
G0 F12000 X-56.065 Y-13.749
G1 F900 X-46.543 Y-13.749 E729.04768
G0 F12000 X-46.933 Y-13.124
G1 F900 X-56.065 Y-13.124 E729.75955
G0 F12000 X-56.065 Y-12.499
G1 F900 X-47.245 Y-12.499 E730.4471
G0 F12000 X-47.377 Y-11.874
G1 F900 X-56.065 Y-11.874 E731.12436
G0 F12000 X-56.065 Y-11.249
G1 F900 X-47.479 Y-11.249 E731.79367
G0 F12000 X-47.447 Y-10.624
G1 F900 X-56.065 Y-10.624 E732.46547
G0 F12000 X-56.065 Y-9.999
G1 F900 X-47.375 Y-9.999 E733.14289
G0 F12000 X-47.167 Y-9.374
G1 F900 X-56.065 Y-9.374 E733.83652
G0 F12000 X-56.065 Y-8.749
G1 F900 X-46.873 Y-8.749 E734.55307
G0 F12000 X-46.453 Y-8.124
G1 F900 X-56.065 Y-8.124 E735.30236
G0 F12000 X-56.065 Y-7.499
G1 F900 X-45.801 Y-7.499 E736.10247
G0 F12000 X-44.784 Y-6.874
G1 F900 X-56.065 Y-6.874 E736.98186
G0 F12000 X-56.065 Y-6.249
G1 F900 X-6.819 Y-6.25 E740.82076
G0 F12000 X-7.554 Y-5.624
G1 F900 X-56.065 Y-5.624 E744.60236
G0 F12000 X-56.065 Y-4.999
G1 F900 X-8.128 Y-4.999 E748.33921
G0 F12000 X-8.559 Y-4.374
G1 F900 X-56.065 Y-4.374 E752.04247
G0 F12000 X-56.065 Y-3.749
G1 F900 X-8.99 Y-3.749 E755.71213
G0 F12000 X-9.254 Y-3.124
G1 F900 X-56.065 Y-3.124 E759.3612
G0 F12000 X-44.325 Y-1.874
G0 X-44.325 Y-1.874
G1 F900 X-21.649 Y-1.874 E761.12888
G0 F12000 X-22.966 Y-1.249
G1 F900 X-42.937 Y-1.249 E762.68569
G0 F12000 X-42.195 Y-0.624
G1 F900 X-23.729 Y-0.624 E764.12517
G0 F12000 X-24.23 Y0
G1 F900 X-32.607 Y0 E764.77819
G0 F12000 X-33.293 Y0
G1 F900 X-41.668 Y0 E765.43105
G0 F12000 X-41.337 Y0.625
G1 F900 X-37.228 Y0.625 E765.75136
G0 F12000 X-38.737 Y1.25
G0 X-38.737 Y1.25
G1 F900 X-41.108 Y1.25 E765.93619
G0 F12000 X-40.964 Y1.875
G1 F900 X-40.247 Y1.875 E765.99208
G0 F12000 X-41.07 Y-6.874
G0 X-41.07 Y-6.874
G1 F900 X-24.783 Y-6.874 E767.26171
G0 F12000 X-25.803 Y-7.499
G1 F900 X-40.061 Y-7.499 E768.37317
G0 F12000 X-39.468 Y-8.124
G1 F900 X-26.427 Y-8.124 E769.38976
G0 F12000 X-26.899 Y-8.749
G1 F900 X-39.029 Y-8.749 E770.33533
G0 F12000 X-38.716 Y-9.374
G1 F900 X-27.163 Y-9.374 E771.23593
G0 F12000 X-27.367 Y-9.999
G1 F900 X-38.548 Y-9.999 E772.10753
G0 F12000 X-38.419 Y-10.624
G1 F900 X-27.454 Y-10.624 E772.96229
G0 F12000 X-27.467 Y-11.249
G1 F900 X-38.444 Y-11.249 E773.81798
G0 F12000 X-38.485 Y-11.874
G1 F900 X-27.389 Y-11.874 E774.68295
G0 F12000 X-27.211 Y-12.499
G1 F900 X-38.692 Y-12.499 E775.57794
G0 F12000 X-38.944 Y-13.124
G1 F900 X-26.958 Y-13.124 E776.51229
G0 F12000 X-26.529 Y-13.749
G1 F900 X-39.364 Y-13.749 E777.51282
G0 F12000 X-39.958 Y-14.374
G1 F900 X-25.96 Y-14.374 E778.60401
G0 F12000 X-25.064 Y-14.999
G1 F900 X-40.862 Y-14.999 E779.83552
G0 F12000 X-28.672 Y0.625
G0 X-28.672 Y0.625
G1 F900 X-24.555 Y0.625 E780.15645
G0 F12000 X-24.823 Y1.25
G1 F900 X-27.162 Y1.25 E780.33879
G0 F12000 X-25.653 Y1.875
G0 X-25.653 Y1.875
G1 F900 X-24.919 Y1.875 E780.39601
G1 F6000 E778.59601
G1 Z0.8
G0 F12000 X-23.58 Y3.462
G0 X-23.456 Y4.152
G0 X-22.913 Y4.884
G0 X-21.831 Y5.538
G0 X-19.652 Y8.125
G0 X-19.652 Y8.125
G1 Z0.3
G1 F6000 E780.39601
G1 F900 X56.065 Y8.124 E786.29841
G0 F12000 X56.065 Y8.749
G1 F900 X-19.393 Y8.75 E792.18062
G0 F12000 X-19.134 Y9.375
G1 F900 X56.065 Y9.374 E798.04264
G0 F12000 X56.065 Y9.999
G1 F900 X-18.875 Y10 E803.88447
G0 F12000 X-18.617 Y10.625
G1 F900 X56.065 Y10.624 E809.70619
G0 F12000 X56.065 Y11.249
G1 F900 X-18.399 Y11.25 E815.51091
G0 F12000 X-18.316 Y11.875
G1 F900 X56.065 Y11.874 E821.30917
G0 F12000 X56.065 Y12.499
G1 F900 X-18.234 Y12.5 E827.10103
G0 F12000 X-18.151 Y13.125
G1 F900 X56.065 Y13.124 E832.88642
G0 F12000 X56.065 Y13.749
G1 F900 X-18.069 Y13.75 E838.66542
G0 F12000 X-17.986 Y14.375
G1 F900 X56.065 Y14.374 E844.43795
G0 F12000 X56.065 Y14.999
G1 F900 X-17.904 Y15 E850.20409
G0 F12000 X-17.987 Y15.625
G1 F900 X56.065 Y15.624 E855.9767
G0 F12000 X56.065 Y16.249
G1 F900 X-18.069 Y16.25 E861.7557
G0 F12000 X-18.152 Y16.875
G1 F900 X56.065 Y16.874 E867.54117
G0 F12000 X56.065 Y17.499
G1 F900 X-18.234 Y17.5 E873.33303
G0 F12000 X-18.317 Y18.125
G1 F900 X56.065 Y18.124 E879.13137
G0 F12000 X56.065 Y18.749
G1 F900 X-18.399 Y18.75 E884.93609
G0 F12000 X-18.618 Y19.375
G1 F900 X56.065 Y19.374 E890.75789
G0 F12000 X56.065 Y19.999
G1 F900 X-18.876 Y20 E896.5998
G0 F12000 X-19.135 Y20.625
G1 F900 X56.065 Y20.624 E902.4619
G0 F12000 X56.065 Y21.249
G1 F900 X-19.394 Y21.25 E908.34419
G0 F12000 X-19.653 Y21.875
G1 F900 X56.065 Y21.874 E914.24666
G0 F12000 X56.065 Y22.499
G1 F900 X-19.911 Y22.5 E920.16925
G0 F12000 X-19.262 Y23.125
G1 F900 X56.065 Y23.124 E926.04125
G0 F12000 X56.065 Y23.749
G1 F900 X-17.934 Y23.75 E931.80973
G0 F12000 X-17.176 Y24.375
G1 F900 X56.065 Y24.374 E937.51912
G0 F12000 X56.065 Y24.999
G1 F900 X-16.669 Y25 E943.18898
G0 F12000 X-16.344 Y25.625
G1 F900 X56.065 Y25.624 E948.83351
G0 F12000 X56.065 Y26.249
G1 F900 X-16.077 Y26.25 E954.45723
G0 F12000 X-15.979 Y26.875
G1 F900 X56.065 Y26.874 E960.07331
G0 F12000 X56.065 Y27.499
G1 F900 X-15.911 Y27.5 E965.68409
G0 F12000 X-15.978 Y28.125
G1 F900 X56.065 Y28.124 E971.30009
G0 F12000 X56.065 Y28.749
G1 F900 X-16.094 Y28.75 E976.92513
G0 F12000 X-16.336 Y29.375
G1 F900 X56.065 Y29.374 E982.56904
G0 F12000 X56.065 Y29.999
G1 F900 X-16.687 Y30 E988.2403
G0 F12000 X-17.143 Y30.625
G1 F900 X56.065 Y30.624 E993.94712
G0 F12000 X56.065 Y31.249
G1 F900 X-17.912 Y31.25 E999.71388
G0 F12000 X-19.242 Y31.875
G1 F900 X56.065 Y31.874 E1005.58432
G0 F12000 X56.065 Y32.499
G1 F900 X-56.065 Y32.5 E1014.32524
G0 F12000 X-56.065 Y33.125
G1 F900 X56.065 Y33.125 E1023.06616
G0 F12000 X56.065 Y33.75
G1 F900 X-56.065 Y33.75 E1031.80708
G0 F12000 X-56.065 Y34.375
G1 F900 X56.065 Y34.375 E1040.548
G0 F12000 X56.065 Y35
G1 F900 X-56.065 Y35 E1049.28892
G0 F12000 X-56.065 Y35.625
G1 F900 X56.065 Y35.625 E1058.02984
G1 F6000 E1056.22984
G1 Z0.8
G0 F12000 X4.653 Y-0.932
G0 X4.499 Y-2.098
G0 X3.734 Y-3.708
G0 X2.58 Y-5.067
G0 X1.112 Y-6.079
G0 X-0.568 Y-6.677
G0 X-2.344 Y-6.821
G0 X-3.301 Y-6.589
G0 X-4.581 Y-7.5
G0 X-4.581 Y-7.5
G1 Z0.3
G1 F6000 E1058.02984
G1 F900 X-20.099 Y-7.499 E1059.23952
G0 F12000 X-21.125 Y-6.874
G1 F900 X-5.899 Y-6.875 E1060.42644
G1 F6000 E1058.62644
G1 Z0.8
G0 F12000 X-59 Y-6.999
; TYPE:SUPPORT
G1 Z0.3
G1 F6000 E1060.42644
G1 F900 X-60.499 Y-6.999 E1060.51992
G0 F12000 X-60.499 Y-7.499
G1 F900 X-59 Y-7.499 E1060.6134
G0 F12000 X-59 Y-7.999
G1 F900 X-60.499 Y-7.999 E1060.70688
G0 F12000 X-60.499 Y-8.499
G1 F900 X-59 Y-8.499 E1060.80037
G0 F12000 X-59 Y-8.999
G1 F900 X-60.499 Y-8.999 E1060.89385
G0 F12000 X-60.499 Y-9.499
G1 F900 X-59 Y-9.499 E1060.98733
G0 F12000 X-59 Y-9.999
G1 F900 X-60.499 Y-9.999 E1061.08081
G0 F12000 X-60.499 Y-10.499
G1 F900 X-59 Y-10.499 E1061.17429
G0 F12000 X-59 Y-10.999
G1 F900 X-60.499 Y-10.999 E1061.26777
G0 F12000 X-60.499 Y-11.499
G1 F900 X-59 Y-11.499 E1061.36126
G0 F12000 X-59 Y-11.999
G1 F900 X-60.499 Y-11.999 E1061.45474
G0 F12000 X-60.499 Y-12.499
G1 F900 X-59 Y-12.499 E1061.54822
G0 F12000 X-59 Y-12.999
G1 F900 X-60.499 Y-12.999 E1061.6417
G0 F12000 X-60.499 Y-13.499
G1 F900 X-59 Y-13.499 E1061.73518
G0 F12000 X-59 Y-13.999
G1 F900 X-60.499 Y-13.999 E1061.82867
G0 F12000 X-60.499 Y-14.499
G1 F900 X-59 Y-14.499 E1061.92215
G0 F12000 X-59 Y-14.999
G1 F900 X-60.499 Y-14.999 E1062.01563
G0 F12000 X-60.499 Y-15.499
G1 F900 X-59 Y-15.499 E1062.10911
G0 F12000 X-59 Y-15.999
G1 F900 X-60.499 Y-15.999 E1062.20259
G0 F12000 X-60.499 Y-16.499
G1 F900 X-59 Y-16.499 E1062.29607
G0 F12000 X-59 Y-16.999
G1 F900 X-60.499 Y-16.999 E1062.38956
G0 F12000 X-60.499 Y-17.499
G1 F900 X-59 Y-17.499 E1062.48304
G0 F12000 X-59 Y-17.999
G1 F900 X-60.499 Y-17.999 E1062.57652
G0 F12000 X-60.499 Y-18.499
G1 F900 X-59 Y-18.499 E1062.67
G0 F12000 X-59 Y-18.999
G1 F900 X-60.499 Y-18.999 E1062.76348
G0 F12000 X-60.499 Y-19.499
G1 F900 X-59 Y-19.499 E1062.85696
G0 F12000 X-59 Y-19.999
G1 F900 X-60.499 Y-19.999 E1062.95045
G0 F12000 X-60.499 Y-20.499
G1 F900 X-59 Y-20.499 E1063.04393
G0 F12000 X-59 Y-20.999
G1 F900 X-60.499 Y-20.999 E1063.13741
G0 F12000 X-60.499 Y-21.499
G1 F900 X-59 Y-21.499 E1063.23089
G0 F12000 X-59 Y-21.999
G1 F900 X-60.499 Y-21.999 E1063.32437
G0 F12000 X-60.499 Y-22.499
G1 F900 X-59 Y-22.499 E1063.41786
G0 F12000 X-59 Y-22.999
G1 F900 X-60.499 Y-22.999 E1063.51134
G0 F12000 X-60.499 Y-23.499
G1 F900 X-59 Y-23.499 E1063.60482
G0 F12000 X-59 Y-23.999
G1 F900 X-60.499 Y-23.999 E1063.6983
G0 F12000 X-60.499 Y-24.499
G1 F900 X-59 Y-24.499 E1063.79178
G0 F12000 X-59 Y-24.999
G1 F900 X-60.499 Y-24.999 E1063.88526
G0 F12000 X-60.499 Y-25.499
G1 F900 X-59 Y-25.499 E1063.97875
G0 F12000 X-59 Y-25.999
G1 F900 X-60.499 Y-25.999 E1064.07223
G0 F12000 X-60.499 Y-26.499
G1 F900 X-59 Y-26.499 E1064.16571
G0 F12000 X-59 Y-26.999
G1 F900 X-60.499 Y-26.999 E1064.25919
G0 F12000 X-60.499 Y-27.499
G1 F900 X-59 Y-27.499 E1064.35267
G0 F12000 X-59 Y-27.999
G1 F900 X-60.499 Y-27.999 E1064.44615
G0 F12000 X-60.499 Y-28.499
G1 F900 X-59 Y-28.499 E1064.53964
G0 F12000 X-59 Y-28.999
G1 F900 X-60.499 Y-28.999 E1064.63312
G0 F12000 X-60.499 Y-29.499
G1 F900 X-59 Y-29.499 E1064.7266
G0 F12000 X-59 Y-29.999
G1 F900 X-60.499 Y-29.999 E1064.82008
G0 F12000 X-60.499 Y-30.499
G1 F900 X-59 Y-30.499 E1064.91356
G0 F12000 X-59 Y-30.999
G1 F900 X-60.499 Y-30.999 E1065.00705
G0 F12000 X-60.499 Y-31.499
G1 F900 X-59 Y-31.499 E1065.10053
G0 F12000 X-59 Y-31.999
G1 F900 X-60.499 Y-31.999 E1065.19401
G0 F12000 X-60.499 Y-32.499
G1 F900 X-59 Y-32.499 E1065.28749
G0 F12000 X-59 Y-33
G1 F900 X-60.499 Y-32.999 E1065.38097
G0 F12000 X-60.499 Y-33.499
G1 F900 X-59 Y-33.5 E1065.47445
G0 F12000 X-59 Y-34
G1 F900 X-60.499 Y-33.999 E1065.56794
G0 F12000 X-60.499 Y-34.499
G1 F900 X-59 Y-34.5 E1065.66142
G0 F12000 X-59 Y-35
G1 F900 X-60.499 Y-34.999 E1065.7549
G0 F12000 X-60.499 Y-35.499
G1 F900 X-59 Y-35.5 E1065.84838
G0 F12000 X-59 Y-36
G1 F900 X-60.499 Y-35.999 E1065.94186
G0 F12000 X-60.499 Y-36.499
G1 F900 X-59 Y-36.5 E1066.03534
G0 F12000 X-59 Y-37
G1 F900 X-60.499 Y-36.999 E1066.12883
G0 F12000 X-60.499 Y-37.499
G1 F900 X-59 Y-37.5 E1066.22231
G0 F12000 X-59 Y-38
G1 F900 X-60.499 Y-37.999 E1066.31579
G0 F12000 X-60.499 Y-38.499
G1 F900 X-59 Y-38.5 E1066.40927
G0 F12000 X-60.499 Y-38.999
G1 F900 X60.5 Y-39 E1073.9551
G0 F12000 X60.5 Y-38.5
G1 F900 X59 Y-38.5 E1074.04865
G0 F12000 X59 Y-38
G1 F900 X60.5 Y-38 E1074.14219
G0 F12000 X60.5 Y-37.5
G1 F900 X59 Y-37.5 E1074.23574
G0 F12000 X59 Y-37
G1 F900 X60.5 Y-37 E1074.32928
G0 F12000 X60.5 Y-36.5
G1 F900 X59 Y-36.5 E1074.42282
G0 F12000 X59 Y-36
G1 F900 X60.5 Y-36 E1074.51637
G0 F12000 X60.5 Y-35.5
G1 F900 X59 Y-35.5 E1074.60991
G0 F12000 X59 Y-35
G1 F900 X60.5 Y-35 E1074.70346
G0 F12000 X60.5 Y-34.5
G1 F900 X59 Y-34.5 E1074.797
G0 F12000 X59 Y-34
G1 F900 X60.5 Y-34 E1074.89054
G0 F12000 X60.5 Y-33.5
G1 F900 X59 Y-33.5 E1074.98409
G0 F12000 X59 Y-33
G1 F900 X60.5 Y-33 E1075.07763
G0 F12000 X60.5 Y-32.5
G1 F900 X59 Y-32.5 E1075.17118
G0 F12000 X59 Y-32
G1 F900 X60.5 Y-32 E1075.26472
G0 F12000 X60.5 Y-31.5
G1 F900 X59 Y-31.5 E1075.35826
G0 F12000 X59 Y-31
G1 F900 X60.5 Y-31 E1075.45181
G0 F12000 X60.5 Y-30.5
G1 F900 X59 Y-30.5 E1075.54535
G0 F12000 X59 Y-30
G1 F900 X60.5 Y-30 E1075.6389
G0 F12000 X60.5 Y-29.5
G1 F900 X59 Y-29.5 E1075.73244
G0 F12000 X59 Y-29
G1 F900 X60.5 Y-29 E1075.82599
G0 F12000 X60.5 Y-28.5
G1 F900 X59 Y-28.5 E1075.91953
G0 F12000 X59 Y-28
G1 F900 X60.5 Y-28 E1076.01307
G0 F12000 X60.5 Y-27.5
G1 F900 X59 Y-27.5 E1076.10662
G0 F12000 X59 Y-27
G1 F900 X60.5 Y-27 E1076.20016
G0 F12000 X60.5 Y-26.5
G1 F900 X59 Y-26.5 E1076.29371
G0 F12000 X59 Y-26
G1 F900 X60.5 Y-26 E1076.38725
G0 F12000 X60.5 Y-25.5
G1 F900 X59 Y-25.5 E1076.48079
G0 F12000 X59 Y-25
G1 F900 X60.5 Y-25 E1076.57434
G0 F12000 X60.5 Y-24.5
G1 F900 X59 Y-24.5 E1076.66788
G0 F12000 X59 Y-24
G1 F900 X60.5 Y-24 E1076.76143
G0 F12000 X60.5 Y-23.5
G1 F900 X59 Y-23.5 E1076.85497
G0 F12000 X59 Y-23
G1 F900 X60.5 Y-23 E1076.94851
G0 F12000 X60.5 Y-22.5
G1 F900 X59 Y-22.5 E1077.04206
G0 F12000 X59 Y-22
G1 F900 X60.5 Y-22 E1077.1356
G0 F12000 X60.5 Y-21.5
G1 F900 X59 Y-21.5 E1077.22915
G0 F12000 X59 Y-21
G1 F900 X60.5 Y-21 E1077.32269
G0 F12000 X60.5 Y-20.5
G1 F900 X59 Y-20.5 E1077.41624
G0 F12000 X59 Y-20
G1 F900 X60.5 Y-20 E1077.50978
G0 F12000 X60.5 Y-19.5
G1 F900 X59 Y-19.5 E1077.60332
G0 F12000 X59 Y-19
G1 F900 X60.5 Y-19 E1077.69687
G0 F12000 X60.5 Y-18.5
G1 F900 X59 Y-18.5 E1077.79041
G0 F12000 X59 Y-18
G1 F900 X60.5 Y-18 E1077.88396
G0 F12000 X60.5 Y-17.5
G1 F900 X59 Y-17.5 E1077.9775
G0 F12000 X59 Y-17
G1 F900 X60.5 Y-17 E1078.07104
G0 F12000 X60.5 Y-16.5
G1 F900 X59 Y-16.5 E1078.16459
G0 F12000 X59 Y-16
G1 F900 X60.5 Y-16 E1078.25813
G0 F12000 X60.5 Y-15.5
G1 F900 X59 Y-15.5 E1078.35168
G0 F12000 X59 Y-15
G1 F900 X60.5 Y-15 E1078.44522
G0 F12000 X60.5 Y-14.5
G1 F900 X59 Y-14.5 E1078.53877
G0 F12000 X59 Y-14
G1 F900 X60.5 Y-14 E1078.63231
G0 F12000 X60.5 Y-13.5
G1 F900 X59 Y-13.5 E1078.72585
G0 F12000 X59 Y-13
G1 F900 X60.5 Y-13 E1078.8194
G0 F12000 X60.5 Y-12.5
G1 F900 X59 Y-12.5 E1078.91294
G0 F12000 X59 Y-12
G1 F900 X60.5 Y-12 E1079.00649
G0 F12000 X60.5 Y-11.5
G1 F900 X59 Y-11.5 E1079.10003
G0 F12000 X59 Y-11
G1 F900 X60.5 Y-11 E1079.19357
G0 F12000 X60.5 Y-10.5
G1 F900 X59 Y-10.5 E1079.28712
G0 F12000 X59 Y-10
G1 F900 X60.5 Y-10 E1079.38066
G0 F12000 X60.5 Y-9.5
G1 F900 X59 Y-9.5 E1079.47421
G0 F12000 X59 Y-9
G1 F900 X60.5 Y-9 E1079.56775
G0 F12000 X60.5 Y-8.5
G1 F900 X59 Y-8.5 E1079.66129
G0 F12000 X59 Y-8
G1 F900 X60.5 Y-8 E1079.75484
G0 F12000 X60.5 Y-7.5
G1 F900 X59 Y-7.5 E1079.84838
G0 F12000 X59 Y-7
G1 F900 X60.5 Y-7 E1079.94193
G0 F12000 X60.5 Y-6.5
G1 F900 X59 Y-6.5 E1080.03547
G0 F12000 X59 Y-6
G1 F900 X60.5 Y-6 E1080.12902
G0 F12000 X60.5 Y-5.5
G1 F900 X59 Y-5.5 E1080.22256
G0 F12000 X59 Y-5
G1 F900 X60.5 Y-5 E1080.3161
G0 F12000 X60.5 Y-4.5
G1 F900 X59 Y-4.5 E1080.40965
G0 F12000 X59 Y-4
G1 F900 X60.5 Y-4 E1080.50319
G0 F12000 X60.5 Y-3.5
G1 F900 X59 Y-3.5 E1080.59674
G0 F12000 X59 Y-3
G1 F900 X60.5 Y-3 E1080.69028
G0 F12000 X60.5 Y-2.5
G1 F900 X59 Y-2.5 E1080.78382
G0 F12000 X59 Y-2
G1 F900 X60.5 Y-2 E1080.87737
G0 F12000 X60.5 Y-1.5
G1 F900 X59 Y-1.5 E1080.97091
G0 F12000 X59 Y-1
G1 F900 X60.5 Y-1 E1081.06446
G0 F12000 X60.5 Y-0.5
G1 F900 X59 Y-0.5 E1081.158
G0 F12000 X59 Y0
G1 F900 X60.5 Y0 E1081.25154
G0 F12000 X60.5 Y0.499
G1 F900 X59 Y0.499 E1081.34509
G0 F12000 X59 Y0.999
G1 F900 X60.5 Y0.999 E1081.43863
G0 F12000 X60.5 Y1.499
G1 F900 X59 Y1.499 E1081.53218
G0 F12000 X59 Y1.999
G1 F900 X60.5 Y1.999 E1081.62572
G0 F12000 X60.5 Y2.499
G1 F900 X59 Y2.499 E1081.71927
G0 F12000 X59 Y2.999
G1 F900 X60.5 Y2.999 E1081.81281
G0 F12000 X60.5 Y3.499
G1 F900 X59 Y3.499 E1081.90635
G0 F12000 X59 Y3.999
G1 F900 X60.5 Y3.999 E1081.9999
G0 F12000 X60.5 Y4.499
G1 F900 X59 Y4.499 E1082.09344
G0 F12000 X59 Y4.999
G1 F900 X60.5 Y4.999 E1082.18699
G0 F12000 X60.5 Y5.499
G1 F900 X59 Y5.499 E1082.28053
G0 F12000 X59 Y5.999
G1 F900 X60.5 Y5.999 E1082.37407
G0 F12000 X60.5 Y6.499
G1 F900 X59 Y6.499 E1082.46762
G0 F12000 X59 Y6.999
G1 F900 X60.5 Y6.999 E1082.56116
G0 F12000 X60.5 Y7.499
G1 F900 X59 Y7.499 E1082.65471
G0 F12000 X59 Y7.999
G1 F900 X60.5 Y7.999 E1082.74825
G0 F12000 X60.5 Y8.499
G1 F900 X59 Y8.499 E1082.8418
G0 F12000 X59 Y8.999
G1 F900 X60.5 Y8.999 E1082.93534
G0 F12000 X60.5 Y9.499
G1 F900 X59 Y9.499 E1083.02888
G0 F12000 X59 Y9.999
G1 F900 X60.5 Y9.999 E1083.12243
G0 F12000 X60.5 Y10.499
G1 F900 X59 Y10.499 E1083.21597
G0 F12000 X59 Y10.999
G1 F900 X60.5 Y10.999 E1083.30952
G0 F12000 X60.5 Y11.499
G1 F900 X59 Y11.499 E1083.40306
G0 F12000 X59 Y11.999
G1 F900 X60.5 Y11.999 E1083.4966
G0 F12000 X60.5 Y12.499
G1 F900 X59 Y12.499 E1083.59015
G0 F12000 X59 Y12.999
G1 F900 X60.5 Y12.999 E1083.68369
G0 F12000 X60.5 Y13.499
G1 F900 X59 Y13.499 E1083.77724
G0 F12000 X59 Y13.999
G1 F900 X60.5 Y13.999 E1083.87078
G0 F12000 X60.5 Y14.499
G1 F900 X59 Y14.499 E1083.96432
G0 F12000 X59 Y14.999
G1 F900 X60.5 Y14.999 E1084.05787
G0 F12000 X60.5 Y15.499
G1 F900 X59 Y15.499 E1084.15141
G0 F12000 X59 Y15.999
G1 F900 X60.5 Y15.999 E1084.24496
G0 F12000 X60.5 Y16.499
G1 F900 X59 Y16.499 E1084.3385
G0 F12000 X59 Y16.999
G1 F900 X60.5 Y16.999 E1084.43205
G0 F12000 X60.5 Y17.499
G1 F900 X59 Y17.499 E1084.52559
G0 F12000 X59 Y17.999
G1 F900 X60.5 Y17.999 E1084.61913
G0 F12000 X60.5 Y18.499
G1 F900 X59 Y18.499 E1084.71268
G0 F12000 X59 Y18.999
G1 F900 X60.5 Y18.999 E1084.80622
G0 F12000 X60.5 Y19.499
G1 F900 X59 Y19.499 E1084.89977
G0 F12000 X59 Y19.999
G1 F900 X60.5 Y19.999 E1084.99331
G0 F12000 X60.5 Y20.499
G1 F900 X59 Y20.499 E1085.08685
G0 F12000 X59 Y20.999
G1 F900 X60.5 Y20.999 E1085.1804
G0 F12000 X60.5 Y21.499
G1 F900 X59 Y21.499 E1085.27394
G0 F12000 X59 Y21.999
G1 F900 X60.5 Y21.999 E1085.36749
G0 F12000 X60.5 Y22.499
G1 F900 X59 Y22.499 E1085.46103
G0 F12000 X59 Y22.999
G1 F900 X60.5 Y22.999 E1085.55457
G0 F12000 X60.5 Y23.499
G1 F900 X59 Y23.499 E1085.64812
G0 F12000 X59 Y23.999
G1 F900 X60.5 Y23.999 E1085.74166
G0 F12000 X60.5 Y24.499
G1 F900 X59 Y24.499 E1085.83521
G0 F12000 X59 Y24.999
G1 F900 X60.5 Y24.999 E1085.92875
G0 F12000 X60.5 Y25.499
G1 F900 X59 Y25.499 E1086.0223
G0 F12000 X59 Y25.999
G1 F900 X60.5 Y25.999 E1086.11584
G0 F12000 X60.5 Y26.499
G1 F900 X59 Y26.499 E1086.20938
G0 F12000 X59 Y26.999
G1 F900 X60.5 Y26.999 E1086.30293
G0 F12000 X60.5 Y27.499
G1 F900 X59 Y27.499 E1086.39647
G0 F12000 X59 Y27.999
G1 F900 X60.5 Y27.999 E1086.49002
G0 F12000 X60.5 Y28.499
G1 F900 X59 Y28.499 E1086.58356
G0 F12000 X59 Y28.999
G1 F900 X60.5 Y28.999 E1086.6771
G0 F12000 X60.5 Y29.499
G1 F900 X59 Y29.499 E1086.77065
G0 F12000 X59 Y29.999
G1 F900 X60.5 Y29.999 E1086.86419
G0 F12000 X60.5 Y30.499
G1 F900 X59 Y30.499 E1086.95774
G0 F12000 X59 Y30.999
G1 F900 X60.5 Y30.999 E1087.05128
G0 F12000 X60.5 Y31.499
G1 F900 X59 Y31.499 E1087.14482
G0 F12000 X59 Y31.999
G1 F900 X60.5 Y31.999 E1087.23837
G0 F12000 X60.5 Y32.499
G1 F900 X59 Y32.499 E1087.33191
G0 F12000 X59 Y33
G1 F900 X60.5 Y32.999 E1087.42546
G0 F12000 X60.5 Y33.499
G1 F900 X59 Y33.5 E1087.519
G0 F12000 X59 Y34
G1 F900 X60.5 Y33.999 E1087.61255
G0 F12000 X60.5 Y34.499
G1 F900 X59 Y34.5 E1087.70609
G0 F12000 X59 Y35
G1 F900 X60.5 Y34.999 E1087.79963
G0 F12000 X60.5 Y35.499
G1 F900 X59 Y35.5 E1087.89318
G0 F12000 X59 Y36
G1 F900 X60.5 Y35.999 E1087.98672
G0 F12000 X60.5 Y36.499
G1 F900 X59 Y36.5 E1088.08027
G0 F12000 X59 Y37
G1 F900 X60.5 Y36.999 E1088.17381
G0 F12000 X60.5 Y37.499
G1 F900 X59 Y37.5 E1088.26735
G0 F12000 X59 Y38
G1 F900 X60.5 Y37.999 E1088.3609
G0 F12000 X60.5 Y38.499
G1 F900 X59 Y38.5 E1088.45444
G0 F12000 X59 Y39
G1 F900 X60.5 Y38.999 E1088.54799
G0 F12000 X60.5 Y39.499
G1 F900 X-60.499 Y39.5 E1096.09382
G0 F12000 X-60.499 Y39
G1 F900 X-59 Y39 E1096.1873
G0 F12000 X-59 Y38.5
G1 F900 X-60.499 Y38.5 E1096.28078
G0 F12000 X-60.499 Y38
G1 F900 X-59 Y38 E1096.37426
G0 F12000 X-59 Y37.5
G1 F900 X-60.499 Y37.5 E1096.46775
G0 F12000 X-60.499 Y37
G1 F900 X-59 Y37 E1096.56123
G0 F12000 X-59 Y36.5
G1 F900 X-60.499 Y36.5 E1096.65471
G0 F12000 X-60.499 Y36
G1 F900 X-59 Y36 E1096.74819
G0 F12000 X-59 Y35.5
G1 F900 X-60.499 Y35.5 E1096.84167
G0 F12000 X-60.499 Y35
G1 F900 X-59 Y35 E1096.93515
G0 F12000 X-59 Y34.5
G1 F900 X-60.499 Y34.5 E1097.02864
G0 F12000 X-60.499 Y34
G1 F900 X-59 Y34 E1097.12212
G0 F12000 X-59 Y33.5
G1 F900 X-60.499 Y33.5 E1097.2156
G0 F12000 X-60.499 Y33
G1 F900 X-59 Y33 E1097.30908
G0 F12000 X-59 Y32.5
G1 F900 X-60.499 Y32.5 E1097.40256
G0 F12000 X-60.499 Y32
G1 F900 X-59 Y32 E1097.49604
G0 F12000 X-59 Y31.5
G1 F900 X-60.499 Y31.5 E1097.58953
G0 F12000 X-60.499 Y31
G1 F900 X-59 Y31 E1097.68301
G0 F12000 X-59 Y30.5
G1 F900 X-60.499 Y30.5 E1097.77649
G0 F12000 X-60.499 Y30
G1 F900 X-59 Y30 E1097.86997
G0 F12000 X-59 Y29.5
G1 F900 X-60.499 Y29.5 E1097.96345
G0 F12000 X-60.499 Y29
G1 F900 X-59 Y29 E1098.05694
G0 F12000 X-59 Y28.5
G1 F900 X-60.499 Y28.5 E1098.15042
G0 F12000 X-60.499 Y28
G1 F900 X-59 Y28 E1098.2439
G0 F12000 X-59 Y27.5
G1 F900 X-60.499 Y27.5 E1098.33738
G0 F12000 X-60.499 Y27
G1 F900 X-59 Y27 E1098.43086
G0 F12000 X-59 Y26.5
G1 F900 X-60.499 Y26.5 E1098.52434
G0 F12000 X-60.499 Y26
G1 F900 X-59 Y26 E1098.61783
G0 F12000 X-59 Y25.5
G1 F900 X-60.499 Y25.5 E1098.71131
G0 F12000 X-60.499 Y25
G1 F900 X-59 Y25 E1098.80479
G0 F12000 X-59 Y24.5
G1 F900 X-60.499 Y24.5 E1098.89827
G0 F12000 X-60.499 Y24
G1 F900 X-59 Y24 E1098.99175
G0 F12000 X-59 Y23.5
G1 F900 X-60.499 Y23.5 E1099.08523
G0 F12000 X-60.499 Y23
G1 F900 X-59 Y23 E1099.17872
G0 F12000 X-59 Y22.5
G1 F900 X-60.499 Y22.5 E1099.2722
G0 F12000 X-60.499 Y22
G1 F900 X-59 Y22 E1099.36568
G0 F12000 X-59 Y21.5
G1 F900 X-60.499 Y21.5 E1099.45916
G0 F12000 X-60.499 Y21
G1 F900 X-59 Y21 E1099.55264
G0 F12000 X-59 Y20.5
G1 F900 X-60.499 Y20.5 E1099.64613
G0 F12000 X-60.499 Y20
G1 F900 X-59 Y20 E1099.73961
G0 F12000 X-59 Y19.5
G1 F900 X-60.499 Y19.5 E1099.83309
G0 F12000 X-60.499 Y19
G1 F900 X-59 Y19 E1099.92657
G0 F12000 X-59 Y18.5
G1 F900 X-60.499 Y18.5 E1100.02005
G0 F12000 X-60.499 Y18
G1 F900 X-59 Y18 E1100.11353
G0 F12000 X-59 Y17.5
G1 F900 X-60.499 Y17.5 E1100.20702
G0 F12000 X-60.499 Y17
G1 F900 X-59 Y17 E1100.3005
G0 F12000 X-59 Y16.5
G1 F900 X-60.499 Y16.5 E1100.39398
G0 F12000 X-60.499 Y16
G1 F900 X-59 Y16 E1100.48746
G0 F12000 X-59 Y15.5
G1 F900 X-60.499 Y15.5 E1100.58094
G0 F12000 X-60.499 Y15
G1 F900 X-59 Y15 E1100.67442
G0 F12000 X-59 Y14.5
G1 F900 X-60.499 Y14.5 E1100.76791
G0 F12000 X-60.499 Y14
G1 F900 X-59 Y14 E1100.86139
G0 F12000 X-59 Y13.5
G1 F900 X-60.499 Y13.5 E1100.95487
G0 F12000 X-60.499 Y13
G1 F900 X-59 Y13 E1101.04835
G0 F12000 X-59 Y12.5
G1 F900 X-60.499 Y12.5 E1101.14183
G0 F12000 X-60.499 Y12
G1 F900 X-59 Y12 E1101.23532
G0 F12000 X-59 Y11.5
G1 F900 X-60.499 Y11.5 E1101.3288
G0 F12000 X-60.499 Y11
G1 F900 X-59 Y11 E1101.42228
G0 F12000 X-59 Y10.5
G1 F900 X-60.499 Y10.5 E1101.51576
G0 F12000 X-60.499 Y10
G1 F900 X-59 Y10 E1101.60924
G0 F12000 X-59 Y9.5
G1 F900 X-60.499 Y9.5 E1101.70272
G0 F12000 X-60.499 Y9
G1 F900 X-59 Y9 E1101.79621
G0 F12000 X-59 Y8.5
G1 F900 X-60.499 Y8.5 E1101.88969
G0 F12000 X-60.499 Y8
G1 F900 X-59 Y8 E1101.98317
G0 F12000 X-59 Y7.5
G1 F900 X-60.499 Y7.5 E1102.07665
G0 F12000 X-60.499 Y7
G1 F900 X-59 Y7 E1102.17013
G0 F12000 X-59 Y6.5
G1 F900 X-60.499 Y6.5 E1102.26361
G0 F12000 X-60.499 Y6
G1 F900 X-59 Y6 E1102.3571
G0 F12000 X-59 Y5.5
G1 F900 X-60.499 Y5.5 E1102.45058
G0 F12000 X-60.499 Y5
G1 F900 X-59 Y5 E1102.54406
G0 F12000 X-59 Y4.5
G1 F900 X-60.499 Y4.5 E1102.63754
G0 F12000 X-60.499 Y4
G1 F900 X-59 Y4 E1102.73102
G0 F12000 X-59 Y3.5
G1 F900 X-60.499 Y3.5 E1102.82451
G0 F12000 X-60.499 Y3
G1 F900 X-59 Y3 E1102.91799
G0 F12000 X-59 Y2.5
G1 F900 X-60.499 Y2.5 E1103.01147
G0 F12000 X-60.499 Y2
G1 F900 X-59 Y2 E1103.10495
G0 F12000 X-59 Y1.5
G1 F900 X-60.499 Y1.5 E1103.19843
G0 F12000 X-60.499 Y1
G1 F900 X-59 Y1 E1103.29191
G0 F12000 X-59 Y0.5
G1 F900 X-60.499 Y0.5 E1103.3854
G0 F12000 X-60.499 Y0
G1 F900 X-59 Y0 E1103.47888
G0 F12000 X-59 Y-0.499
G1 F900 X-60.499 Y-0.499 E1103.57236
G0 F12000 X-60.499 Y-0.999
G1 F900 X-59 Y-0.999 E1103.66584
G0 F12000 X-59 Y-1.499
G1 F900 X-60.499 Y-1.499 E1103.75932
G0 F12000 X-60.499 Y-1.999
G1 F900 X-59 Y-1.999 E1103.8528
G0 F12000 X-59 Y-2.499
G1 F900 X-60.499 Y-2.499 E1103.94629
G0 F12000 X-60.499 Y-2.999
G1 F900 X-59 Y-2.999 E1104.03977
G0 F12000 X-59 Y-3.499
G1 F900 X-60.499 Y-3.499 E1104.13325
G0 F12000 X-60.499 Y-3.999
G1 F900 X-59 Y-3.999 E1104.22673
G0 F12000 X-59 Y-4.499
G1 F900 X-60.499 Y-4.499 E1104.32021
G0 F12000 X-60.499 Y-4.999
G1 F900 X-59 Y-4.999 E1104.4137
G0 F12000 X-59 Y-5.499
G1 F900 X-60.499 Y-5.499 E1104.50718
G0 F12000 X-60.499 Y-5.999
G1 F900 X-59 Y-5.999 E1104.60066
G0 F12000 X-59 Y-6.499
G1 F900 X-60.499 Y-6.499 E1104.69414
G0 F12000 X-60.499 Y-39.499
G1 F900 X60.5 Y-39.5 E1112.23997
G0 F12000 X60.5 Y-40
G1 F900 X-60.499 Y-39.999 E1119.7858
G0 F12000 X-60.499 Y40
G1 F900 X60.5 Y39.999 E1127.33163
G0 F12000 X60.5 Y39.999 Z0.55
; Layer Change GCode
; LAYER:1
G1 F6000 E1125.53163
G1 Z1.05
G0 F12000 X-57.75 Y37.75 Z1
G0 X-57.75 Y37.75
G0 X-56.75 Y36.75
; TYPE:WALL-INNER
G1 Z0.5
G1 F6000 E1127.33163
G1 F2400 X-56.75 Y36.75 E1127.33163
G1 X-56.75 Y-36.75 E1130.38741
G1 X56.75 Y-36.75 E1135.10619
G1 X56.75 Y36.75 E1138.16196
G1 X-56.75 Y36.75 E1142.88075
G0 F12000 X-57.25 Y37.25
G1 F2400 X-57.25 Y37.25 E1142.88075
G1 X-57.25 Y-37.25 E1145.9781
G1 X57.25 Y-37.25 E1150.73845
G1 X57.25 Y37.25 E1153.8358
G1 X-57.25 Y37.25 E1158.59616
G0 F12000 X-57.75 Y37.75
; TYPE:WALL-OUTER
G1 F1800 X-57.75 Y37.75 E1158.59616
G1 X-57.75 Y-37.75 E1161.73509
G1 X57.75 Y-37.75 E1166.53702
G1 X57.75 Y37.75 E1169.67594
G1 X-57.75 Y37.75 E1174.47787
G1 F6000 E1172.67787
G1 Z1
G0 F12000 X-57.49 Y37.4
G0 X-48.303 Y30.094
G0 X-48.303 Y30.094
; TYPE:WALL-INNER
G0 X-48.303 Y30.094
G1 Z0.5
G1 F6000 E1174.47787
G1 F2400 X-47.533 Y30.745 E1174.5198
G1 X-46.624 Y31.173 E1174.56157
G1 X-45.633 Y31.353 E1174.60344
G1 X-44.629 Y31.268 E1174.64533
G1 X-43.69 Y30.929 E1174.68684
G1 X-42.89 Y30.39 E1174.72694
G1 X-42.229 Y29.628 E1174.76888
G1 X-41.788 Y28.722 E1174.81077
G1 X-41.597 Y27.733 E1174.85265
G1 X-41.666 Y26.727 E1174.89457
G0 F12000 X-41.551 Y26.577
G1 F2400 X-41.892 Y26.077 E1174.91974
G0 F12000 X-41.436 Y26.427
G1 F2400 X-40.127 Y27.431 E1174.98832
G1 X-36.665 Y28.865 E1175.14411
G1 X-32.95 Y29.354 E1175.2999
G1 X-29.235 Y28.865 E1175.45568
G1 X-25.773 Y27.431 E1175.61147
G1 X-24.376 Y26.36 E1175.68466
G0 F12000 X-24.288 Y26.473
G1 F2400 X-24.001 Y26.072 E1175.70516
G0 F12000 X-24.201 Y26.587
G1 F2400 X-24.309 Y27.589 E1175.74706
G1 X-24.155 Y28.584 E1175.78892
G1 X-23.745 Y29.513 E1175.83114
G1 X-23.077 Y30.323 E1175.87479
G1 X-22.256 Y30.907 E1175.91668
G1 X-21.312 Y31.259 E1175.95856
G1 X-20.31 Y31.354 E1176.00041
G1 X-19.317 Y31.186 E1176.04228
G1 X-18.41 Y30.771 E1176.08375
G1 X-17.657 Y30.166 E1176.12391
G1 X-17.063 Y29.351 E1176.16583
G1 X-16.699 Y28.412 E1176.2077
G1 X-16.591 Y27.41 E1176.2496
G1 X-16.745 Y26.415 E1176.29146
G1 X-17.155 Y25.486 E1176.33368
G1 X-17.823 Y24.676 E1176.37733
G1 X-18.643 Y24.092 E1176.41919
G1 X-19.587 Y23.74 E1176.46107
G1 X-20.59 Y23.645 E1176.50296
G1 X-21.583 Y23.813 E1176.54483
G0 F12000 X-21.643 Y23.767
G1 F2400 X-21.878 Y23.948 E1176.55716
G0 F12000 X-21.704 Y23.722
G1 F2400 X-20.519 Y22.176 E1176.63815
G1 X-19.085 Y18.714 E1176.79394
G1 X-18.595 Y14.999 E1176.94973
G1 X-19.085 Y11.285 E1177.10548
G1 X-20.519 Y7.823 E1177.26127
G1 X-21.669 Y6.323 E1177.33985
G0 F12000 X-21.595 Y6.266
G1 F2400 X-21.875 Y6.054 E1177.35445
G0 F12000 X-21.521 Y6.21
G1 F2400 X-20.483 Y6.356 E1177.39803
G1 X-19.481 Y6.234 E1177.44
G1 X-18.557 Y5.858 E1177.48147
G1 X-17.779 Y5.288 E1177.52157
G1 X-17.148 Y4.501 E1177.56351
G1 X-16.742 Y3.578 E1177.60543
G1 X-16.589 Y2.581 E1177.64736
G1 X-16.701 Y1.579 E1177.68928
G1 X-17.069 Y0.634 E1177.73144
G1 X-17.699 Y-0.203 E1177.775
G1 X-18.494 Y-0.825 E1177.81697
G1 X-19.423 Y-1.216 E1177.85887
G1 X-20.418 Y-1.356 E1177.90065
G1 X-21.416 Y-1.234 E1177.94245
G1 X-22.342 Y-0.859 E1177.98398
G1 X-23.122 Y-0.288 E1178.02417
G1 X-23.751 Y0.499 E1178.06606
G1 X-24.157 Y1.421 E1178.10794
G1 X-24.309 Y2.417 E1178.14983
G1 X-24.2 Y3.419 E1178.19173
G0 F12000 X-24.285 Y3.531
G1 F2400 X-24.002 Y3.927 E1178.21197
G0 F12000 X-24.371 Y3.644
G1 F2400 X-25.773 Y2.568 E1178.28545
G1 X-29.235 Y1.134 E1178.44124
G1 X-32.95 Y0.645 E1178.59702
G1 X-36.665 Y1.134 E1178.75281
G1 X-40.127 Y2.568 E1178.9086
G1 X-41.357 Y3.512 E1178.97306
G0 F12000 X-41.5 Y3.326
G1 F2400 X-41.88 Y3.913 E1179.00213
G0 F12000 X-41.643 Y3.14
G1 F2400 X-41.607 Y2.133 E1179.04402
G1 X-41.833 Y1.152 E1179.08588
G1 X-42.308 Y0.254 E1179.12811
G1 X-43.032 Y-0.505 E1179.17172
G1 X-43.886 Y-1.025 E1179.21329
G1 X-44.817 Y-1.309 E1179.25376
G1 X-45.863 Y-1.334 E1179.29726
G1 X-46.842 Y-1.097 E1179.33914
G1 X-47.72 Y-0.617 E1179.38074
G1 X-48.426 Y0.041 E1179.42086
G1 X-48.962 Y0.894 E1179.46275
G1 X-49.257 Y1.859 E1179.5047
G1 X-49.293 Y2.866 E1179.54659
G1 X-49.067 Y3.847 E1179.58845
G1 X-48.592 Y4.745 E1179.63068
G1 X-47.868 Y5.504 E1179.67429
G1 X-47.008 Y6.028 E1179.71616
G1 X-46.041 Y6.31 E1179.75804
G1 X-45.035 Y6.334 E1179.79988
G1 X-44.057 Y6.096 E1179.84172
G1 X-45.381 Y7.823 E1179.9322
G1 X-46.815 Y11.285 E1180.08799
G1 X-47.304 Y15 E1180.24377
G1 X-46.815 Y18.714 E1180.39951
G1 X-45.381 Y22.176 E1180.55531
G1 X-44.174 Y23.748 E1180.63771
G0 F12000 X-44.225 Y23.787
G1 F2400 X-44.024 Y23.944 E1180.64831
G0 F12000 X-44.276 Y23.826
G1 F2400 X-45.267 Y23.646 E1180.69018
G1 X-46.271 Y23.731 E1180.73207
G1 X-47.21 Y24.07 E1180.77358
G1 X-48.01 Y24.609 E1180.81368
G1 X-48.671 Y25.371 E1180.85562
G1 X-49.112 Y26.277 E1180.89752
G1 X-49.304 Y27.267 E1180.93944
G1 X-49.232 Y28.272 E1180.98133
G1 X-48.901 Y29.232 E1181.02355
G1 X-48.303 Y30.094 E1181.06717
G0 F12000 X-47.93 Y29.755
G1 F2400 X-47.93 Y29.755 E1181.06717
G1 X-47.261 Y30.321 E1181.1036
G1 X-46.47 Y30.692 E1181.13992
G1 X-45.609 Y30.849 E1181.17631
G1 X-44.737 Y30.775 E1181.21269
G1 X-43.918 Y30.48 E1181.24889
G1 X-43.224 Y30.012 E1181.28369
G1 X-42.65 Y29.35 E1181.32011
G1 X-42.266 Y28.562 E1181.35656
G1 X-42.1 Y27.702 E1181.39297
G1 X-42.161 Y26.828 E1181.4294
G1 X-42.449 Y25.995 E1181.46604
G1 X-42.97 Y25.244 E1181.50404
G1 X-43.638 Y24.678 E1181.54044
G1 X-44.43 Y24.307 E1181.5768
G1 X-45.291 Y24.15 E1181.61319
G1 X-46.163 Y24.224 E1181.64957
G1 X-46.982 Y24.519 E1181.68577
G1 X-47.676 Y24.987 E1181.72057
G1 X-48.25 Y25.649 E1181.757
G1 X-48.634 Y26.437 E1181.79344
G1 X-48.8 Y27.298 E1181.82989
G1 X-48.738 Y28.171 E1181.86628
G1 X-48.451 Y29.003 E1181.90287
G1 X-47.93 Y29.755 E1181.94091
G0 F12000 X-47.557 Y29.416
; TYPE:WALL-OUTER
G1 F1800 X-47.557 Y29.416 E1181.94091
G1 X-46.988 Y29.896 E1181.97186
G1 X-46.317 Y30.212 E1182.00269
G1 X-45.585 Y30.345 E1182.03362
G1 X-44.844 Y30.282 E1182.06454
G1 X-44.146 Y30.031 E1182.09538
G1 X-43.559 Y29.635 E1182.12482
G1 X-43.071 Y29.072 E1182.1558
G1 X-42.745 Y28.403 E1182.18674
G1 X-42.603 Y27.671 E1182.21774
G1 X-42.655 Y26.929 E1182.24866
G1 X-42.899 Y26.224 E1182.27968
G1 X-43.343 Y25.583 E1182.3121
G1 X-43.911 Y25.103 E1182.34301
G1 X-44.583 Y24.787 E1182.37389
G1 X-45.315 Y24.654 E1182.40482
G1 X-46.056 Y24.717 E1182.43574
G1 X-46.754 Y24.968 E1182.46657
G1 X-47.341 Y25.364 E1182.49601
G1 X-47.829 Y25.927 E1182.52699
G1 X-48.155 Y26.596 E1182.55793
G1 X-48.297 Y27.328 E1182.58893
G1 X-48.244 Y28.07 E1182.61986
G1 X-48.001 Y28.775 E1182.65086
G1 X-47.557 Y29.416 E1182.68328
G1 F6000 E1180.88328
G1 Z1
G0 F12000 X-47.844 Y29.614
G0 X-47.855 Y29.707
G0 X-47.891 Y29.719
G0 X-48.404 Y28.979
G0 X-48.687 Y28.16
G0 X-48.747 Y27.301
G0 X-48.583 Y26.453
G0 X-48.206 Y25.678
G0 X-47.64 Y25.026
G0 X-47.24 Y24.812
G0 X-46.295 Y17.29
G0 X-46.747 Y15
G0 X-46.277 Y11.429
G0 X-45.315 Y9.485
G0 X-44.84 Y5.706
G0 X-44.258 Y5.576
G0 X-43.506 Y5.166
G0 X-42.902 Y4.603
G0 X-42.444 Y3.873
G0 X-42.192 Y3.047
G0 X-42.161 Y2.187
G0 X-42.354 Y1.347
G0 X-42.761 Y0.58
G0 X-43.382 Y-0.071
G0 X-44.064 Y-0.468
G0 X-43.225 Y-7.149
G0 X-43.225 Y-7.149
; TYPE:WALL-INNER
G1 Z0.5
G1 F6000 E1182.68328
G1 F2400 X-43.225 Y-7.149 E1182.68328
G1 X-42.219 Y-7.208 E1182.72517
G1 X-41.263 Y-7.527 E1182.76707
G1 X-40.421 Y-8.082 E1182.809
G1 X-39.753 Y-8.835 E1182.85085
G1 X-39.302 Y-9.736 E1182.89274
G1 X-39.098 Y-10.724 E1182.93468
G1 X-39.159 Y-11.731 E1182.97663
G1 X-39.477 Y-12.687 E1183.01851
G1 X-40.033 Y-13.528 E1183.06043
G1 X-40.786 Y-14.197 E1183.10231
G1 X-41.686 Y-14.648 E1183.14416
G1 X-42.674 Y-14.85 E1183.18608
G1 X-43.681 Y-14.791 E1183.22802
G1 X-44.638 Y-14.472 E1183.26996
G1 X-45.477 Y-13.917 E1183.31179
G1 X-46.147 Y-13.164 E1183.35369
G1 X-46.599 Y-12.262 E1183.39564
G1 X-46.8 Y-11.275 E1183.43751
G1 X-46.741 Y-10.269 E1183.47941
G1 X-46.423 Y-9.312 E1183.52134
G1 X-45.867 Y-8.471 E1183.56325
G1 X-45.114 Y-7.802 E1183.60513
G1 X-44.212 Y-7.35 E1183.64707
G1 X-43.225 Y-7.149 E1183.68895
G0 F12000 X-43.189 Y-7.652
G1 F2400 X-43.189 Y-7.652 E1183.68895
G1 X-42.315 Y-7.703 E1183.72535
G1 X-41.483 Y-7.981 E1183.76182
G1 X-40.752 Y-8.463 E1183.79822
G1 X-40.171 Y-9.118 E1183.83462
G1 X-39.778 Y-9.901 E1183.87105
G1 X-39.601 Y-10.76 E1183.90751
G1 X-39.654 Y-11.635 E1183.94396
G1 X-39.931 Y-12.467 E1183.98041
G1 X-40.414 Y-13.198 E1184.01684
G1 X-41.069 Y-13.779 E1184.05324
G1 X-41.851 Y-14.172 E1184.08963
G1 X-42.71 Y-14.347 E1184.12607
G1 X-43.585 Y-14.296 E1184.16251
G1 X-44.417 Y-14.018 E1184.19898
G1 X-45.147 Y-13.536 E1184.23535
G1 X-45.729 Y-12.881 E1184.27178
G1 X-46.122 Y-12.097 E1184.30824
G1 X-46.297 Y-11.239 E1184.34465
G1 X-46.246 Y-10.364 E1184.38109
G1 X-45.969 Y-9.532 E1184.41755
G1 X-45.486 Y-8.801 E1184.45397
G1 X-44.831 Y-8.22 E1184.49037
G1 X-44.047 Y-7.827 E1184.52683
G1 X-43.189 Y-7.652 E1184.56324
G0 F12000 X-43.153 Y-8.155
; TYPE:WALL-OUTER
G1 F1800 X-43.153 Y-8.155 E1184.56324
G1 X-42.41 Y-8.198 E1184.59418
G1 X-41.704 Y-8.434 E1184.62513
G1 X-41.082 Y-8.844 E1184.6561
G1 X-40.588 Y-9.401 E1184.68706
G1 X-40.255 Y-10.066 E1184.71798
G1 X-40.104 Y-10.796 E1184.74897
G1 X-40.149 Y-11.54 E1184.77996
G1 X-40.384 Y-12.246 E1184.81089
G1 X-40.795 Y-12.867 E1184.84185
G1 X-41.352 Y-13.362 E1184.87283
G1 X-42.016 Y-13.695 E1184.90372
G1 X-42.746 Y-13.844 E1184.93469
G1 X-43.49 Y-13.801 E1184.96567
G1 X-44.196 Y-13.565 E1184.99662
G1 X-44.817 Y-13.155 E1185.02756
G1 X-45.312 Y-12.598 E1185.05854
G1 X-45.645 Y-11.932 E1185.0895
G1 X-45.794 Y-11.203 E1185.12043
G1 X-45.751 Y-10.459 E1185.15142
G1 X-45.516 Y-9.753 E1185.18235
G1 X-45.105 Y-9.132 E1185.21331
G1 X-44.548 Y-8.637 E1185.24429
G1 X-43.882 Y-8.304 E1185.27525
G1 X-43.153 Y-8.155 E1185.30619
G1 F6000 E1183.50619
G1 Z1
G0 F12000 X-43.224 Y-7.812
G0 X-43.118 Y-7.825
G0 X-43.185 Y-7.704
G0 X-41.794 Y-7.998
G0 X-26.671 Y-9.974
G0 X-26.671 Y-9.974
; TYPE:WALL-INNER
G1 Z0.5
G1 F6000 E1185.30619
G1 F2400 X-26.671 Y-9.974 E1185.30619
G1 X-26.28 Y-9.046 E1185.34805
G1 X-25.66 Y-8.25 E1185.39
G1 X-24.857 Y-7.643 E1185.43185
G1 X-23.923 Y-7.263 E1185.47377
G1 X-22.923 Y-7.139 E1185.51567
G1 X-21.925 Y-7.277 E1185.55755
G1 X-20.996 Y-7.67 E1185.59949
G1 X-20.202 Y-8.289 E1185.64135
G1 X-19.593 Y-9.092 E1185.68325
G1 X-19.214 Y-10.027 E1185.72519
G1 X-19.089 Y-11.027 E1185.76709
G1 X-19.227 Y-12.025 E1185.80898
G1 X-19.619 Y-12.953 E1185.85086
G1 X-20.239 Y-13.749 E1185.89281
G1 X-21.043 Y-14.356 E1185.93469
G1 X-21.977 Y-14.736 E1185.97661
G1 X-22.977 Y-14.86 E1186.01851
G1 X-23.974 Y-14.722 E1186.06035
G1 X-24.904 Y-14.33 E1186.10231
G1 X-25.698 Y-13.71 E1186.14419
G1 X-26.307 Y-12.907 E1186.18609
G1 X-26.686 Y-11.972 E1186.22804
G1 X-26.811 Y-10.972 E1186.26994
G1 X-26.671 Y-9.974 E1186.31184
G0 F12000 X-26.185 Y-10.108
G1 F2400 X-26.185 Y-10.108 E1186.31184
G1 X-25.845 Y-9.301 E1186.34824
G1 X-25.306 Y-8.609 E1186.38471
G1 X-24.608 Y-8.081 E1186.4211
G1 X-23.796 Y-7.751 E1186.45754
G1 X-22.926 Y-7.644 E1186.49398
G1 X-22.058 Y-7.764 E1186.53041
G1 X-21.251 Y-8.105 E1186.56684
G1 X-20.561 Y-8.643 E1186.60321
G1 X-20.031 Y-9.341 E1186.63965
G1 X-19.702 Y-10.154 E1186.67611
G1 X-19.594 Y-11.023 E1186.71252
G1 X-19.714 Y-11.891 E1186.74895
G1 X-20.054 Y-12.698 E1186.78536
G1 X-20.593 Y-13.39 E1186.82182
G1 X-21.292 Y-13.918 E1186.85824
G1 X-22.104 Y-14.248 E1186.89468
G1 X-22.974 Y-14.355 E1186.93113
G1 X-23.841 Y-14.235 E1186.96752
G1 X-24.649 Y-13.895 E1187.00396
G1 X-25.339 Y-13.356 E1187.04036
G1 X-25.869 Y-12.658 E1187.0768
G1 X-26.198 Y-11.845 E1187.11326
G1 X-26.307 Y-10.975 E1187.14972
G1 X-26.185 Y-10.108 E1187.18612
G0 F12000 X-25.699 Y-10.242
; TYPE:WALL-OUTER
G1 F1800 X-25.699 Y-10.242 E1187.18612
G1 X-25.41 Y-9.556 E1187.21707
G1 X-24.952 Y-8.968 E1187.24805
G1 X-24.359 Y-8.52 E1187.27895
G1 X-23.669 Y-8.239 E1187.30993
G1 X-22.93 Y-8.148 E1187.34088
G1 X-22.192 Y-8.25 E1187.37186
G1 X-21.506 Y-8.54 E1187.40282
G1 X-20.92 Y-8.997 E1187.43372
G1 X-20.47 Y-9.59 E1187.46467
G1 X-20.19 Y-10.281 E1187.49566
G1 X-20.098 Y-11.02 E1187.52663
G1 X-20.2 Y-11.757 E1187.55756
G1 X-20.489 Y-12.443 E1187.58851
G1 X-20.947 Y-13.031 E1187.61949
G1 X-21.541 Y-13.479 E1187.65043
G1 X-22.231 Y-13.76 E1187.6814
G1 X-22.97 Y-13.851 E1187.71236
G1 X-23.707 Y-13.749 E1187.74329
G1 X-24.394 Y-13.46 E1187.77428
G1 X-24.98 Y-13.002 E1187.8052
G1 X-25.43 Y-12.409 E1187.83615
G1 X-25.71 Y-11.718 E1187.86714
G1 X-25.802 Y-10.979 E1187.8981
G1 X-25.699 Y-10.242 E1187.92904
G1 F6000 E1186.12904
G1 Z1
G0 F12000 X-26.022 Y-10.108
G0 X-26.025 Y-10.086
G0 X-26.134 Y-10.122
G0 X-26.254 Y-10.976
G0 X-26.147 Y-11.832
G0 X-25.435 Y-13.16
G0 X-23.88 Y-21.252
G0 X-23.88 Y-21.252
; TYPE:WALL-INNER
G1 Z0.5
G1 F6000 E1187.92904
G1 F2400 X-23.88 Y-21.252 E1187.92904
G1 X-22.879 Y-21.139 E1187.97092
G1 X-21.883 Y-21.289 E1188.0128
G1 X-20.958 Y-21.692 E1188.05475
G1 X-20.17 Y-22.32 E1188.09664
G1 X-19.572 Y-23.13 E1188.1385
G1 X-19.202 Y-24.069 E1188.18046
G1 X-19.089 Y-25.071 E1188.22238
G1 X-19.24 Y-26.068 E1188.26431
G1 X-19.643 Y-26.992 E1188.30622
G1 X-20.271 Y-27.78 E1188.34811
G1 X-21.082 Y-28.378 E1188.39
G1 X-22.019 Y-28.747 E1188.43187
G1 X-23.021 Y-28.86 E1188.47379
G1 X-24.018 Y-28.71 E1188.51571
G1 X-24.941 Y-28.307 E1188.55758
G1 X-25.73 Y-27.679 E1188.59951
G1 X-26.328 Y-26.868 E1188.6414
G1 X-26.697 Y-25.929 E1188.68334
G1 X-26.81 Y-24.928 E1188.72522
G1 X-26.66 Y-23.931 E1188.76714
G1 X-26.257 Y-23.008 E1188.80901
G1 X-25.629 Y-22.219 E1188.85094
G1 X-24.818 Y-21.621 E1188.89283
G1 X-23.88 Y-21.252 E1188.93474
G0 F12000 X-23.758 Y-21.742
G1 F2400 X-23.758 Y-21.742 E1188.93474
G1 X-22.888 Y-21.644 E1188.97114
G1 X-22.022 Y-21.774 E1189.00754
G1 X-21.218 Y-22.124 E1189.044
G1 X-20.533 Y-22.67 E1189.08042
G1 X-20.013 Y-23.375 E1189.11684
G1 X-19.692 Y-24.19 E1189.15326
G1 X-19.594 Y-25.062 E1189.18974
G1 X-19.724 Y-25.929 E1189.22619
G1 X-20.075 Y-26.731 E1189.26259
G1 X-20.621 Y-27.417 E1189.29904
G1 X-21.326 Y-27.937 E1189.33546
G1 X-22.141 Y-28.257 E1189.37186
G1 X-23.012 Y-28.355 E1189.4083
G1 X-23.878 Y-28.225 E1189.44471
G1 X-24.681 Y-27.875 E1189.48113
G1 X-25.367 Y-27.329 E1189.51758
G1 X-25.887 Y-26.624 E1189.554
G1 X-26.207 Y-25.808 E1189.59044
G1 X-26.305 Y-24.937 E1189.62688
G1 X-26.175 Y-24.071 E1189.66329
G1 X-25.825 Y-23.268 E1189.69971
G1 X-25.279 Y-22.582 E1189.73616
G1 X-24.574 Y-22.062 E1189.77258
G1 X-23.758 Y-21.742 E1189.80902
G0 F12000 X-23.637 Y-22.231
; TYPE:WALL-OUTER
G1 F1800 X-23.637 Y-22.231 E1189.80902
G1 X-22.897 Y-22.148 E1189.83998
G1 X-22.161 Y-22.259 E1189.87092
G1 X-21.478 Y-22.556 E1189.90189
G1 X-20.896 Y-23.02 E1189.93283
G1 X-20.454 Y-23.619 E1189.96378
G1 X-20.181 Y-24.312 E1189.99475
G1 X-20.098 Y-25.053 E1190.02575
G1 X-20.209 Y-25.789 E1190.05669
G1 X-20.507 Y-26.471 E1190.08764
G1 X-20.971 Y-27.054 E1190.11862
G1 X-21.57 Y-27.496 E1190.14956
G1 X-22.262 Y-27.768 E1190.18048
G1 X-23.003 Y-27.851 E1190.21148
G1 X-23.739 Y-27.74 E1190.24242
G1 X-24.421 Y-27.443 E1190.27335
G1 X-25.004 Y-26.979 E1190.30433
G1 X-25.446 Y-26.38 E1190.33528
G1 X-25.718 Y-25.687 E1190.36623
G1 X-25.801 Y-24.946 E1190.39723
G1 X-25.69 Y-24.21 E1190.42817
G1 X-25.393 Y-23.528 E1190.4591
G1 X-24.929 Y-22.945 E1190.49008
G1 X-24.33 Y-22.503 E1190.52103
G1 X-23.637 Y-22.231 E1190.55198
G1 F6000 E1188.75198
G1 Z1
G0 F12000 X-23.677 Y-21.885
G0 X-7.386 Y-4.868
G0 X-7.386 Y-4.868
; TYPE:WALL-INNER
G1 Z0.5
G1 F6000 E1190.55198
G1 F2400 X-7.386 Y-4.868 E1190.55198
G1 X-8.462 Y-3.308 E1190.63077
G1 X-9.099 Y-1.523 E1190.70956
G1 X-9.251 Y0.366 E1190.78835
G1 X-8.909 Y2.23 E1190.86714
G1 X-8.097 Y3.942 E1190.94592
G1 X-6.868 Y5.386 E1191.02475
G1 X-5.308 Y6.462 E1191.10354
G1 X-3.523 Y7.099 E1191.18234
G1 X-1.633 Y7.251 E1191.26117
G1 X0.231 Y6.909 E1191.33996
G1 X1.943 Y6.097 E1191.41873
G1 X3.386 Y4.868 E1191.49754
G1 X4.462 Y3.308 E1191.57633
G1 X5.099 Y1.523 E1191.65512
G1 X5.251 Y-0.366 E1191.73391
G1 X4.909 Y-2.23 E1191.8127
G1 X4.097 Y-3.942 E1191.89148
G1 X2.868 Y-5.386 E1191.97031
G1 X1.309 Y-6.462 E1192.04907
G1 X-0.476 Y-7.099 E1192.12786
G1 X-2.366 Y-7.251 E1192.20669
G1 X-4.23 Y-6.909 E1192.28548
G1 X-5.942 Y-6.097 E1192.36426
G1 X-7.386 Y-4.868 E1192.4431
G0 F12000 X-7.012 Y-4.53
G1 F2400 X-7.012 Y-4.53 E1192.4431
G1 X-8.013 Y-3.079 E1192.51638
G1 X-8.606 Y-1.417 E1192.58975
G1 X-8.748 Y0.34 E1192.66303
G1 X-8.429 Y2.075 E1192.73638
G1 X-7.673 Y3.669 E1192.80972
G1 X-6.53 Y5.012 E1192.88304
G1 X-5.079 Y6.013 E1192.95633
G1 X-3.417 Y6.606 E1193.02969
G1 X-1.659 Y6.748 E1193.10302
G1 X0.076 Y6.429 E1193.17636
G1 X1.669 Y5.673 E1193.24967
G1 X3.012 Y4.53 E1193.32299
G1 X4.013 Y3.079 E1193.39628
G1 X4.606 Y1.417 E1193.46964
G1 X4.748 Y-0.34 E1193.54293
G1 X4.429 Y-2.075 E1193.61627
G1 X3.673 Y-3.669 E1193.68962
G1 X2.53 Y-5.012 E1193.76294
G1 X1.079 Y-6.013 E1193.83623
G1 X-0.582 Y-6.606 E1193.90955
G1 X-2.34 Y-6.748 E1193.98288
G1 X-4.075 Y-6.429 E1194.05622
G1 X-5.669 Y-5.673 E1194.12957
G1 X-7.012 Y-4.53 E1194.20289
G0 F12000 X-6.638 Y-4.192
; TYPE:WALL-OUTER
G1 F1800 X-6.638 Y-4.192 E1194.20289
G1 X-7.564 Y-2.849 E1194.27071
G1 X-8.113 Y-1.311 E1194.3386
G1 X-8.244 Y0.315 E1194.40642
G1 X-7.949 Y1.92 E1194.47427
G1 X-7.25 Y3.395 E1194.54213
G1 X-6.192 Y4.638 E1194.60999
G1 X-4.849 Y5.564 E1194.67782
G1 X-3.311 Y6.113 E1194.74571
G1 X-1.684 Y6.244 E1194.81357
G1 X-0.079 Y5.949 E1194.88142
G1 X1.395 Y5.25 E1194.94924
G1 X2.638 Y4.192 E1195.0171
G1 X3.564 Y2.849 E1195.08492
G1 X4.113 Y1.311 E1195.15282
G1 X4.244 Y-0.315 E1195.22064
G1 X3.949 Y-1.92 E1195.28849
G1 X3.25 Y-3.395 E1195.35635
G1 X2.192 Y-4.638 E1195.42421
G1 X0.849 Y-5.564 E1195.49203
G1 X-0.688 Y-6.113 E1195.55989
G1 X-2.315 Y-6.244 E1195.62775
G1 X-3.92 Y-5.949 E1195.69559
G1 X-5.395 Y-5.25 E1195.76345
G1 X-6.638 Y-4.192 E1195.83132
G1 F6000 E1194.03132
G1 Z1
G0 F12000 X-6.863 Y-4.459
G0 X-17.51 Y0.879
G0 X-17.51 Y0.879
; TYPE:WALL-INNER
G1 Z0.5
G1 F6000 E1195.83132
G1 F2400 X-17.51 Y0.879 E1195.83132
G1 X-18.059 Y0.15 E1195.86926
G1 X-18.75 Y-0.39 E1195.90572
G1 X-19.557 Y-0.73 E1195.94213
G1 X-20.422 Y-0.851 E1195.97844
G1 X-21.29 Y-0.745 E1196.0148
G1 X-22.097 Y-0.419 E1196.05098
G1 X-22.773 Y0.076 E1196.08581
G1 X-23.32 Y0.76 E1196.12223
G1 X-23.672 Y1.562 E1196.15864
G1 X-23.805 Y2.428 E1196.19507
G1 X-23.71 Y3.299 E1196.23149
G1 X-23.39 Y4.12 E1196.26813
G1 X-22.839 Y4.849 E1196.30612
G1 X-22.154 Y5.386 E1196.34231
G1 X-21.383 Y5.724 E1196.37731
G1 X-20.478 Y5.851 E1196.4153
G1 X-19.608 Y5.745 E1196.45174
G1 X-18.803 Y5.418 E1196.48786
G1 X-18.128 Y4.923 E1196.52266
G1 X-17.579 Y4.239 E1196.55913
G1 X-17.227 Y3.437 E1196.59554
G1 X-17.094 Y2.571 E1196.63197
G1 X-17.19 Y1.7 E1196.6684
G1 X-17.51 Y0.879 E1196.70503
G0 F12000 X-17.951 Y1.125
; TYPE:WALL-OUTER
G1 F1800 X-17.951 Y1.125 E1196.70503
G1 X-18.419 Y0.503 E1196.73739
G1 X-19.005 Y0.045 E1196.76832
G1 X-19.691 Y-0.244 E1196.79926
G1 X-20.427 Y-0.347 E1196.83016
G1 X-21.164 Y-0.257 E1196.86103
G1 X-21.852 Y0.021 E1196.89188
G1 X-22.424 Y0.44 E1196.92136
G1 X-22.889 Y1.021 E1196.9523
G1 X-23.188 Y1.703 E1196.98326
G1 X-23.301 Y2.439 E1197.01422
G1 X-23.22 Y3.179 E1197.04516
G1 X-22.949 Y3.874 E1197.07618
G1 X-22.48 Y4.496 E1197.10857
G1 X-21.895 Y4.953 E1197.13943
G1 X-21.245 Y5.239 E1197.16895
G1 X-20.473 Y5.347 E1197.20136
G1 X-19.735 Y5.257 E1197.23227
G1 X-19.048 Y4.978 E1197.2631
G1 X-18.477 Y4.559 E1197.29254
G1 X-18.01 Y3.978 E1197.32353
G1 X-17.711 Y3.296 E1197.35449
G1 X-17.598 Y2.56 E1197.38545
G1 X-17.68 Y1.82 E1197.41641
G1 X-17.951 Y1.125 E1197.44742
G1 F6000 E1195.64742
G1 Z1
G0 F12000 X-17.671 Y0.915
G0 X-17.591 Y0.853
G0 X-17.556 Y0.905
G0 X-17.241 Y1.713
G0 X-17.146 Y2.57
G0 X-17.277 Y3.422
G0 X-17.624 Y4.211
G0 X-18.164 Y4.885
G0 X-18.828 Y5.372
G0 X-19.621 Y5.694
G0 X-20.477 Y5.799
G0 X-21.368 Y5.674
G0 X-22.127 Y5.341
G0 X-22.724 Y4.868
G0 X-23.156 Y5.206
G0 X-23.156 Y5.206
; TYPE:WALL-INNER
G1 Z0.5
G1 F6000 E1197.44742
G1 F2400 X-23.156 Y5.206 E1197.44742
G1 X-26.025 Y3.005 E1197.59776
G1 X-29.365 Y1.621 E1197.74807
G1 X-32.95 Y1.15 E1197.89839
G1 X-36.535 Y1.621 E1198.04872
G1 X-39.875 Y3.005 E1198.19903
G1 X-42.743 Y5.206 E1198.34934
G1 X-44.944 Y8.075 E1198.49967
G1 X-46.328 Y11.415 E1198.64998
G1 X-46.799 Y15 E1198.80031
G1 X-46.328 Y18.584 E1198.9506
G1 X-44.944 Y21.924 E1199.10091
G1 X-42.743 Y24.793 E1199.25124
G1 X-39.875 Y26.994 E1199.40155
G1 X-36.535 Y28.378 E1199.55186
G1 X-32.95 Y28.849 E1199.70219
G1 X-29.365 Y28.378 E1199.85251
G1 X-26.025 Y26.994 E1200.00282
G1 X-23.156 Y24.793 E1200.15316
G1 X-20.956 Y21.924 E1200.30347
G1 X-19.572 Y18.584 E1200.45378
G1 X-19.1 Y14.999 E1200.60412
G1 X-19.572 Y11.415 E1200.75441
G1 X-20.956 Y8.075 E1200.90472
G1 X-23.156 Y5.206 E1201.05503
G0 F12000 X-23.513 Y5.563
; TYPE:WALL-OUTER
G1 F1800 X-23.513 Y5.563 E1201.05503
G1 X-26.277 Y3.442 E1201.19988
G1 X-29.496 Y2.108 E1201.34475
G1 X-32.95 Y1.654 E1201.48958
G1 X-36.404 Y2.108 E1201.63442
G1 X-39.623 Y3.442 E1201.77928
G1 X-42.386 Y5.563 E1201.9241
G1 X-44.507 Y8.327 E1202.06895
G1 X-45.841 Y11.546 E1202.21382
G1 X-46.295 Y15 E1202.35865
G1 X-45.841 Y18.453 E1202.50345
G1 X-44.507 Y21.672 E1202.64831
G1 X-42.386 Y24.436 E1202.79316
G1 X-39.623 Y26.557 E1202.93798
G1 X-36.404 Y27.891 E1203.08284
G1 X-32.95 Y28.345 E1203.22768
G1 X-29.496 Y27.891 E1203.37252
G1 X-26.277 Y26.557 E1203.51738
G1 X-23.513 Y24.436 E1203.66223
G1 X-21.393 Y21.672 E1203.80705
G1 X-20.059 Y18.453 E1203.95192
G1 X-19.604 Y14.999 E1204.09676
G1 X-20.059 Y11.546 E1204.24156
G1 X-21.393 Y8.327 E1204.38643
G1 X-23.513 Y5.563 E1204.53125
G1 F6000 E1202.73125
G1 Z1
G0 F12000 X-23.235 Y5.35
G0 X-23.205 Y5.352
G0 X-26.052 Y3.05
G0 X-29.379 Y1.672
G0 X-32.95 Y1.202
G0 X-36.521 Y1.672
G0 X-39.848 Y3.05
G0 X-40.084 Y3.304
G0 X-42.14 Y3.056
G0 X-42.14 Y3.056
; TYPE:WALL-INNER
G1 Z0.5
G1 F6000 E1204.53125
G1 F2400 X-42.14 Y3.056 E1204.53125
G1 X-42.109 Y2.181 E1204.56765
G1 X-42.305 Y1.328 E1204.60404
G1 X-42.718 Y0.549 E1204.6407
G1 X-43.348 Y-0.112 E1204.67866
G1 X-44.092 Y-0.565 E1204.71488
G1 X-44.898 Y-0.81 E1204.7499
G1 X-45.809 Y-0.832 E1204.78779
G1 X-46.661 Y-0.627 E1204.82422
G1 X-47.425 Y-0.209 E1204.86043
G1 X-48.037 Y0.362 E1204.89523
G1 X-48.503 Y1.104 E1204.93165
G1 X-48.76 Y1.943 E1204.96814
G1 X-48.791 Y2.818 E1205.00454
G1 X-48.595 Y3.671 E1205.04092
G1 X-48.182 Y4.45 E1205.07758
G1 X-47.552 Y5.111 E1205.11555
G1 X-46.804 Y5.566 E1205.15194
G1 X-45.964 Y5.811 E1205.18832
G1 X-45.089 Y5.832 E1205.22471
G1 X-44.239 Y5.625 E1205.26108
G1 X-43.475 Y5.208 E1205.29727
G1 X-42.862 Y4.636 E1205.33213
G1 X-42.397 Y3.894 E1205.36853
G1 X-42.14 Y3.056 E1205.40498
G0 F12000 X-42.637 Y2.973
; TYPE:WALL-OUTER
G1 F1800 X-42.637 Y2.973 E1205.40498
G1 X-42.611 Y2.229 E1205.43593
G1 X-42.778 Y1.504 E1205.46686
G1 X-43.127 Y0.844 E1205.4979
G1 X-43.665 Y0.281 E1205.53027
G1 X-44.298 Y-0.105 E1205.5611
G1 X-44.978 Y-0.312 E1205.59065
G1 X-45.756 Y-0.331 E1205.623
G1 X-46.479 Y-0.156 E1205.65393
G1 X-47.13 Y0.2 E1205.68478
G1 X-47.648 Y0.683 E1205.71422
G1 X-48.044 Y1.314 E1205.7452
G1 X-48.263 Y2.026 E1205.77617
G1 X-48.289 Y2.77 E1205.80712
G1 X-48.122 Y3.495 E1205.83805
G1 X-47.773 Y4.155 E1205.86909
G1 X-47.235 Y4.718 E1205.90146
G1 X-46.601 Y5.105 E1205.93235
G1 X-45.887 Y5.313 E1205.96326
G1 X-45.143 Y5.331 E1205.99421
G1 X-44.421 Y5.155 E1206.0251
G1 X-43.77 Y4.799 E1206.05595
G1 X-43.251 Y4.315 E1206.08545
G1 X-42.856 Y3.685 E1206.11637
G1 X-42.637 Y2.973 E1206.14734
G1 F6000 E1204.34734
G1 Z1
G0 F12000 X-42.304 Y3.075
G0 X-41.328 Y4.184
G0 X-39.848 Y3.05
G0 X-36.521 Y1.672
G0 X-32.95 Y1.202
G0 X-29.379 Y1.672
G0 X-26.052 Y3.05
G0 X-23.193 Y5.243
G0 X-21.001 Y8.102
G0 X-19.623 Y11.429
G0 X-19.152 Y14.999
G0 X-19.623 Y18.57
G0 X-21.001 Y21.897
G0 X-23.221 Y24.789
G0 X-22.877 Y25.182
G0 X-22.877 Y25.182
; TYPE:WALL-INNER
G1 Z0.5
G1 F6000 E1206.14734
G1 F2400 X-22.877 Y25.182 E1206.14734
G1 X-23.395 Y25.889 E1206.18378
G1 X-23.711 Y26.706 E1206.2202
G1 X-23.805 Y27.577 E1206.25662
G1 X-23.671 Y28.443 E1206.29305
G1 X-23.315 Y29.248 E1206.32965
G1 X-22.733 Y29.954 E1206.36769
G1 X-22.019 Y30.461 E1206.40409
G1 X-21.199 Y30.767 E1206.44048
G1 X-20.328 Y30.85 E1206.47686
G1 X-19.466 Y30.704 E1206.51321
G1 X-18.675 Y30.342 E1206.54937
G1 X-18.022 Y29.817 E1206.58421
G1 X-17.505 Y29.11 E1206.62062
G1 X-17.189 Y28.293 E1206.65704
G1 X-17.095 Y27.422 E1206.69346
G1 X-17.229 Y26.556 E1206.72989
G1 X-17.585 Y25.751 E1206.76649
G1 X-18.166 Y25.045 E1206.8045
G1 X-18.879 Y24.538 E1206.84088
G1 X-19.7 Y24.232 E1206.8773
G1 X-20.572 Y24.149 E1206.91372
G1 X-21.434 Y24.295 E1206.95007
G1 X-22.225 Y24.657 E1206.98623
G1 X-22.877 Y25.182 E1207.02104
G0 F12000 X-22.512 Y25.53
; TYPE:WALL-OUTER
G1 F1800 X-22.512 Y25.53 E1207.02104
G1 X-22.952 Y26.131 E1207.052
G1 X-23.221 Y26.825 E1207.08295
G1 X-23.301 Y27.566 E1207.11394
G1 X-23.187 Y28.301 E1207.14486
G1 X-22.886 Y28.983 E1207.17585
G1 X-22.39 Y29.585 E1207.20828
G1 X-21.783 Y30.016 E1207.23923
G1 X-21.086 Y30.276 E1207.27016
G1 X-20.347 Y30.346 E1207.30102
G1 X-19.614 Y30.222 E1207.33193
G1 X-18.94 Y29.913 E1207.36276
G1 X-18.387 Y29.469 E1207.39224
G1 X-17.948 Y28.868 E1207.42318
G1 X-17.679 Y28.174 E1207.45413
G1 X-17.599 Y27.433 E1207.48511
G1 X-17.713 Y26.698 E1207.51604
G1 X-18.014 Y26.016 E1207.54703
G1 X-18.51 Y25.414 E1207.57946
G1 X-19.116 Y24.983 E1207.61038
G1 X-19.813 Y24.723 E1207.6413
G1 X-20.553 Y24.653 E1207.67221
G1 X-21.286 Y24.777 E1207.70311
G1 X-21.96 Y25.086 E1207.73394
G1 X-22.512 Y25.53 E1207.76339
G0 F12000 X-22.793 Y25.322
G0 X-22.63 Y25.185
G0 X-22.323 Y24.929
G0 X-20.499 Y23.407
G0 X-20.499 Y23.407
; TYPE:FILL
G1 F2400 X-20.499 Y22.562 E1207.79852
G0 F12000 X-19.999 Y23.451
G1 F2400 X-19.999 Y21.576 E1207.87648
G0 F12000 X-19.499 Y20.368
G1 F2400 X-19.499 Y23.504 E1208.00686
G0 F12000 X-18.999 Y23.691
G1 F2400 X-18.999 Y19.161 E1208.19519
G0 F12000 X-18.499 Y16.188
G0 X-18.499 Y16.188
G1 F2400 X-18.499 Y23.886 E1208.51524
G0 F12000 X-17.999 Y24.242
G1 F2400 X-18 Y5.758 E1209.28371
G0 F12000 X-18.5 Y6.104
G1 F2400 X-18.5 Y13.809 E1209.60405
G0 F12000 X-19 Y10.836
G0 X-19 Y10.836
G1 F2400 X-19 Y6.307 E1209.79234
G0 F12000 X-19.5 Y6.487
G1 F2400 X-19.5 Y9.629 E1209.92297
G0 F12000 X-20 Y8.421
G1 F2400 X-20 Y6.548 E1210.00084
G0 F12000 X-20.5 Y6.605
G1 F2400 X-20.5 Y7.435 E1210.03535
G0 F12000 X-17.5 Y5.338
G0 X-17.5 Y5.338
G1 F2400 X-17.499 Y24.673 E1210.83921
G0 F12000 X-16.999 Y25.279
G1 F2400 X-17 Y4.714 E1211.6942
G0 F12000 X-16.5 Y3.646
G1 F2400 X-16.499 Y26.363 E1212.63866
G0 F12000 X-16.499 Y28.589
G0 X-16.499 Y28.589
G1 F2400 X-16.499 Y36.499 E1212.96752
G0 F12000 X-16.999 Y36.499
G1 F2400 X-16.999 Y29.689 E1213.25065
G0 F12000 X-17.499 Y30.359
G1 F2400 X-17.499 Y36.499 E1213.50592
G0 F12000 X-17.999 Y36.499
G1 F2400 X-17.999 Y30.761 E1213.74448
G0 F12000 X-18.499 Y31.087
G1 F2400 X-18.499 Y36.499 E1213.96948
G0 F12000 X-18.999 Y36.499
G1 F2400 X-18.999 Y31.315 E1214.18501
G0 F12000 X-19.499 Y31.47
G1 F2400 X-19.499 Y36.499 E1214.39409
G0 F12000 X-19.999 Y36.499
G1 F2400 X-19.999 Y31.554 E1214.59968
G0 F12000 X-20.499 Y31.586
G1 F2400 X-20.499 Y36.499 E1214.80394
G0 F12000 X-20.999 Y36.499
G1 F2400 X-20.999 Y31.539 E1215.01015
G0 F12000 X-21.499 Y31.455
G1 F2400 X-21.499 Y36.499 E1215.21986
G0 F12000 X-21.999 Y36.499
G1 F2400 X-21.999 Y31.269 E1215.4373
G0 F12000 X-22.499 Y31.039
G1 F2400 X-22.499 Y36.499 E1215.6643
G0 F12000 X-22.999 Y36.499
G1 F2400 X-22.999 Y30.684 E1215.90606
G0 F12000 X-23.499 Y30.203
G1 F2400 X-23.499 Y36.499 E1216.16781
G0 F12000 X-23.999 Y36.499
G1 F2400 X-23.999 Y29.554 E1216.45655
G0 F12000 X-24.499 Y27.989
G0 X-24.499 Y27.989
G1 F2400 X-24.499 Y36.499 E1216.81036
G0 F12000 X-24.999 Y36.499
G1 F2400 X-24.999 Y27.152 E1217.19896
G0 F12000 X-25.499 Y27.537
G1 F2400 X-25.499 Y36.499 E1217.57156
G0 F12000 X-25.999 Y36.499
G1 F2400 X-25.999 Y27.795 E1217.93343
G0 F12000 X-26.499 Y28.002
G1 F2400 X-26.499 Y36.499 E1218.28669
G0 F12000 X-26.999 Y36.499
G1 F2400 X-26.999 Y28.209 E1218.63135
G0 F12000 X-27.499 Y28.416
G1 F2400 X-27.499 Y36.499 E1218.9674
G0 F12000 X-27.999 Y36.499
G1 F2400 X-27.999 Y28.623 E1219.29485
G0 F12000 X-28.499 Y28.83
G1 F2400 X-28.499 Y36.499 E1219.61369
G0 F12000 X-28.999 Y36.499
G1 F2400 X-28.999 Y29.037 E1219.92392
G0 F12000 X-29.499 Y29.151
G1 F2400 X-29.499 Y36.499 E1220.22942
G0 F12000 X-29.999 Y36.499
G1 F2400 X-29.999 Y29.216 E1220.53221
G0 F12000 X-30.499 Y29.282
G1 F2400 X-30.499 Y36.499 E1220.83226
G0 F12000 X-30.999 Y36.499
G1 F2400 X-30.999 Y29.348 E1221.12956
G0 F12000 X-31.499 Y29.414
G1 F2400 X-31.499 Y36.499 E1221.42412
G0 F12000 X-31.999 Y36.499
G1 F2400 X-31.999 Y29.48 E1221.71594
G0 F12000 X-32.499 Y29.546
G1 F2400 X-32.499 Y36.499 E1222.00501
G0 F12000 X-32.999 Y36.499
G1 F2400 X-33 Y29.598 E1222.29192
G0 F12000 X-33.5 Y29.533
G1 F2400 X-33.499 Y36.499 E1222.58153
G0 F12000 X-33.999 Y36.499
G1 F2400 X-34 Y29.467 E1222.87389
G0 F12000 X-34.5 Y29.401
G1 F2400 X-34.499 Y36.499 E1223.16899
G0 F12000 X-34.999 Y36.499
G1 F2400 X-35 Y29.335 E1223.46683
G0 F12000 X-35.5 Y29.269
G1 F2400 X-35.499 Y36.499 E1223.76742
G0 F12000 X-35.999 Y36.499
G1 F2400 X-36 Y29.203 E1224.07075
G0 F12000 X-36.5 Y29.137
G1 F2400 X-36.499 Y36.499 E1224.37683
G0 F12000 X-36.999 Y36.499
G1 F2400 X-37 Y28.996 E1224.68877
G0 F12000 X-37.5 Y28.789
G1 F2400 X-37.499 Y36.499 E1225.00931
G0 F12000 X-37.999 Y36.499
G1 F2400 X-38 Y28.582 E1225.33846
G0 F12000 X-38.5 Y28.375
G1 F2400 X-38.499 Y36.499 E1225.67622
G0 F12000 X-38.999 Y36.499
G1 F2400 X-39 Y28.168 E1226.02258
G0 F12000 X-39.5 Y27.961
G1 F2400 X-39.499 Y36.499 E1226.37755
G0 F12000 X-39.999 Y36.499
G1 F2400 X-40 Y27.754 E1226.74113
G0 F12000 X-40.5 Y27.46
G1 F2400 X-40.499 Y36.499 E1227.11692
G0 F12000 X-40.999 Y36.499
G1 F2400 X-41 Y27.075 E1227.50873
G0 F12000 X-41.5 Y28.55
G0 X-41.5 Y28.55
G1 F2400 X-41.499 Y36.499 E1227.83921
G0 F12000 X-41.999 Y36.499
G1 F2400 X-41.999 Y29.728 E1228.12072
G0 F12000 X-42.499 Y30.321
G1 F2400 X-42.499 Y36.499 E1228.37757
G0 F12000 X-42.999 Y36.499
G1 F2400 X-42.999 Y30.765 E1228.61596
G0 F12000 X-43.499 Y31.101
G1 F2400 X-43.499 Y36.499 E1228.84038
G0 F12000 X-43.999 Y36.499
G1 F2400 X-43.999 Y31.306 E1229.05628
G0 F12000 X-44.499 Y31.487
G1 F2400 X-44.499 Y36.499 E1229.26466
G0 F12000 X-44.999 Y36.499
G1 F2400 X-44.999 Y31.55 E1229.47041
G0 F12000 X-45.499 Y31.592
G1 F2400 X-45.499 Y36.499 E1229.67442
G0 F12000 X-45.999 Y36.499
G1 F2400 X-45.999 Y31.539 E1229.88063
G0 F12000 X-46.499 Y31.448
G1 F2400 X-46.499 Y36.499 E1230.09063
G0 F12000 X-46.999 Y36.499
G1 F2400 X-46.999 Y31.271 E1230.30799
G0 F12000 X-47.499 Y31.036
G1 F2400 X-47.499 Y36.499 E1230.53511
G0 F12000 X-47.999 Y36.499
G1 F2400 X-47.999 Y30.676 E1230.7772
G0 F12000 X-48.499 Y30.247
G1 F2400 X-48.499 Y36.499 E1231.03713
G0 F12000 X-48.999 Y36.499
G1 F2400 X-49 Y29.527 E1231.32699
G0 F12000 X-49.5 Y28.029
G0 X-49.5 Y28.029
G1 F2400 X-49.499 Y36.499 E1231.67913
G0 F12000 X-49.999 Y36.499
G1 F2400 X-50 Y-36.499 E1234.71404
G0 F12000 X-50.5 Y-36.499
G1 F2400 X-50.499 Y36.499 E1237.74894
G0 F12000 X-50.999 Y36.499
G1 F2400 X-51 Y-36.499 E1240.78385
G0 F12000 X-51.5 Y-36.499
G1 F2400 X-51.499 Y36.499 E1243.81875
G0 F12000 X-51.999 Y36.499
G1 F2400 X-52 Y-36.499 E1246.85366
G0 F12000 X-52.5 Y-36.499
G1 F2400 X-52.499 Y36.499 E1249.88856
G0 F12000 X-52.999 Y36.499
G1 F2400 X-53 Y-36.499 E1252.92346
G0 F12000 X-53.5 Y-36.499
G1 F2400 X-53.499 Y36.499 E1255.95837
G0 F12000 X-53.999 Y36.499
G1 F2400 X-54 Y-36.499 E1258.99327
G0 F12000 X-54.5 Y-36.499
G1 F2400 X-54.499 Y36.499 E1262.02818
G0 F12000 X-54.999 Y36.499
G1 F2400 X-55 Y-36.499 E1265.06308
G0 F12000 X-55.5 Y-36.499
G1 F2400 X-55.499 Y36.499 E1268.09798
G0 F12000 X-55.999 Y36.499
G1 F2400 X-56 Y-36.499 E1271.13289
G0 F12000 X-49.5 Y-36.499
G0 X-49.5 Y-36.499
G1 F2400 X-49.5 Y1.8 E1272.72518
G0 F12000 X-49.5 Y3.079
G1 F2400 X-49.5 Y26.963 E1273.71816
G0 F12000 X-49 Y25.475
G0 X-49 Y25.475
G1 F2400 X-49 Y4.508 E1274.58986
G0 F12000 X-48.5 Y5.202
G1 F2400 X-48.5 Y24.792 E1275.40432
G0 F12000 X-48 Y24.3
G1 F2400 X-48 Y5.715 E1276.177
G0 F12000 X-47.5 Y6.02
G1 F2400 X-47.5 Y14.573 E1276.53259
G0 F12000 X-47.5 Y15.423
G1 F2400 X-47.5 Y23.963 E1276.88764
G0 F12000 X-47 Y23.728
G1 F2400 X-47 Y18.919 E1277.08758
G0 F12000 X-46.5 Y20.127
G1 F2400 X-46.5 Y23.546 E1277.22972
G0 F12000 X-46 Y23.456
G1 F2400 X-46 Y21.334 E1277.31794
G0 F12000 X-45.5 Y22.432
G1 F2400 X-45.5 Y23.414 E1277.35877
G0 F12000 X-45 Y23.156
G1 F2400 X-45 Y23.081 E1277.36189
G1 F6000 E1275.56189
G1 Z1
G0 F12000 X-45.508 Y20.025
G0 X-46.277 Y18.57
G0 X-46.747 Y15
G0 X-46.491 Y14.128
G0 X-47 Y11.078
G0 X-47 Y11.078
G1 Z0.5
G1 F6000 E1277.36189
G1 F2400 X-47 Y6.29 E1277.56095
G0 F12000 X-46.5 Y6.436
G1 F2400 X-46.5 Y9.87 E1277.70372
G0 F12000 X-46 Y8.663
G1 F2400 X-46 Y6.56 E1277.79115
G0 F12000 X-45.5 Y6.572
G1 F2400 X-45.5 Y7.565 E1277.83244
G0 F12000 X-45 Y6.914
G1 F2400 X-45 Y6.769 E1277.83846
G0 F12000 X-41 Y2.921
G0 X-41 Y2.921
G1 F2400 X-41 Y-7.4 E1278.26756
G0 F12000 X-41.5 Y-7.183
G1 F2400 X-41.5 Y1.483 E1278.62785
G0 F12000 X-42 Y0.3
G1 F2400 X-42 Y-7.016 E1278.93202
G0 F12000 X-42.5 Y-6.941
G1 F2400 X-42.5 Y-0.309 E1279.20774
G0 F12000 X-43 Y-0.777
G1 F2400 X-43 Y-6.911 E1279.46276
G0 F12000 X-43.5 Y-6.949
G1 F2400 X-43.5 Y-1.081 E1279.70673
G0 F12000 X-44 Y-1.32
G1 F2400 X-44 Y-7.05 E1279.94495
G0 F12000 X-44.5 Y-7.214
G1 F2400 X-44.5 Y-1.473 E1280.18364
G0 F12000 X-45 Y-1.562
G1 F2400 X-45 Y-7.464 E1280.42901
G0 F12000 X-45.5 Y-7.809
G1 F2400 X-45.5 Y-1.574 E1280.68823
G0 F12000 X-46 Y-1.556
G1 F2400 X-46 Y-8.254 E1280.9667
G0 F12000 X-46.5 Y-8.972
G1 F2400 X-46.5 Y-1.435 E1281.28006
G0 F12000 X-47 Y-1.294
G1 F2400 X-47 Y-10.423 E1281.6596
G0 F12000 X-47 Y-11.544
G1 F2400 X-47 Y-36.499 E1282.69711
G0 F12000 X-47.5 Y-36.499
G1 F2400 X-47.5 Y-1.022 E1284.17207
G0 F12000 X-48 Y-0.698
G1 F2400 X-48 Y-36.499 E1285.6605
G0 F12000 X-48.5 Y-36.499
G1 F2400 X-48.5 Y-0.231 E1287.16835
G0 F12000 X-49 Y0.484
G1 F2400 X-49 Y-36.499 E1288.70592
G0 F12000 X-46.5 Y-36.499
G1 F2400 X-46.5 Y-13.018 E1289.68215
G0 F12000 X-46 Y-13.704
G1 F2400 X-46 Y-36.499 E1290.62986
G0 F12000 X-45.5 Y-36.499
G1 F2400 X-45.5 Y-14.2 E1291.55694
G0 F12000 X-45 Y-14.53
G1 F2400 X-45 Y-36.499 E1292.4703
G0 F12000 X-44.5 Y-36.499
G1 F2400 X-44.5 Y-14.78 E1293.37328
G0 F12000 X-44 Y-14.947
G1 F2400 X-44 Y-36.499 E1294.2693
G0 F12000 X-43.5 Y-36.499
G1 F2400 X-43.5 Y-15.051 E1295.16101
G0 F12000 X-43 Y-15.08
G1 F2400 X-43 Y-36.499 E1296.05151
G0 F12000 X-42.5 Y-36.499
G1 F2400 X-42.5 Y-15.069 E1296.94246
G0 F12000 X-42 Y-14.967
G1 F2400 X-42 Y-36.499 E1297.83766
G0 F12000 X-41.5 Y-36.499
G1 F2400 X-41.5 Y-14.833 E1298.73843
G0 F12000 X-41 Y-14.583
G1 F2400 X-41 Y-36.499 E1299.64959
G0 F12000 X-40.5 Y-36.499
G1 F2400 X-40.5 Y-14.277 E1300.57347
G0 F12000 X-40 Y-13.832
G1 F2400 X-40 Y-36.499 E1301.51586
G0 F12000 X-39.5 Y-36.499
G1 F2400 X-39.5 Y-13.176 E1302.48551
G0 F12000 X-39 Y-12.046
G1 F2400 X-39 Y-36.499 E1303.50215
G0 F12000 X-38.5 Y-36.499
G1 F2400 X-38.5 Y1.622 E1305.08704
G0 F12000 X-39 Y1.829
G1 F2400 X-39 Y-9.963 E1305.57729
G0 F12000 X-39.5 Y-8.781
G1 F2400 X-39.5 Y2.036 E1306.02701
G0 F12000 X-40 Y2.243
G1 F2400 X-40 Y-8.179 E1306.46031
G0 F12000 X-40.5 Y-7.73
G1 F2400 X-40.5 Y2.537 E1306.88716
G0 F12000 X-38 Y1.415
G0 X-38 Y1.415
G1 F2400 X-38 Y-36.499 E1308.46344
G0 F12000 X-37.5 Y-36.499
G1 F2400 X-37.5 Y1.208 E1310.03112
G0 F12000 X-37 Y1.001
G1 F2400 X-37 Y-36.499 E1311.59018
G0 F12000 X-36.5 Y-36.499
G1 F2400 X-36.5 Y0.86 E1313.14339
G0 F12000 X-36 Y0.794
G1 F2400 X-36 Y-36.499 E1314.69385
G0 F12000 X-35.5 Y-36.499
G1 F2400 X-35.5 Y0.728 E1316.24157
G0 F12000 X-35 Y0.662
G1 F2400 X-35 Y-36.499 E1317.78655
G0 F12000 X-34.5 Y-36.499
G1 F2400 X-34.5 Y0.596 E1319.32878
G0 F12000 X-34 Y0.53
G1 F2400 X-34 Y-36.499 E1320.86827
G0 F12000 X-33.5 Y-36.499
G1 F2400 X-33.5 Y0.464 E1322.40501
G0 F12000 X-33 Y0.399
G1 F2400 X-33 Y-36.499 E1323.93905
G0 F12000 X-32.5 Y-36.499
G1 F2400 X-32.5 Y0.451 E1325.47525
G0 F12000 X-32 Y0.517
G1 F2400 X-32 Y-36.499 E1327.0142
G0 F12000 X-31.5 Y-36.499
G1 F2400 X-31.5 Y0.583 E1328.55589
G0 F12000 X-31 Y0.649
G1 F2400 X-31 Y-36.499 E1330.10032
G0 F12000 X-30.5 Y-36.499
G1 F2400 X-30.5 Y0.715 E1331.6475
G0 F12000 X-30 Y0.781
G1 F2400 X-30 Y-36.499 E1333.19742
G0 F12000 X-29.5 Y-36.5
G1 F2400 X-29.5 Y0.846 E1334.75009
G0 F12000 X-29 Y0.96
G1 F2400 X-29 Y-36.5 E1336.3075
G0 F12000 X-28.5 Y-36.5
G1 F2400 X-28.5 Y1.167 E1337.87351
G0 F12000 X-28 Y1.374
G1 F2400 X-28 Y-36.5 E1339.44813
G0 F12000 X-27.5 Y-36.5
G1 F2400 X-27.5 Y1.581 E1341.03135
G0 F12000 X-27 Y1.788
G1 F2400 X-27 Y-10.522 E1341.54314
G0 F12000 X-27 Y-11.474
G1 F2400 X-27 Y-24.515 E1342.08532
G0 F12000 X-27 Y-25.464
G1 F2400 X-27 Y-36.5 E1342.54414
G0 F12000 X-26.5 Y-36.5
G1 F2400 X-26.5 Y-27.053 E1342.93691
G0 F12000 X-26 Y-27.733
G1 F2400 X-26 Y-36.5 E1343.30139
G0 F12000 X-25.5 Y-36.5
G1 F2400 X-25.5 Y-28.179 E1343.64734
G0 F12000 X-25 Y-28.553
G1 F2400 X-25 Y-36.5 E1343.97774
G0 F12000 X-24.5 Y-36.5
G1 F2400 X-24.5 Y-28.771 E1344.29907
G0 F12000 X-24 Y-28.965
G1 F2400 X-24 Y-36.5 E1344.61234
G0 F12000 X-23.5 Y-36.5
G1 F2400 X-23.5 Y-29.04 E1344.92249
G0 F12000 X-23 Y-29.108
G1 F2400 X-23 Y-36.5 E1345.22982
G0 F12000 X-22.5 Y-36.5
G1 F2400 X-22.5 Y-29.052 E1345.53947
G0 F12000 X-22 Y-28.996
G1 F2400 X-22 Y-36.5 E1345.85145
G0 F12000 X-21.5 Y-36.5
G1 F2400 X-21.5 Y-28.81 E1346.17116
G0 F12000 X-21 Y-28.613
G1 F2400 X-21 Y-36.5 E1346.49907
G0 F12000 X-20.5 Y-36.5
G1 F2400 X-20.5 Y-28.26 E1346.84165
G0 F12000 X-20 Y-27.841
G1 F2400 X-20 Y-36.5 E1347.20164
G0 F12000 X-19.5 Y-36.5
G1 F2400 X-19.5 Y-27.213 E1347.58775
G0 F12000 X-19 Y-26.146
G1 F2400 X-19 Y-36.5 E1348.01822
G0 F12000 X-18.5 Y-36.5
G1 F2400 X-18.5 Y-1.098 E1349.49007
G0 F12000 X-19 Y-1.308
G1 F2400 X-19 Y-9.89 E1349.84686
G0 F12000 X-19.5 Y-8.8
G1 F2400 X-19.5 Y-1.478 E1350.15128
G0 F12000 X-20 Y-1.548
G1 F2400 X-20 Y-8.141 E1350.42538
G0 F12000 X-20.5 Y-7.739
G1 F2400 X-20.5 Y-1.597 E1350.68074
G0 F12000 X-21 Y-1.536
G1 F2400 X-21 Y-7.395 E1350.92433
G0 F12000 X-21.5 Y-7.184
G1 F2400 X-21.5 Y-1.468 E1351.16197
G0 F12000 X-22 Y-1.266
G1 F2400 X-22 Y-7.014 E1351.40094
G0 F12000 X-22.5 Y-6.945
G1 F2400 X-22.5 Y-1.052 E1351.64595
G0 F12000 X-23 Y-0.685
G1 F2400 X-23 Y-6.896 E1351.90417
G0 F12000 X-23.5 Y-6.958
G1 F2400 X-23.5 Y-0.214 E1352.18455
G0 F12000 X-24 Y0.445
G1 F2400 X-24 Y-7.024 E1352.49508
G0 F12000 X-24.5 Y-7.228
G1 F2400 X-24.5 Y2.01 E1352.87915
G0 F12000 X-25 Y2.845
G1 F2400 X-25 Y-7.437 E1353.30663
G0 F12000 X-25.5 Y-7.815
G1 F2400 X-25.5 Y2.46 E1353.73381
G0 F12000 X-26 Y2.202
G1 F2400 X-26 Y-8.28 E1354.1696
G0 F12000 X-26.5 Y-8.924
G1 F2400 X-26.5 Y1.995 E1354.62356
G1 F6000 E1352.82356
G1 Z1
G0 F12000 X-23.296 Y0.958
G0 X-23.275 Y0.788
G0 X-22.736 Y0.114
G0 X-22.071 Y-0.373
G0 X-21.277 Y-0.694
G0 X-20.424 Y-0.799
G0 X-19.572 Y-0.679
G0 X-19.086 Y-0.403
G0 X-18 Y-0.755
G0 X-18 Y-0.755
G1 Z0.5
G1 F6000 E1354.62356
G1 F2400 X-18 Y-36.5 E1356.10967
G0 F12000 X-17.5 Y-36.5
G1 F2400 X-17.5 Y-0.353 E1357.61248
G0 F12000 X-17 Y0.309
G1 F2400 X-17 Y-36.5 E1359.14282
G0 F12000 X-16.5 Y-36.5
G1 F2400 X-16.5 Y1.404 E1360.71869
G0 F12000 X-9.5 Y0.392
G0 X-9.5 Y0.392
G1 F2400 X-9.499 Y36.499 E1362.21984
G0 F12000 X-8.999 Y36.499
G1 F2400 X-9 Y2.621 E1363.62833
G0 F12000 X-8.5 Y3.676
G1 F2400 X-8.499 Y36.499 E1364.99295
G0 F12000 X-7.999 Y36.499
G1 F2400 X-7.999 Y4.442 E1366.32572
G0 F12000 X-7.499 Y5.029
G1 F2400 X-7.499 Y36.499 E1367.63409
G0 F12000 X-6.999 Y36.499
G1 F2400 X-6.999 Y5.597 E1368.91885
G0 F12000 X-6.499 Y5.942
G1 F2400 X-6.499 Y36.499 E1370.18926
G0 F12000 X-5.999 Y36.499
G1 F2400 X-5.999 Y6.287 E1371.44533
G0 F12000 X-5.499 Y6.632
G1 F2400 X-5.499 Y36.499 E1372.68706
G0 F12000 X-4.999 Y36.499
G1 F2400 X-4.999 Y6.837 E1373.92026
G0 F12000 X-4.499 Y7.016
G1 F2400 X-4.499 Y36.499 E1375.14602
G0 F12000 X-3.999 Y36.499
G1 F2400 X-3.999 Y7.195 E1376.36434
G0 F12000 X-3.499 Y7.352
G1 F2400 X-3.499 Y36.499 E1377.57613
G0 F12000 X-2.999 Y36.499
G1 F2400 X-2.999 Y7.392 E1378.78626
G0 F12000 X-2.499 Y7.432
G1 F2400 X-2.499 Y36.499 E1379.99472
G0 F12000 X-1.999 Y36.499
G1 F2400 X-1.999 Y7.473 E1381.20149
G0 F12000 X-1.499 Y7.481
G1 F2400 X-1.499 Y36.499 E1382.40791
G0 F12000 X-0.999 Y36.499
G1 F2400 X-0.999 Y7.389 E1383.61817
G0 F12000 X-0.499 Y7.297
G1 F2400 X-0.499 Y36.499 E1384.83224
G0 F12000 X0 Y36.5
G1 F2400 X0 Y7.206 E1386.05015
G0 F12000 X0.5 Y7.058
G1 F2400 X0.5 Y36.5 E1387.2742
G0 F12000 X1 Y36.5
G1 F2400 X1 Y6.821 E1388.50811
G0 F12000 X1.5 Y6.583
G1 F2400 X1.5 Y36.5 E1389.75192
G0 F12000 X2 Y36.5
G1 F2400 X2 Y6.346 E1391.00558
G0 F12000 X2.5 Y5.95
G1 F2400 X2.5 Y36.5 E1392.2757
G0 F12000 X3 Y36.5
G1 F2400 X3 Y5.524 E1393.56353
G0 F12000 X3.5 Y5.098
G1 F2400 X3.5 Y36.5 E1394.86907
G0 F12000 X4 Y36.5
G1 F2400 X4 Y4.416 E1396.20297
G0 F12000 X4.5 Y3.692
G1 F2400 X4.5 Y36.5 E1397.56697
G0 F12000 X5 Y36.5
G1 F2400 X5 Y2.546 E1398.97861
G0 F12000 X5.5 Y-0.339
G0 X5.5 Y-0.339
