; Generated with MatterSlice 1.0
; filamentDiameter = 1.75
; extrusionWidth = 0.5
; firstLayerExtrusionWidth = 0.625
; layerThickness = 0.2
; firstLayerThickness = 0.3
; automatic settings before start_gcode
G21 ; set units to millimeters
M107 ; fan off
M190 S60 ; wait for bed temperature to be reached
M104 T0 S210 ; start heating extruder 1
M109 T0 S210 ; wait for extruder 1
T0 ; set the active extruder to 0
; settings from start_gcode
G28
; automatic settings after start_gcode
T0 ; set the active extruder to 0
G90 ; use absolute coordinates
G92 E0 ; reset the expected extruder position
M82 ; use absolute distance for extrusion
; Layer count: 138
; Layer Change GCode
; LAYER:0
G4 P0
M107
G0 F12000 X64.687 Y44.687 Z0.8
; TYPE:SKIRT
G1 Z0.3
G1 F6000 E0
G1 F900 X-64.686 Y44.687 E10.08507
G1 X-64.686 Y-44.686 E17.052
G1 X64.687 Y-44.686 E27.13707
G1 X64.687 Y44.687 E34.10401
G0 F12000 X64.062 Y44.062
G1 F900 X-64.061 Y44.062 E44.09164
G1 X-64.061 Y-44.061 E50.96113
G1 X64.062 Y-44.061 E60.94876
G1 X64.062 Y44.062 E67.81825
G1 F6000 E66.01825
G1 Z0.8
G0 F12000 X-57.688 Y37.688
; TYPE:WALL-OUTER
G1 Z0.3
G1 F6000 E67.81825
G1 F900 X-57.688 Y37.688 E67.81825
G1 X-57.688 Y-37.688 E73.69407
G1 X57.688 Y-37.688 E82.68802
G1 X57.688 Y37.688 E88.56384
G1 X-57.688 Y37.688 E97.5578
G0 F12000 X-57.064 Y37.064
; TYPE:WALL-INNER
G1 F900 X-57.064 Y37.064 E97.5578
G1 X-57.064 Y-37.064 E103.33633
G1 X57.064 Y-37.064 E112.233
G1 X57.064 Y37.064 E118.01153
G1 X-57.064 Y37.064 E126.9082
G0 F12000 X-56.44 Y36.44
G1 F900 X-56.44 Y36.44 E126.9082
G1 X-56.44 Y-36.44 E132.58945
G1 X56.44 Y-36.44 E141.38883
G1 X56.44 Y36.44 E147.07008
G1 X-56.44 Y36.44 E155.86947
G0 F12000 X-46.308 Y30.449
G0 X-46.308 Y30.449
G0 X-46.021 Y30.154
; TYPE:WALL-OUTER
G1 F900 X-46.021 Y30.154 E155.86947
G1 X-43.272 Y29.366 E156.09239
G1 X-42.579 Y26.591 E156.31535
G1 X-44.636 Y24.603 E156.53835
G1 X-47.385 Y25.391 E156.76128
G1 X-48.078 Y28.165 E156.98417
G1 X-46.021 Y30.154 E157.20722
G0 F12000 X-46.196 Y30.853
; TYPE:WALL-INNER
G0 X-46.196 Y30.853
G1 F900 X-42.754 Y29.867 E157.48633
G1 X-42.114 Y27.305 E157.69218
G1 X-39.967 Y28.78 E157.89524
G1 X-36.161 Y30.126 E158.20993
G1 X-32.136 Y30.443 E158.52467
G1 X-28.167 Y29.706 E158.83935
G1 X-24.525 Y27.967 E159.15396
G1 X-23.709 Y27.27 E159.23762
G1 X-23.43 Y29.534 E159.41544
G1 X-20.134 Y30.932 E159.69453
G1 X-17.275 Y28.776 E159.97367
G1 X-17.712 Y25.222 E160.2528
G1 X-20.546 Y24.02 E160.49277
G1 X-19.17 Y22.016 E160.68227
G1 X-17.822 Y18.211 E160.99695
G1 X-17.507 Y14.186 E161.31167
G1 X-18.244 Y10.217 E161.62636
G1 X-19.982 Y6.574 E161.941
G1 X-20.606 Y5.844 E162.01587
G1 X-18.032 Y5.145 E162.22379
G1 X-17.115 Y1.684 E162.50289
G1 X-19.654 Y-0.841 E162.78203
G1 X-23.11 Y0.096 E163.06116
G1 X-23.134 Y0.185 E163.06835
G1 X-28.856 Y0.185 E163.5144
G1 X-29.738 Y-0.128 E163.58735
G1 X-33.763 Y-0.443 E163.90207
G1 X-37.732 Y0.293 E164.21675
G1 X-41.375 Y2.032 E164.53143
G0 F12000 X-41.57 Y2.149
G1 F900 X-41.777 Y2.375 E164.56147
G0 F12000 X-41.839 Y2.428
G1 F900 X-41.741 Y2.295 E164.57435
G0 F12000 X-41.766 Y2.267
G1 F900 X-43.853 Y-0.642 E164.85344
G1 X-47.416 Y-0.288 E165.13255
G1 X-48.891 Y2.975 E165.4117
G1 X-46.804 Y5.884 E165.69079
G1 X-45.178 Y5.722 E165.81817
G1 X-46.73 Y7.983 E166.03195
G1 X-48.076 Y11.788 E166.34657
G1 X-48.393 Y15.813 E166.66131
G1 X-47.656 Y19.782 E166.97599
G1 X-45.917 Y23.425 E167.29067
G1 X-45.302 Y24.145 E167.36449
G1 X-47.903 Y24.89 E167.5754
G1 X-48.771 Y28.363 E167.85446
G1 X-46.196 Y30.853 E168.13369
G0 F12000 X-46.371 Y31.552
G0 X-17.646 Y10.022
G1 F900 X-19.492 Y6.188 E168.4654
G1 X-17.521 Y5.653 E168.6246
G1 X-16.419 Y1.496 E168.95985
G1 X-19.47 Y-1.537 E169.29521
G1 X-23.521 Y-0.439 E169.62239
G1 X-28.747 Y-0.439 E170.02978
G1 X-29.607 Y-0.743 E170.10088
G1 X-33.796 Y-1.071 E170.42843
G1 X-37.927 Y-0.305 E170.75594
G1 X-41.589 Y1.443 E171.07226
G1 X-43.556 Y-1.298 E171.33526
G1 X-47.836 Y-0.873 E171.67054
G1 X-49.608 Y3.046 E172.00582
G1 X-47.101 Y6.54 E172.34105
G0 F12000 X-46.895 Y6.68
G1 F900 X-46.453 Y6.476 E172.37899
G0 F12000 X-46.69 Y6.821
G1 F900 X-47.291 Y7.697 E172.46181
G1 X-48.692 Y11.657 E172.78925
G1 X-49.021 Y15.846 E173.11681
G1 X-48.254 Y19.977 E173.44433
G1 X-46.444 Y23.768 E173.77181
G0 F12000 X-46.436 Y23.793
G1 F900 X-46.406 Y23.812 E173.77458
G0 F12000 X-46.429 Y23.818
G1 F900 X-48.421 Y24.389 E173.93612
G1 X-49.464 Y28.562 E174.27142
G1 X-46.371 Y31.552 E174.60677
G1 X-42.236 Y30.368 E174.94207
G1 X-41.726 Y28.328 E175.10598
G1 X-40.253 Y29.341 E175.24534
G1 X-36.292 Y30.742 E175.57286
G1 X-32.103 Y31.071 E175.90041
G1 X-27.972 Y30.304 E176.22794
G1 X-24.187 Y28.496 E176.55493
G1 X-24.005 Y29.968 E176.67055
G1 X-20.046 Y31.647 E177.00578
G1 X-16.612 Y29.057 E177.34107
G1 X-17.137 Y24.788 E177.67636
G1 X-19.599 Y23.744 E177.88482
G1 X-18.609 Y22.302 E178.02118
G1 X-17.207 Y18.342 E178.34865
G1 X-16.879 Y14.153 E178.67619
G1 X-17.646 Y10.022 E179.00372
G1 F6000 E177.20372
G1 Z0.8
G0 F12000 X-45.187 Y30.343
G0 X-42.869 Y29.756
G0 X-42.237 Y26.983
G0 X-39.915 Y28.679
G0 X-36.137 Y30.015
G0 X-32.143 Y30.329
G0 X-28.203 Y29.597
G0 X-24.588 Y27.871
G0 X-23.543 Y26.844
G0 X-23.302 Y29.438
G0 X-20.154 Y30.773
G0 X-17.422 Y28.714
G0 X-17.84 Y25.318
G0 X-20.989 Y23.983
G0 X-20.969 Y24.142
G0 X-19.271 Y21.964
G0 X-17.934 Y18.187
G0 X-17.621 Y14.193
G0 X-18.353 Y10.253
G0 X-20.078 Y6.637
G0 X-20.963 Y5.599
G0 X-21.127 Y5.766
G0 X-21.127 Y5.766
G0 X-21.303 Y5.386
; TYPE:WALL-OUTER
G0 X-21.303 Y5.386
G1 Z0.3
G1 F6000 E179.00372
G1 F900 X-18.543 Y4.637 E179.22666
G1 X-17.81 Y1.873 E179.44957
G1 X-19.839 Y-0.144 E179.67259
G1 X-22.599 Y0.604 E179.8955
G0 F12000 X-22.666 Y0.706
G1 F900 X-22.695 Y0.968 E179.92407
G0 F12000 X-22.733 Y1.109
G1 F900 X-22.695 Y0.818 E179.94695
G0 F12000 X-22.733 Y0.809
G1 F900 X-28.963 Y0.809 E180.4326
G1 X-29.869 Y0.488 E180.50753
G1 X-33.73 Y0.186 E180.80942
G1 X-37.537 Y0.892 E181.11125
G1 X-41.032 Y2.56 E181.41314
G1 X-43.558 Y4.717 E181.67207
G1 X-42.483 Y2.338 E181.87558
G1 X-44.15 Y0.015 E182.09846
G1 X-46.996 Y0.297 E182.32141
G1 X-48.174 Y2.904 E182.54442
G1 X-46.507 Y5.227 E182.7673
G1 X-43.988 Y4.978 E182.96462
G0 F12000 X-43.982 Y5.026
G1 F900 X-43.846 Y4.963 E182.97631
G0 F12000 X-43.977 Y5.075
G1 F900 X-46.169 Y8.268 E183.27822
G1 X-47.461 Y11.919 E183.58012
G1 X-47.764 Y15.78 E183.88203
G1 X-47.057 Y19.587 E184.18387
G1 X-45.389 Y23.082 E184.48576
G1 X-42.874 Y26.026 E184.78759
G1 X-39.682 Y28.219 E185.08948
G1 X-36.03 Y29.511 E185.39146
G1 X-32.169 Y29.814 E185.69336
G1 X-28.362 Y29.107 E185.99521
G1 X-24.868 Y27.439 E186.29702
G1 X-21.923 Y24.924 E186.59892
G1 X-19.731 Y21.731 E186.90083
G1 X-18.438 Y18.08 E187.20276
G1 X-18.136 Y14.219 E187.50466
G1 X-18.843 Y10.412 E187.8065
G1 X-20.51 Y6.917 E188.10835
G1 X-21.601 Y5.641 E188.23922
G0 F12000 X-21.452 Y5.513
G1 F900 X-22.645 Y4.227 E188.43044
G1 X-22.733 Y3.964 E188.45206
G1 F6000 E186.65206
G1 Z0.8
G0 F12000 X-21.127 Y5.766
G0 X-21.112 Y5.864
G0 X-18.145 Y5.033
G0 X-17.268 Y1.726
G0 X-19.695 Y-0.687
G0 X-21.986 Y-0.092
G0 X-22.919 Y-6.447
G0 X-22.919 Y-6.447
; TYPE:WALL-INNER
G1 Z0.3
G1 F6000 E188.45206
G1 F900 X-22.919 Y-6.447 E188.45206
G1 X-21.74 Y-6.61 E188.54484
G1 X-20.646 Y-7.073 E188.63745
G1 X-19.708 Y-7.803 E188.7301
G1 X-18.991 Y-8.751 E188.82276
G1 X-18.544 Y-9.852 E188.91539
G1 X-18.397 Y-11.032 E189.00808
G1 X-18.561 Y-12.209 E189.10072
G1 X-19.023 Y-13.304 E189.19337
G1 X-19.753 Y-14.241 E189.28596
G1 X-20.7 Y-14.958 E189.37855
G1 X-21.802 Y-15.406 E189.47129
G1 X-22.982 Y-15.552 E189.56397
G1 X-24.159 Y-15.389 E189.6566
G1 X-25.254 Y-14.926 E189.74927
G1 X-26.191 Y-14.196 E189.84187
G1 X-26.909 Y-13.249 E189.93451
G1 X-27.356 Y-12.147 E190.02721
G1 X-27.502 Y-10.967 E190.1199
G1 X-27.339 Y-9.79 E190.21253
G1 X-26.876 Y-8.695 E190.3052
G1 X-26.147 Y-7.758 E190.39775
G1 X-25.198 Y-7.041 E190.49046
G1 X-24.097 Y-6.593 E190.58312
G1 X-22.919 Y-6.447 E190.67566
G0 F12000 X-22.914 Y-5.818
G1 F900 X-22.914 Y-5.818 E190.67566
G1 X-21.573 Y-6.003 E190.78118
G1 X-20.327 Y-6.53 E190.88664
G1 X-19.26 Y-7.361 E190.99207
G1 X-18.444 Y-8.44 E191.09752
G1 X-17.935 Y-9.693 E191.20295
G1 X-17.767 Y-11.036 E191.30846
G1 X-17.954 Y-12.376 E191.41393
G1 X-18.48 Y-13.622 E191.51936
G1 X-19.311 Y-14.69 E191.62485
G1 X-20.389 Y-15.505 E191.73019
G1 X-21.643 Y-16.015 E191.83572
G1 X-22.986 Y-16.181 E191.94121
G1 X-24.326 Y-15.996 E192.04666
G1 X-25.573 Y-15.469 E192.15219
G1 X-26.639 Y-14.638 E192.25756
G1 X-27.456 Y-13.56 E192.363
G1 X-27.965 Y-12.305 E192.46857
G1 X-28.131 Y-10.963 E192.57398
G1 X-27.946 Y-9.623 E192.67943
G1 X-27.419 Y-8.377 E192.78489
G1 X-26.589 Y-7.309 E192.89033
G1 X-25.509 Y-6.494 E192.9958
G1 X-24.256 Y-5.984 E193.10126
G1 X-22.914 Y-5.818 E193.20667
G0 F12000 X-22.923 Y-7.076
; TYPE:WALL-OUTER
G1 F900 X-22.923 Y-7.076 E193.20667
G1 X-21.907 Y-7.217 E193.28663
G1 X-20.965 Y-7.616 E193.36638
G1 X-20.156 Y-8.245 E193.44626
G1 X-19.538 Y-9.062 E193.52611
G1 X-19.153 Y-10.011 E193.60595
G1 X-19.026 Y-11.027 E193.68577
G1 X-19.168 Y-12.042 E193.76566
G1 X-19.566 Y-12.985 E193.84545
G1 X-20.195 Y-13.793 E193.92527
G1 X-21.011 Y-14.411 E194.00506
G1 X-21.961 Y-14.797 E194.085
G1 X-22.977 Y-14.923 E194.16481
G1 X-23.992 Y-14.782 E194.24469
G1 X-24.935 Y-14.383 E194.32451
G1 X-25.743 Y-13.754 E194.40433
G1 X-26.362 Y-12.938 E194.48417
G1 X-26.747 Y-11.988 E194.56408
G1 X-26.873 Y-10.972 E194.64388
G1 X-26.732 Y-9.957 E194.72377
G1 X-26.333 Y-9.014 E194.80359
G1 X-25.705 Y-8.206 E194.88336
G1 X-24.887 Y-7.588 E194.96328
G1 X-23.938 Y-7.202 E195.04314
G1 X-22.923 Y-7.076 E195.12287
G1 F6000 E193.32287
G1 Z0.8
G0 F12000 X-22.973 Y-6.667
G0 X-22.973 Y-6.554
G0 X-21.771 Y-6.72
G0 X-20.704 Y-7.171
G0 X-19.789 Y-7.883
G0 X-19.091 Y-8.808
G0 X-18.655 Y-9.881
G0 X-18.511 Y-11.03
G0 X-18.671 Y-12.177
G0 X-19.121 Y-13.246
G0 X-19.833 Y-14.16
G0 X-20.757 Y-14.858
G0 X-21.831 Y-15.295
G0 X-22.903 Y-15.427
G0 X-22.865 Y-20.447
G0 X-22.865 Y-20.447
; TYPE:WALL-INNER
G1 Z0.3
G1 F6000 E195.12287
G1 F900 X-22.865 Y-20.447 E195.12287
G1 X-21.691 Y-20.625 E195.21544
G1 X-20.601 Y-21.099 E195.30809
G1 X-19.671 Y-21.84 E195.40079
G1 X-18.966 Y-22.797 E195.49345
G1 X-18.532 Y-23.903 E195.58606
G1 X-18.398 Y-25.083 E195.67864
G1 X-18.575 Y-26.259 E195.77134
G1 X-19.05 Y-27.348 E195.86396
G1 X-19.791 Y-28.278 E195.95665
G1 X-20.747 Y-28.983 E196.04925
G1 X-21.852 Y-29.418 E196.14182
G1 X-23.035 Y-29.552 E196.23463
G1 X-24.209 Y-29.374 E196.3272
G1 X-25.299 Y-28.9 E196.41985
G1 X-26.228 Y-28.159 E196.51249
G1 X-26.934 Y-27.203 E196.60513
G1 X-27.368 Y-26.096 E196.69782
G1 X-27.502 Y-24.916 E196.79039
G1 X-27.325 Y-23.74 E196.8831
G1 X-26.85 Y-22.651 E196.97571
G1 X-26.109 Y-21.721 E197.06841
G1 X-25.153 Y-21.016 E197.16101
G1 X-24.047 Y-20.581 E197.25365
G1 X-22.865 Y-20.447 E197.34638
G0 F12000 X-22.853 Y-19.818
G1 F900 X-22.853 Y-19.818 E197.34638
G1 X-21.517 Y-20.02 E197.45171
G1 X-20.277 Y-20.56 E197.55714
G1 X-19.218 Y-21.403 E197.66266
G1 X-18.415 Y-22.492 E197.76813
G1 X-17.921 Y-23.751 E197.87356
G1 X-17.769 Y-25.095 E197.979
G1 X-17.97 Y-26.434 E198.08455
G1 X-18.511 Y-27.673 E198.18994
G1 X-19.354 Y-28.731 E198.29539
G1 X-20.442 Y-29.534 E198.4008
G1 X-21.7 Y-30.029 E198.50619
G1 X-23.047 Y-30.181 E198.61186
G1 X-24.383 Y-29.979 E198.71718
G1 X-25.624 Y-29.439 E198.82269
G1 X-26.681 Y-28.596 E198.92808
G1 X-27.485 Y-27.507 E199.0336
G1 X-27.979 Y-26.248 E199.13903
G1 X-28.131 Y-24.904 E199.24447
G1 X-27.93 Y-23.565 E199.35001
G1 X-27.389 Y-22.326 E199.4554
G1 X-26.546 Y-21.268 E199.56086
G1 X-25.457 Y-20.465 E199.66633
G1 X-24.199 Y-19.97 E199.77172
G1 X-22.853 Y-19.818 E199.87731
G0 F12000 X-22.877 Y-21.076
; TYPE:WALL-OUTER
G1 F900 X-22.877 Y-21.076 E199.87731
G1 X-21.865 Y-21.23 E199.95711
G1 X-20.926 Y-21.638 E200.03692
G1 X-20.124 Y-22.277 E200.11685
G1 X-19.517 Y-23.101 E200.19663
G1 X-19.143 Y-24.054 E200.27644
G1 X-19.027 Y-25.072 E200.35631
G1 X-19.18 Y-26.085 E200.43617
G1 X-19.589 Y-27.023 E200.51594
G1 X-20.228 Y-27.825 E200.59588
G1 X-21.052 Y-28.432 E200.67566
G1 X-22.004 Y-28.807 E200.75542
G1 X-23.023 Y-28.923 E200.83537
G1 X-24.035 Y-28.769 E200.91516
G1 X-24.974 Y-28.361 E200.99497
G1 X-25.775 Y-27.722 E201.07485
G1 X-26.383 Y-26.898 E201.15468
G1 X-26.757 Y-25.945 E201.23448
G1 X-26.873 Y-24.927 E201.31435
G1 X-26.72 Y-23.914 E201.39421
G1 X-26.311 Y-22.976 E201.47398
G1 X-25.672 Y-22.174 E201.55392
G1 X-24.848 Y-21.567 E201.6337
G1 X-23.895 Y-21.192 E201.71353
G1 X-22.877 Y-21.076 E201.7934
G1 F6000 E199.9934
G1 Z0.8
G0 F12000 X-22.922 Y-20.667
G0 X-23.698 Y-20.816
G0 X-24.019 Y-20.691
G0 X-24.355 Y-20.943
G0 X-38.587 Y-23.699
G0 X-38.587 Y-23.699
; TYPE:WALL-INNER
G1 Z0.3
G1 F6000 E201.7934
G1 F900 X-38.587 Y-23.699 E201.7934
G1 X-38.399 Y-24.871 E201.88593
G1 X-38.52 Y-26.054 E201.97863
G1 X-38.945 Y-27.165 E202.07136
G1 X-39.642 Y-28.128 E202.16403
G1 X-40.564 Y-28.877 E202.25663
G1 X-41.649 Y-29.363 E202.34931
G1 X-42.823 Y-29.551 E202.44199
G1 X-44.005 Y-29.428 E202.53463
G1 X-45.115 Y-29.005 E202.62723
G1 X-46.078 Y-28.308 E202.71989
G1 X-46.827 Y-27.386 E202.81249
G1 X-47.313 Y-26.301 E202.90517
G1 X-47.501 Y-25.127 E202.99786
G1 X-47.378 Y-23.944 E203.09057
G1 X-46.955 Y-22.834 E203.18317
G1 X-46.258 Y-21.871 E203.27584
G1 X-45.336 Y-21.122 E203.36844
G1 X-44.251 Y-20.636 E203.46112
G1 X-43.077 Y-20.448 E203.5538
G1 X-41.895 Y-20.571 E203.64644
G1 X-40.785 Y-20.994 E203.73904
G1 X-39.823 Y-21.691 E203.83164
G1 X-39.072 Y-22.613 E203.92434
G1 X-38.587 Y-23.699 E204.01706
G0 F12000 X-37.984 Y-23.519
G1 F900 X-37.984 Y-23.519 E204.01706
G1 X-37.77 Y-24.853 E204.12238
G1 X-37.908 Y-26.2 E204.22793
G1 X-38.391 Y-27.465 E204.33348
G1 X-39.185 Y-28.56 E204.43892
G1 X-40.234 Y-29.413 E204.54432
G1 X-41.469 Y-29.966 E204.6498
G1 X-42.805 Y-30.18 E204.75527
G1 X-44.151 Y-30.041 E204.86076
G1 X-45.414 Y-29.558 E204.96617
G1 X-46.51 Y-28.765 E205.07162
G1 X-47.363 Y-27.716 E205.17702
G1 X-47.916 Y-26.481 E205.2825
G1 X-48.13 Y-25.145 E205.38797
G1 X-47.991 Y-23.798 E205.49353
G1 X-47.508 Y-22.535 E205.59894
G1 X-46.715 Y-21.439 E205.7044
G1 X-45.666 Y-20.586 E205.8098
G1 X-44.431 Y-20.033 E205.91528
G1 X-43.095 Y-19.819 E206.02075
G1 X-41.749 Y-19.958 E206.12624
G1 X-40.486 Y-20.441 E206.23164
G1 X-39.391 Y-21.233 E206.33699
G1 X-38.536 Y-22.283 E206.44255
G1 X-37.984 Y-23.519 E206.54807
G0 F12000 X-39.169 Y-22.861
G0 X-39.169 Y-22.674
G0 X-39.901 Y-21.774
G0 X-40.839 Y-21.095
G0 X-41.922 Y-20.682
G0 X-43.109 Y-20.678
G0 X-43.124 Y-20.671
G0 X-43.124 Y-20.671
G0 X-43.06 Y-21.077
; TYPE:WALL-OUTER
G1 F900 X-43.06 Y-21.077 E206.54807
G1 X-42.041 Y-21.183 E206.62793
G1 X-41.084 Y-21.548 E206.70777
G1 X-40.255 Y-22.148 E206.78755
G1 X-39.608 Y-22.943 E206.86745
G1 X-39.19 Y-23.878 E206.94729
G1 X-39.028 Y-24.889 E207.02711
G1 X-39.133 Y-25.909 E207.10704
G1 X-39.498 Y-26.866 E207.18688
G1 X-40.099 Y-27.695 E207.2667
G1 X-40.894 Y-28.341 E207.34655
G1 X-41.829 Y-28.76 E207.42642
G1 X-42.84 Y-28.922 E207.50624
G1 X-43.859 Y-28.816 E207.5861
G1 X-44.816 Y-28.451 E207.66595
G1 X-45.645 Y-27.851 E207.74572
G1 X-46.291 Y-27.056 E207.82557
G1 X-46.71 Y-26.121 E207.90544
G1 X-46.872 Y-25.11 E207.98526
G1 X-46.766 Y-24.09 E208.0652
G1 X-46.401 Y-23.133 E208.14505
G1 X-45.801 Y-22.304 E208.22482
G1 X-45.006 Y-21.658 E208.30467
G1 X-44.071 Y-21.239 E208.38454
G1 X-43.06 Y-21.077 E208.46436
G1 F6000 E206.66436
G1 Z0.8
G0 F12000 X-43.124 Y-20.671
G0 X-42.625 Y-15.541
G0 X-42.625 Y-15.541
; TYPE:WALL-INNER
G1 Z0.3
G1 F6000 E208.46436
G1 F900 X-42.625 Y-15.541 E208.46436
G1 X-43.812 Y-15.47 E208.55705
G1 X-44.94 Y-15.094 E208.64974
G1 X-45.931 Y-14.44 E208.7423
G1 X-46.72 Y-13.551 E208.83496
G1 X-47.252 Y-12.489 E208.92755
G1 X-47.491 Y-11.324 E209.02026
G1 X-47.42 Y-10.139 E209.1128
G1 X-47.045 Y-9.011 E209.20546
G1 X-46.391 Y-8.018 E209.29815
G1 X-45.502 Y-7.229 E209.39081
G1 X-44.439 Y-6.697 E209.48347
G1 X-43.274 Y-6.458 E209.57618
G1 X-42.088 Y-6.529 E209.6688
G1 X-40.96 Y-6.905 E209.76148
G1 X-39.969 Y-7.558 E209.854
G1 X-39.179 Y-8.448 E209.94677
G1 X-38.648 Y-9.51 E210.03933
G1 X-38.408 Y-10.674 E210.13197
G1 X-38.479 Y-11.861 E210.22467
G1 X-38.855 Y-12.989 E210.31736
G1 X-39.509 Y-13.981 E210.40998
G1 X-40.398 Y-14.77 E210.50264
G1 X-41.461 Y-15.302 E210.5953
G1 X-42.625 Y-15.541 E210.68793
G0 F12000 X-42.58 Y-16.168
G1 F900 X-42.58 Y-16.168 E210.68793
G1 X-43.931 Y-16.088 E210.79343
G1 X-45.215 Y-15.66 E210.89894
G1 X-46.344 Y-14.916 E211.00434
G1 X-47.241 Y-13.904 E211.10976
G1 X-47.847 Y-12.695 E211.21518
G1 X-48.118 Y-11.369 E211.32068
G1 X-48.038 Y-10.02 E211.42602
G1 X-47.612 Y-8.736 E211.53148
G1 X-46.866 Y-7.606 E211.63703
G1 X-45.855 Y-6.708 E211.74244
G1 X-44.644 Y-6.102 E211.84801
G1 X-43.319 Y-5.831 E211.95343
G1 X-41.969 Y-5.911 E212.05885
G1 X-40.685 Y-6.339 E212.16436
G1 X-39.557 Y-7.083 E212.2697
G1 X-38.658 Y-8.095 E212.37522
G1 X-38.053 Y-9.304 E212.4806
G1 X-37.781 Y-10.629 E212.58605
G1 X-37.861 Y-11.98 E212.69155
G1 X-38.289 Y-13.264 E212.79705
G1 X-39.034 Y-14.393 E212.9025
G1 X-40.045 Y-15.291 E213.00791
G1 X-41.255 Y-15.897 E213.1134
G1 X-42.58 Y-16.168 E213.21883
G1 F6000 E211.41883
G1 Z0.8
G0 F12000 X-42.636 Y-15.427
G0 X-41.499 Y-15.195
G0 X-40.462 Y-14.675
G0 X-39.596 Y-13.907
G0 X-38.958 Y-12.939
G0 X-38.591 Y-11.838
G0 X-38.522 Y-10.683
G0 X-38.755 Y-9.548
G0 X-39.274 Y-8.512
G0 X-40.044 Y-7.644
G0 X-41.011 Y-7.007
G0 X-42.111 Y-6.641
G0 X-43.32 Y-6.568
G0 X-43.312 Y-6.682
G0 X-43.312 Y-6.682
G0 X-43.229 Y-7.086
; TYPE:WALL-OUTER
G1 Z0.3
G1 F6000 E213.21883
G1 F900 X-43.229 Y-7.086 E213.21883
G1 X-42.207 Y-7.147 E213.29864
G1 X-41.235 Y-7.471 E213.37851
G1 X-40.381 Y-8.034 E213.45824
G1 X-39.7 Y-8.801 E213.5382
G1 X-39.243 Y-9.716 E213.61793
G1 X-39.036 Y-10.719 E213.69776
G1 X-39.097 Y-11.742 E213.77765
G1 X-39.421 Y-12.714 E213.85752
G1 X-39.985 Y-13.569 E213.93737
G1 X-40.751 Y-14.249 E214.01721
G1 X-41.667 Y-14.707 E214.09705
G1 X-42.67 Y-14.913 E214.17687
G1 X-43.693 Y-14.852 E214.25675
G1 X-44.665 Y-14.528 E214.33662
G1 X-45.519 Y-13.965 E214.41636
G1 X-46.199 Y-13.198 E214.49626
G1 X-46.657 Y-12.283 E214.57603
G1 X-46.863 Y-11.279 E214.65592
G1 X-46.802 Y-10.258 E214.73566
G1 X-46.479 Y-9.286 E214.8155
G1 X-45.915 Y-8.43 E214.89541
G1 X-45.149 Y-7.75 E214.97526
G1 X-44.233 Y-7.292 E215.05509
G1 X-43.229 Y-7.086 E215.13499
G1 F6000 E213.33499
G1 Z0.8
G0 F12000 X-43.312 Y-6.682
G0 X-43.261 Y-6.691
G0 X-43.266 Y-6.572
G0 X-42.111 Y-6.641
G0 X-41.011 Y-7.007
G0 X-41.011 Y-7.154
G0 X-27.251 Y-9.984
G0 X-27.388 Y-10.969
G0 X-27.245 Y-12.118
G0 X-26.809 Y-13.192
G0 X-26.11 Y-14.116
G0 X-25.196 Y-14.828
G0 X-24.128 Y-15.279
G0 X-22.98 Y-15.438
G0 X-21.831 Y-15.295
G0 X-20.757 Y-14.858
G0 X-19.833 Y-14.16
G0 X-19.121 Y-13.246
G0 X-18.671 Y-12.177
G0 X-18.61 Y-11.761
G0 X15.224 Y-18.72
G0 X15.224 Y-18.72
; TYPE:WALL-INNER
G1 Z0.3
G1 F6000 E215.13499
G1 F900 X15.224 Y-18.72 E215.13499
G1 X15.719 Y-17.523 E215.23596
G1 X16.541 Y-16.473 E215.33991
G1 X17.571 Y-15.698 E215.44039
G1 X18.768 Y-15.217 E215.54096
G1 X20.047 Y-15.06 E215.64141
G1 X21.324 Y-15.242 E215.74196
G1 X22.506 Y-15.744 E215.84206
G1 X23.495 Y-16.503 E215.93925
G1 X24.282 Y-17.527 E216.03992
G1 X24.775 Y-18.72 E216.14055
G1 X24.943 Y-20 E216.24119
G1 X24.775 Y-21.279 E216.34175
G1 X24.28 Y-22.476 E216.44272
G1 X23.458 Y-23.526 E216.54667
G1 X22.428 Y-24.301 E216.64715
G1 X21.231 Y-24.782 E216.74771
G1 X19.951 Y-24.939 E216.84824
G1 X18.675 Y-24.757 E216.94872
G1 X17.492 Y-24.255 E217.04889
G1 X16.504 Y-23.496 E217.14602
G1 X15.717 Y-22.472 E217.24669
G1 X15.224 Y-21.279 E217.34732
G1 X15.055 Y-20 E217.44789
G1 X15.224 Y-18.72 E217.54853
G0 F12000 X14.616 Y-18.557
G1 F900 X14.616 Y-18.557 E217.54853
G1 X15.175 Y-17.206 E217.66251
G1 X16.1 Y-16.024 E217.77951
G1 X17.262 Y-15.149 E217.8929
G1 X18.611 Y-14.607 E218.00623
G1 X20.053 Y-14.43 E218.11948
G1 X21.493 Y-14.635 E218.23287
G1 X22.823 Y-15.201 E218.34554
G1 X23.94 Y-16.058 E218.45529
G1 X24.827 Y-17.212 E218.56875
G1 X25.383 Y-18.558 E218.68228
G1 X25.572 Y-20 E218.79565
G1 X25.383 Y-21.442 E218.90902
G1 X24.824 Y-22.793 E219.02299
G1 X23.899 Y-23.975 E219.14
G1 X22.737 Y-24.85 E219.25339
G1 X21.388 Y-25.392 E219.36672
G1 X19.945 Y-25.569 E219.48005
G1 X18.506 Y-25.364 E219.59335
G1 X17.175 Y-24.798 E219.7061
G1 X16.059 Y-23.941 E219.81579
G1 X15.172 Y-22.787 E219.92925
G1 X14.616 Y-21.442 E220.0427
G1 X14.425 Y-20 E220.15609
G1 X14.616 Y-18.557 E220.26956
G1 F6000 E218.46956
G1 Z0.8
G0 F12000 X15.76 Y-17.858
G0 X16.621 Y-16.555
G0 X17.627 Y-15.797
G0 X18.797 Y-15.328
G0 X19.954 Y-15.302
G0 X19.992 Y-15.28
G0 X19.992 Y-15.28
G0 X20.041 Y-15.689
; TYPE:WALL-OUTER
G1 Z0.3
G1 F6000 E220.26956
G1 F900 X20.041 Y-15.689 E220.26956
G1 X21.155 Y-15.848 E220.35728
G1 X22.189 Y-16.287 E220.44485
G1 X23.05 Y-16.948 E220.52947
G1 X23.737 Y-17.842 E220.61736
G1 X24.167 Y-18.883 E220.70516
G1 X24.314 Y-20 E220.79298
G1 X24.167 Y-21.116 E220.88073
G1 X23.736 Y-22.159 E220.9687
G1 X23.017 Y-23.077 E221.0596
G1 X22.119 Y-23.753 E221.14722
G1 X21.074 Y-24.173 E221.23501
G1 X19.957 Y-24.31 E221.32274
G1 X18.844 Y-24.151 E221.41038
G1 X17.809 Y-23.712 E221.49802
G1 X16.949 Y-23.051 E221.58258
G1 X16.262 Y-22.157 E221.67047
G1 X15.832 Y-21.116 E221.75827
G1 X15.684 Y-20 E221.84603
G1 X15.832 Y-18.883 E221.93386
G1 X16.263 Y-17.84 E222.02183
G1 X16.982 Y-16.922 E222.11273
G1 X17.88 Y-16.246 E222.20035
G1 X18.925 Y-15.826 E222.28815
G1 X20.041 Y-15.689 E222.3758
G1 F6000 E220.5758
G1 Z0.8
G0 F12000 X19.992 Y-15.28
G0 X-17.603 Y27.436
G0 X-17.422 Y28.714
G0 X-20.154 Y30.773
G0 X-20.446 Y30.666
G0 X-20.383 Y30.596
G0 X-20.383 Y30.596
G0 X-20.222 Y30.217
G1 Z0.3
G1 F6000 E222.3758
G1 F900 X-20.222 Y30.217 E222.3758
G1 X-17.938 Y28.495 E222.59878
G1 X-18.287 Y25.656 E222.82175
G1 X-20.921 Y24.539 E223.04478
G1 X-23.205 Y26.261 E223.26776
G1 X-22.855 Y29.1 E223.49074
G1 X-20.222 Y30.217 E223.7137
G0 F12000 X-20.383 Y30.596
G0 X-20.467 Y31.875
G0 X-20.467 Y31.875
; TYPE:BOTTOM-FILL
G1 F900 X-46.14 Y31.875 E225.715
G0 F12000 X-46.574 Y31.875
G1 F900 X-56.065 Y31.875 E226.45486
G0 F12000 X-56.065 Y31.25
G1 F900 X-47.221 Y31.25 E227.14428
G0 F12000 X-47.868 Y30.625
G1 F900 X-56.065 Y30.625 E227.78326
G0 F12000 X-56.065 Y30
G1 F900 X-48.515 Y30 E228.37181
G0 F12000 X-49.162 Y29.375
G1 F900 X-56.065 Y29.375 E228.90992
G0 F12000 X-56.065 Y28.75
G1 F900 X-49.809 Y28.75 E229.3976
G0 F12000 X-49.741 Y28.125
G1 F900 X-56.065 Y28.125 E229.89058
G0 F12000 X-56.065 Y27.5
G1 F900 X-49.585 Y27.5 E230.39571
G0 F12000 X-49.429 Y26.875
G1 F900 X-56.065 Y26.875 E230.91301
G0 F12000 X-56.065 Y26.25
G1 F900 X-49.273 Y26.25 E231.44247
G0 F12000 X-49.116 Y25.625
G1 F900 X-56.065 Y25.625 E231.98417
G0 F12000 X-56.065 Y25
G1 F900 X-48.96 Y25 E232.53803
G0 F12000 X-48.804 Y24.375
G1 F900 X-56.065 Y24.375 E233.10405
G0 F12000 X-56.065 Y23.75
G1 F900 X-47.555 Y23.75 E233.76743
G0 F12000 X-47.166 Y23.125
G1 F900 X-56.065 Y23.125 E234.46114
G0 F12000 X-56.065 Y22.5
G1 F900 X-47.464 Y22.5 E235.13162
G0 F12000 X-47.762 Y21.875
G1 F900 X-56.065 Y21.875 E235.77887
G0 F12000 X-56.065 Y21.25
G1 F900 X-48.06 Y21.25 E236.40288
G0 F12000 X-48.359 Y20.625
G1 F900 X-56.065 Y20.625 E237.00359
G0 F12000 X-56.065 Y20
G1 F900 X-48.63 Y20 E237.58318
G0 F12000 X-48.746 Y19.375
G1 F900 X-56.065 Y19.375 E238.15372
G0 F12000 X-56.065 Y18.75
G1 F900 X-48.862 Y18.75 E238.71522
G0 F12000 X-48.979 Y18.125
G1 F900 X-56.065 Y18.125 E239.2676
G0 F12000 X-56.065 Y17.5
G1 F900 X-49.095 Y17.5 E239.81093
G0 F12000 X-49.211 Y16.875
G1 F900 X-56.065 Y16.875 E240.34522
G0 F12000 X-56.065 Y16.25
G1 F900 X-49.327 Y16.25 E240.87047
G0 F12000 X-49.38 Y15.625
G1 F900 X-56.065 Y15.625 E241.39159
G0 F12000 X-56.065 Y15
G1 F900 X-49.331 Y15 E241.91653
G0 F12000 X-49.282 Y14.375
G1 F900 X-56.065 Y14.375 E242.44529
G0 F12000 X-56.065 Y13.75
G1 F900 X-49.233 Y13.75 E242.97787
G0 F12000 X-49.184 Y13.125
G1 F900 X-56.065 Y13.125 E243.51427
G0 F12000 X-56.065 Y12.5
G1 F900 X-49.135 Y12.5 E244.05448
G0 F12000 X-49.086 Y11.875
G1 F900 X-56.065 Y11.875 E244.59852
G0 F12000 X-56.065 Y11.25
G1 F900 X-48.947 Y11.25 E245.15339
G0 F12000 X-48.725 Y10.625
G1 F900 X-56.065 Y10.625 E245.72557
G0 F12000 X-56.065 Y10
G1 F900 X-48.504 Y10 E246.31498
G0 F12000 X-48.283 Y9.375
G1 F900 X-56.065 Y9.375 E246.92161
G0 F12000 X-56.065 Y8.75
G1 F900 X-48.062 Y8.75 E247.54547
G0 F12000 X-47.84 Y8.125
G1 F900 X-56.065 Y8.125 E248.18664
G0 F12000 X-56.065 Y7.5
G1 F900 X-47.612 Y7.5 E248.84558
G0 F12000 X-47.322 Y6.875
G1 F900 X-56.065 Y6.875 E249.52713
G0 F12000 X-56.065 Y6.25
G1 F900 X-47.77 Y6.25 E250.17375
G0 F12000 X-48.219 Y5.625
G1 F900 X-56.065 Y5.625 E250.78537
G0 F12000 X-56.065 Y5
G1 F900 X-48.667 Y5 E251.36207
G0 F12000 X-49.116 Y4.375
G1 F900 X-56.065 Y4.375 E251.90377
G0 F12000 X-56.065 Y3.75
G1 F900 X-49.564 Y3.75 E252.41055
G0 F12000 X-50.012 Y3.125
G1 F900 X-56.065 Y3.125 E252.8824
G0 F12000 X-56.065 Y2.5
G1 F900 X-49.773 Y2.5 E253.37288
G0 F12000 X-49.49 Y1.875
G1 F900 X-56.065 Y1.875 E253.88543
G0 F12000 X-56.065 Y1.25
G1 F900 X-49.208 Y1.25 E254.41995
G0 F12000 X-48.925 Y0.625
G1 F900 X-56.065 Y0.625 E254.97654
G0 F12000 X-56.065 Y0
G1 F900 X-48.643 Y0 E255.55511
G0 F12000 X-48.36 Y-0.624
G1 F900 X-56.065 Y-0.624 E256.15574
G0 F12000 X-56.065 Y-1.249
G1 F900 X-47.828 Y-1.249 E256.79784
G0 F12000 X-43.06 Y-1.249
G0 X-43.06 Y-1.249
G1 F900 X-34.887 Y-1.249 E257.43496
G0 F12000 X-38.127 Y-0.624
G0 X-38.127 Y-0.624
G1 F900 X-42.611 Y-0.624 E257.7845
G0 F12000 X-42.163 Y0
G1 F900 X-39.436 Y0 E257.99708
G0 F12000 X-40.746 Y0.625
G1 F900 X-41.714 Y0.625 E258.07254
G0 F12000 X-41.64 Y-5.624
G0 X-41.64 Y-5.624
G1 F900 X-24.367 Y-5.624 E259.41903
G0 F12000 X-25.807 Y-6.249
G1 F900 X-40.139 Y-6.249 E260.53626
G0 F12000 X-39.24 Y-6.874
G1 F900 X-26.635 Y-6.874 E261.51886
G0 F12000 X-27.213 Y-7.499
G1 F900 X-38.685 Y-7.499 E262.41314
G0 F12000 X-38.224 Y-8.124
G1 F900 X-27.699 Y-8.124 E263.2336
G0 F12000 X-27.985 Y-8.749
G1 F900 X-37.911 Y-8.749 E264.00737
G0 F12000 X-37.655 Y-9.374
G1 F900 X-28.249 Y-9.374 E264.7406
G0 F12000 X-28.376 Y-9.999
G1 F900 X-37.527 Y-9.999 E265.45395
G0 F12000 X-37.405 Y-10.624
G1 F900 X-28.462 Y-10.624 E266.15109
G0 F12000 X-28.473 Y-11.249
G1 F900 X-37.442 Y-11.249 E266.85025
G0 F12000 X-37.479 Y-11.874
G1 F900 X-28.396 Y-11.874 E267.5583
G0 F12000 X-28.29 Y-12.499
G1 F900 X-37.639 Y-12.499 E268.28709
G0 F12000 X-37.847 Y-13.124
G1 F900 X-28.037 Y-13.124 E269.05181
G0 F12000 X-27.783 Y-13.749
G1 F900 X-38.161 Y-13.749 E269.86081
G0 F12000 X-38.574 Y-14.374
G1 F900 X-27.309 Y-14.374 E270.73896
G0 F12000 X-26.785 Y-14.999
G1 F900 X-39.153 Y-14.999 E271.70309
G0 F12000 X-39.876 Y-15.624
G1 F900 X-25.983 Y-15.624 E272.78609
G0 F12000 X-24.69 Y-16.249
G1 F900 X-41.123 Y-16.249 E274.0671
G0 F12000 X-44.632 Y-16.249
G0 X-44.632 Y-16.249
G1 F900 X-56.065 Y-16.249 E274.95835
G0 F12000 X-56.065 Y-16.874
G1 F900 X14.956 Y-16.875 E280.49468
G0 F12000 X14.646 Y-17.5
G1 F900 X-56.065 Y-17.499 E286.00684
G0 F12000 X-56.065 Y-18.124
G1 F900 X14.388 Y-18.125 E291.4989
G0 F12000 X14.211 Y-18.75
G1 F900 X-56.065 Y-18.749 E296.97715
G0 F12000 X-56.065 Y-19.374
G1 F900 X14.129 Y-19.375 E302.44902
G0 F12000 X14.046 Y-20
G1 F900 X-20.623 Y-20 E305.15158
G0 F12000 X-19.594 Y-20.625
G1 F900 X14.129 Y-20.625 E307.78041
G0 F12000 X14.212 Y-21.25
G1 F900 X-18.865 Y-21.25 E310.35887
G0 F12000 X-18.404 Y-21.875
G1 F900 X14.388 Y-21.875 E312.91512
G0 F12000 X14.647 Y-22.5
G1 F900 X-18.009 Y-22.5 E315.46077
G0 F12000 X-17.764 Y-23.125
G1 F900 X14.957 Y-23.125 E318.01149
G0 F12000 X15.437 Y-23.75
G1 F900 X-17.543 Y-23.75 E320.58239
G0 F12000 X-17.473 Y-24.375
G1 F900 X16.006 Y-24.375 E323.19219
G0 F12000 X16.821 Y-25
G1 F900 X-17.402 Y-25 E325.85999
G0 F12000 X-17.469 Y-25.625
G1 F900 X18.163 Y-25.625 E328.63763
G0 F12000 X21.813 Y-25.625
G0 X21.813 Y-25.625
G1 F900 X56.065 Y-25.625 E331.30769
G0 F12000 X56.065 Y-25
G1 F900 X23.161 Y-25 E333.87267
G0 F12000 X23.991 Y-24.375
G1 F900 X56.065 Y-24.375 E336.37295
G0 F12000 X56.065 Y-23.75
G1 F900 X24.551 Y-23.75 E338.82958
G0 F12000 X25.041 Y-23.125
G1 F900 X56.065 Y-23.125 E341.248
G0 F12000 X56.065 Y-22.5
G1 F900 X25.351 Y-22.5 E343.64227
G0 F12000 X25.609 Y-21.875
G1 F900 X56.065 Y-21.875 E346.01642
G0 F12000 X56.065 Y-21.25
G1 F900 X25.786 Y-21.25 E348.37677
G0 F12000 X25.868 Y-20.625
G1 F900 X56.065 Y-20.625 E350.73073
G0 F12000 X56.065 Y-20
G1 F900 X25.95 Y-20 E353.0783
G0 F12000 X25.868 Y-19.375
G1 F900 X56.065 Y-19.375 E355.43226
G0 F12000 X56.065 Y-18.75
G1 F900 X25.786 Y-18.75 E357.79261
G0 F12000 X25.61 Y-18.125
G1 F900 X56.065 Y-18.125 E360.16668
G0 F12000 X56.065 Y-17.5
G1 F900 X25.352 Y-17.5 E362.56086
G0 F12000 X25.042 Y-16.875
G1 F900 X56.065 Y-16.875 E364.97921
G0 F12000 X56.065 Y-16.25
G1 F900 X24.562 Y-16.25 E367.43498
G0 F12000 X23.994 Y-15.625
G1 F900 X56.065 Y-15.625 E369.93503
G0 F12000 X56.065 Y-15
G1 F900 X23.179 Y-15 E372.4986
G0 F12000 X21.841 Y-14.375
G1 F900 X56.065 Y-14.375 E375.16648
G0 F12000 X56.065 Y-13.75
G1 F900 X-18.127 Y-13.749 E380.95
G0 F12000 X-17.863 Y-13.124
G1 F900 X56.065 Y-13.125 E386.71294
G0 F12000 X56.065 Y-12.5
G1 F900 X-17.598 Y-12.499 E392.45523
G0 F12000 X-17.506 Y-11.874
G1 F900 X56.065 Y-11.875 E398.19034
G0 F12000 X56.065 Y-11.25
G1 F900 X-17.419 Y-11.249 E403.91867
G0 F12000 X-17.441 Y-10.624
G1 F900 X56.065 Y-10.625 E409.64872
G0 F12000 X56.065 Y-10
G1 F900 X-17.519 Y-9.999 E415.38484
G0 F12000 X-17.66 Y-9.374
G1 F900 X56.065 Y-9.375 E421.13196
G0 F12000 X56.065 Y-8.75
G1 F900 X-17.914 Y-8.749 E426.89888
G0 F12000 X-18.212 Y-8.124
G1 F900 X56.065 Y-8.125 E432.68903
G0 F12000 X56.065 Y-7.5
G1 F900 X-18.685 Y-7.499 E438.51605
G0 F12000 X-19.274 Y-6.874
G1 F900 X56.065 Y-6.875 E444.38898
G0 F12000 X56.065 Y-6.25
G1 F900 X-20.075 Y-6.249 E450.32436
G0 F12000 X-21.572 Y-5.624
G1 F900 X56.065 Y-5.625 E456.37643
G0 F12000 X56.065 Y-5
G1 F900 X-56.065 Y-4.999 E465.11735
G0 F12000 X-56.065 Y-5.624
G1 F900 X-44.184 Y-5.624 E466.04351
G0 F12000 X-45.776 Y-6.249
G0 X-45.776 Y-6.249
G1 F900 X-56.065 Y-6.249 E466.84557
G0 F12000 X-56.065 Y-6.874
G1 F900 X-46.607 Y-6.874 E467.58286
G0 F12000 X-47.244 Y-7.499
G1 F900 X-56.065 Y-7.499 E468.27049
G0 F12000 X-56.065 Y-8.124
G1 F900 X-47.657 Y-8.124 E468.92592
G0 F12000 X-48.012 Y-8.749
G1 F900 X-56.065 Y-8.749 E469.55368
G0 F12000 X-56.065 Y-9.374
G1 F900 X-48.219 Y-9.374 E470.1653
G0 F12000 X-48.412 Y-9.999
G1 F900 X-56.065 Y-9.999 E470.76188
G0 F12000 X-56.065 Y-10.624
G1 F900 X-48.449 Y-10.624 E471.35557
G0 F12000 X-48.486 Y-11.249
G1 F900 X-56.065 Y-11.249 E471.94638
G0 F12000 X-56.065 Y-11.874
G1 F900 X-48.397 Y-11.874 E472.54413
G0 F12000 X-48.269 Y-12.499
G1 F900 X-56.065 Y-12.499 E473.15185
G0 F12000 X-56.065 Y-13.124
G1 F900 X-48.051 Y-13.124 E473.77657
G0 F12000 X-47.738 Y-13.749
G1 F900 X-56.065 Y-13.749 E474.42569
G0 F12000 X-56.065 Y-14.374
G1 F900 X-47.324 Y-14.374 E475.10708
G0 F12000 X-46.77 Y-14.999
G1 F900 X-56.065 Y-14.999 E475.83166
G0 F12000 X-56.065 Y-15.624
G1 F900 X-45.948 Y-15.624 E476.62031
G0 F12000 X-45.275 Y-19.999
G0 X-45.275 Y-19.999
G1 F900 X-56.065 Y-19.999 E477.46143
G0 F12000 X-56.065 Y-20.624
G1 F900 X-46.307 Y-20.624 E478.2221
G0 F12000 X-47.04 Y-21.249
G1 F900 X-56.065 Y-21.249 E478.92563
G0 F12000 X-56.065 Y-21.874
G1 F900 X-47.492 Y-21.874 E479.59392
G0 F12000 X-47.895 Y-22.499
G1 F900 X-56.065 Y-22.499 E480.2308
G0 F12000 X-56.065 Y-23.124
G1 F900 X-48.134 Y-23.124 E480.84905
G0 F12000 X-48.362 Y-23.749
G1 F900 X-56.065 Y-23.749 E481.44953
G0 F12000 X-56.065 Y-24.374
G1 F900 X-48.427 Y-24.374 E482.04494
G0 F12000 X-48.492 Y-24.999
G1 F900 X-56.065 Y-24.999 E482.63528
G0 F12000 X-56.065 Y-25.624
G1 F900 X-48.433 Y-25.624 E483.23022
G0 F12000 X-48.333 Y-26.249
G1 F900 X-56.065 Y-26.249 E483.83295
G0 F12000 X-56.065 Y-26.874
G1 F900 X-48.151 Y-26.874 E484.44988
G0 F12000 X-47.871 Y-27.499
G1 F900 X-56.065 Y-27.499 E485.08863
G0 F12000 X-56.065 Y-28.124
G1 F900 X-47.513 Y-28.124 E485.75529
G0 F12000 X-47.005 Y-28.749
G1 F900 X-56.065 Y-28.749 E486.46154
G0 F12000 X-56.065 Y-29.374
G1 F900 X-46.305 Y-29.374 E487.22237
G0 F12000 X-45.305 Y-29.999
G1 F900 X-56.065 Y-29.999 E488.06115
G0 F12000 X-56.065 Y-30.624
G1 F900 X56.065 Y-30.625 E496.80207
G0 F12000 X56.065 Y-30
G1 F900 X-20.601 Y-30 E502.77845
G0 F12000 X-19.595 Y-29.375
G1 F900 X56.065 Y-29.375 E508.6764
G0 F12000 X56.065 Y-28.75
G1 F900 X-18.891 Y-28.75 E514.51948
G0 F12000 X-18.392 Y-28.125
G1 F900 X56.065 Y-28.125 E520.32366
G0 F12000 X56.065 Y-27.5
G1 F900 X-18.026 Y-27.5 E526.09931
G0 F12000 X-17.753 Y-26.875
G1 F900 X56.065 Y-26.875 E531.85368
G0 F12000 X56.065 Y-26.25
G1 F900 X-17.563 Y-26.25 E537.59323
G1 F6000 E535.79323
G1 Z0.8
G0 F12000 X-19.033 Y-26.964
G0 X-19.871 Y-28.195
G0 X-20.803 Y-28.884
G0 X-21.88 Y-29.308
G0 X-23.032 Y-29.438
G0 X-23.724 Y-29.246
G0 X-25.274 Y-30
G0 X-25.274 Y-30
G1 Z0.3
G1 F6000 E537.59323
G1 F900 X-40.627 Y-29.999 E538.79005
G0 F12000 X-39.594 Y-29.374
G1 F900 X-26.305 Y-29.375 E539.82598
G0 F12000 X-27.033 Y-28.75
G1 F900 X-38.859 Y-28.749 E540.74785
G0 F12000 X-38.406 Y-28.124
G1 F900 X-27.494 Y-28.125 E541.59848
G0 F12000 X-27.891 Y-27.5
G1 F900 X-38.004 Y-27.499 E542.38682
G0 F12000 X-37.765 Y-26.874
G1 F900 X-28.136 Y-26.875 E543.13744
G0 F12000 X-28.357 Y-26.25
G1 F900 X-37.537 Y-26.249 E543.85305
G0 F12000 X-37.473 Y-25.624
G1 F900 X-28.427 Y-25.625 E544.55822
G0 F12000 X-28.498 Y-25
G1 F900 X-37.408 Y-24.999 E545.25278
G0 F12000 X-37.467 Y-24.374
G1 F900 X-28.431 Y-24.375 E545.95717
G0 F12000 X-28.337 Y-23.75
G1 F900 X-37.567 Y-23.749 E546.67668
G0 F12000 X-37.749 Y-23.124
G1 F900 X-28.147 Y-23.125 E547.42519
G0 F12000 X-27.874 Y-22.5
G1 F900 X-38.028 Y-22.499 E548.21673
G0 F12000 X-38.386 Y-21.874
G1 F900 X-27.509 Y-21.875 E549.06463
G0 F12000 X-27.011 Y-21.25
G1 F900 X-38.894 Y-21.249 E549.99095
G0 F12000 X-39.593 Y-20.624
G1 F900 X-26.307 Y-20.625 E551.02664
G0 F12000 X-25.3 Y-20
G1 F900 X-40.593 Y-19.999 E552.21878
G1 F6000 E550.41878
G1 Z0.8
G0 F12000 X-41.695 Y-20.801
G0 X-41.922 Y-20.682
G0 X-43.074 Y-20.562
G0 X-44.218 Y-20.746
G0 X-45.275 Y-21.219
G0 X-46.175 Y-21.95
G0 X-46.854 Y-22.888
G0 X-47.267 Y-23.971
G0 X-47.311 Y-24.884
G0 X-56.065 Y-31.249
G0 X-56.065 Y-31.249
G1 Z0.3
G1 F6000 E552.21878
G1 F900 X56.065 Y-31.25 E560.9597
G0 F12000 X56.065 Y-31.875
G1 F900 X-56.065 Y-31.874 E569.70062
G0 F12000 X-56.065 Y-32.499
G1 F900 X56.065 Y-32.5 E578.44154
G0 F12000 X56.065 Y-33.125
G1 F900 X-56.065 Y-33.125 E587.18246
G0 F12000 X-56.065 Y-33.75
G1 F900 X56.065 Y-33.75 E595.92338
G0 F12000 X56.065 Y-34.375
G1 F900 X-56.065 Y-34.375 E604.6643
G0 F12000 X-56.065 Y-35
G1 F900 X56.065 Y-35 E613.40522
G0 F12000 X56.065 Y-35.625
G1 F900 X-56.065 Y-35.625 E622.14614
G0 F12000 X-56.065 Y-4.374
G0 X-56.065 Y-4.374
G1 F900 X56.065 Y-4.375 E630.88706
G0 F12000 X56.065 Y-3.75
G1 F900 X-56.065 Y-3.749 E639.62797
G0 F12000 X-56.065 Y-3.124
G1 F900 X56.065 Y-3.125 E648.36889
G0 F12000 X56.065 Y-2.5
G1 F900 X-56.065 Y-2.499 E657.10981
G0 F12000 X-56.065 Y-1.874
G1 F900 X-19.658 Y-1.874 E659.94786
G0 F12000 X-19.277 Y-1.874
G1 F900 X56.065 Y-1.875 E665.82103
G0 F12000 X56.065 Y-1.25
G1 F900 X-18.649 Y-1.249 E671.64525
G0 F12000 X-18.02 Y-0.624
G1 F900 X56.065 Y-0.625 E677.42043
G0 F12000 X56.065 Y0
G1 F900 X-17.391 Y0 E683.14657
G0 F12000 X-16.762 Y0.625
G1 F900 X56.065 Y0.624 E688.82369
G0 F12000 X56.065 Y1.249
G1 F900 X-16.133 Y1.25 E694.45177
G0 F12000 X-16.132 Y1.875
G1 F900 X56.065 Y1.874 E700.07978
G0 F12000 X56.065 Y2.499
G1 F900 X-16.298 Y2.5 E705.72072
G0 F12000 X-16.463 Y3.125
G1 F900 X56.065 Y3.124 E711.37453
G0 F12000 X56.065 Y3.749
G1 F900 X-16.629 Y3.75 E717.04128
G0 F12000 X-16.794 Y4.375
G1 F900 X56.065 Y4.374 E722.72089
G0 F12000 X56.065 Y4.999
G1 F900 X-16.96 Y5 E728.41344
G0 F12000 X-17.126 Y5.625
G1 F900 X56.065 Y5.624 E734.11893
G0 F12000 X56.065 Y6.249
G1 F900 X-18.292 Y6.25 E739.91531
G0 F12000 X-18.732 Y6.875
G1 F900 X56.065 Y6.874 E745.74599
G0 F12000 X56.065 Y7.499
G1 F900 X-18.434 Y7.5 E751.55345
G0 F12000 X-18.136 Y8.125
G1 F900 X56.065 Y8.124 E757.33767
G0 F12000 X56.065 Y8.749
G1 F900 X-17.838 Y8.75 E763.09866
G0 F12000 X-17.54 Y9.375
G1 F900 X56.065 Y9.374 E768.83643
G0 F12000 X56.065 Y9.999
G1 F900 X-17.269 Y10 E774.55307
G0 F12000 X-17.153 Y10.625
G1 F900 X56.065 Y10.624 E780.26066
G0 F12000 X56.065 Y11.249
G1 F900 X-17.037 Y11.25 E785.95921
G0 F12000 X-16.921 Y11.875
G1 F900 X56.065 Y11.874 E791.64872
G0 F12000 X56.065 Y12.499
G1 F900 X-16.805 Y12.5 E797.32919
G0 F12000 X-16.689 Y13.125
G1 F900 X56.065 Y13.124 E803.00061
G0 F12000 X56.065 Y13.749
G1 F900 X-16.572 Y13.75 E808.66292
G0 F12000 X-16.52 Y14.375
G1 F900 X56.065 Y14.374 E814.32117
G0 F12000 X56.065 Y14.999
G1 F900 X-16.569 Y15 E819.98324
G0 F12000 X-16.618 Y15.625
G1 F900 X56.065 Y15.624 E825.64913
G0 F12000 X56.065 Y16.249
G1 F900 X-16.666 Y16.25 E831.31876
G0 F12000 X-16.715 Y16.875
G1 F900 X56.065 Y16.874 E836.99221
G0 F12000 X56.065 Y17.499
G1 F900 X-16.764 Y17.5 E842.66948
G0 F12000 X-16.813 Y18.125
G1 F900 X56.065 Y18.124 E848.35057
G0 F12000 X56.065 Y18.749
G1 F900 X-16.953 Y18.75 E854.04258
G0 F12000 X-17.175 Y19.375
G1 F900 X56.065 Y19.374 E859.75189
G0 F12000 X56.065 Y19.999
G1 F900 X-17.396 Y20 E865.47843
G0 F12000 X-17.617 Y20.625
G1 F900 X56.065 Y20.624 E871.22219
G0 F12000 X56.065 Y21.249
G1 F900 X-17.839 Y21.25 E876.98326
G0 F12000 X-18.06 Y21.875
G1 F900 X56.065 Y21.874 E882.76156
G0 F12000 X56.065 Y22.499
G1 F900 X-18.291 Y22.5 E888.55787
G0 F12000 X-18.719 Y23.125
G1 F900 X56.065 Y23.124 E894.38754
G0 F12000 X56.065 Y23.749
G1 F900 X-18.624 Y23.75 E900.2098
G0 F12000 X-17.15 Y24.375
G0 X-17.15 Y24.375
G1 F900 X56.065 Y24.374 E905.91716
G0 F12000 X56.065 Y24.999
G1 F900 X-16.733 Y25 E911.59202
G0 F12000 X-16.656 Y25.625
G1 F900 X56.065 Y25.624 E917.26087
G0 F12000 X56.065 Y26.249
G1 F900 X-16.579 Y26.25 E922.92372
G0 F12000 X-16.503 Y26.875
G1 F900 X56.065 Y26.874 E928.58065
G0 F12000 X56.065 Y27.499
G1 F900 X-16.426 Y27.5 E934.23157
G0 F12000 X-16.348 Y28.125
G1 F900 X56.065 Y28.124 E939.87641
G0 F12000 X56.065 Y28.749
G1 F900 X-16.271 Y28.75 E945.51525
G0 F12000 X-16.412 Y29.375
G1 F900 X56.065 Y29.374 E951.16508
G0 F12000 X56.065 Y29.999
G1 F900 X-17.24 Y30 E956.87946
G0 F12000 X-18.069 Y30.625
G1 F900 X56.065 Y30.624 E962.65846
G0 F12000 X56.065 Y31.249
G1 F900 X-18.897 Y31.25 E968.50201
G0 F12000 X-19.726 Y31.875
G1 F900 X56.065 Y31.874 E974.41018
G0 F12000 X56.065 Y32.499
G1 F900 X-56.065 Y32.5 E983.1511
G0 F12000 X-56.065 Y33.125
G1 F900 X56.065 Y33.125 E991.89202
G0 F12000 X56.065 Y33.75
G1 F900 X-56.065 Y33.75 E1000.63293
G0 F12000 X-56.065 Y34.375
G1 F900 X56.065 Y34.375 E1009.37385
G0 F12000 X56.065 Y35
G1 F900 X-56.065 Y35 E1018.11477
G0 F12000 X-56.065 Y35.625
G1 F900 X56.065 Y35.625 E1026.85569
G0 F12000 X18.181 Y-14.375
G0 X18.181 Y-14.375
G1 F900 X-18.591 Y-14.374 E1029.7222
G0 F12000 X-19.099 Y-14.999
G1 F900 X16.836 Y-15 E1032.52345
G0 F12000 X16.004 Y-15.625
G1 F900 X-19.926 Y-15.624 E1035.32432
G0 F12000 X-21.227 Y-16.249
G1 F900 X15.445 Y-16.25 E1038.18303
G0 F12000 X-21.963 Y-1.249
G0 X-21.963 Y-1.249
G1 F900 X-31.27 Y-1.249 E1038.90854
G1 F6000 E1037.10854
G1 Z0.8
G0 F12000 X-31.042 Y-0.11
G0 X-29.762 Y-0.016
G0 X-28.876 Y0.299
G0 X-23.017 Y0.338
G0 X-22.997 Y0.208
G0 X-19.695 Y-0.687
G0 X-17.268 Y1.726
G0 X-18.145 Y5.033
G0 X-20.971 Y5.731
G0 X-20.078 Y6.637
G0 X-18.353 Y10.253
G0 X-17.621 Y14.193
G0 X-17.934 Y18.187
G0 X-19.271 Y21.964
G0 X-20.969 Y24.142
G0 X-20.989 Y23.983
G0 X-17.84 Y25.318
G0 X-17.422 Y28.714
G0 X-20.154 Y30.773
G0 X-23.302 Y29.438
G0 X-23.543 Y26.844
G0 X-24.588 Y27.871
G0 X-25.382 Y28.246
G0 X-25.158 Y29.375
G0 X-25.158 Y29.375
G1 Z0.3
G1 F6000 E1038.90854
G1 F900 X-24.457 Y29.375 E1038.96319
G0 F12000 X-24.378 Y30
G1 F900 X-26.466 Y30 E1039.12595
G0 F12000 X-27.775 Y30.625
G1 F900 X-23.416 Y30.625 E1039.46575
G0 F12000 X-21.942 Y31.25
G0 X-21.942 Y31.25
G1 F900 X-31.017 Y31.25 E1040.17318
G0 F12000 X-34.61 Y31.25
G0 X-34.61 Y31.25
G1 F900 X-43.955 Y31.25 E1040.90166
G0 F12000 X-41.914 Y30.625
G0 X-41.914 Y30.625
G1 F900 X-37.745 Y30.625 E1041.22664
G0 F12000 X-39.511 Y30
G1 F900 X-41.758 Y30 E1041.40181
G0 F12000 X-41.601 Y29.375
G1 F900 X-40.863 Y29.375 E1041.45933
G1 F6000 E1039.65933
G1 Z0.8
G0 F12000 X-59 Y29.5
; TYPE:SUPPORT
G1 Z0.3
G1 F6000 E1041.45933
G1 F900 X-60.499 Y29.5 E1041.55282
G0 F12000 X-60.499 Y29
G1 F900 X-59 Y29 E1041.6463
G0 F12000 X-59 Y28.5
G1 F900 X-60.499 Y28.5 E1041.73978
G0 F12000 X-60.499 Y28
G1 F900 X-59 Y28 E1041.83326
G0 F12000 X-59 Y27.5
G1 F900 X-60.499 Y27.5 E1041.92674
G0 F12000 X-60.499 Y27
G1 F900 X-59 Y27 E1042.02023
G0 F12000 X-59 Y26.5
G1 F900 X-60.499 Y26.5 E1042.11371
G0 F12000 X-60.499 Y26
G1 F900 X-59 Y26 E1042.20719
G0 F12000 X-59 Y25.5
G1 F900 X-60.499 Y25.5 E1042.30067
G0 F12000 X-60.499 Y25
G1 F900 X-59 Y25 E1042.39415
G0 F12000 X-59 Y24.5
G1 F900 X-60.499 Y24.5 E1042.48763
G0 F12000 X-60.499 Y24
G1 F900 X-59 Y24 E1042.58112
G0 F12000 X-59 Y23.5
G1 F900 X-60.499 Y23.5 E1042.6746
G0 F12000 X-60.499 Y23
G1 F900 X-59 Y23 E1042.76808
G0 F12000 X-59 Y22.5
G1 F900 X-60.499 Y22.5 E1042.86156
G0 F12000 X-60.499 Y22
G1 F900 X-59 Y22 E1042.95504
G0 F12000 X-59 Y21.5
G1 F900 X-60.499 Y21.5 E1043.04852
G0 F12000 X-60.499 Y21
G1 F900 X-59 Y21 E1043.14201
G0 F12000 X-59 Y20.5
G1 F900 X-60.499 Y20.5 E1043.23549
G0 F12000 X-60.499 Y20
G1 F900 X-59 Y20 E1043.32897
G0 F12000 X-59 Y19.5
G1 F900 X-60.499 Y19.5 E1043.42245
G0 F12000 X-60.499 Y19
G1 F900 X-59 Y19 E1043.51593
G0 F12000 X-59 Y18.5
G1 F900 X-60.499 Y18.5 E1043.60942
G0 F12000 X-60.499 Y18
G1 F900 X-59 Y18 E1043.7029
G0 F12000 X-59 Y17.5
G1 F900 X-60.499 Y17.5 E1043.79638
G0 F12000 X-60.499 Y17
G1 F900 X-59 Y17 E1043.88986
G0 F12000 X-59 Y16.5
G1 F900 X-60.499 Y16.5 E1043.98334
G0 F12000 X-60.499 Y16
G1 F900 X-59 Y16 E1044.07682
G0 F12000 X-59 Y15.5
G1 F900 X-60.499 Y15.5 E1044.17031
G0 F12000 X-60.499 Y15
G1 F900 X-59 Y15 E1044.26379
G0 F12000 X-59 Y14.5
G1 F900 X-60.499 Y14.5 E1044.35727
G0 F12000 X-60.499 Y14
G1 F900 X-59 Y14 E1044.45075
G0 F12000 X-59 Y13.5
G1 F900 X-60.499 Y13.5 E1044.54423
G0 F12000 X-60.499 Y13
G1 F900 X-59 Y13 E1044.63771
G0 F12000 X-59 Y12.5
G1 F900 X-60.499 Y12.5 E1044.7312
G0 F12000 X-60.499 Y12
G1 F900 X-59 Y12 E1044.82468
G0 F12000 X-59 Y11.5
G1 F900 X-60.499 Y11.5 E1044.91816
G0 F12000 X-60.499 Y11
G1 F900 X-59 Y11 E1045.01164
G0 F12000 X-59 Y10.5
G1 F900 X-60.499 Y10.5 E1045.10512
G0 F12000 X-60.499 Y10
G1 F900 X-59 Y10 E1045.19861
G0 F12000 X-59 Y9.5
G1 F900 X-60.499 Y9.5 E1045.29209
G0 F12000 X-60.499 Y9
G1 F900 X-59 Y9 E1045.38557
G0 F12000 X-59 Y8.5
G1 F900 X-60.499 Y8.5 E1045.47905
G0 F12000 X-60.499 Y8
G1 F900 X-59 Y8 E1045.57253
G0 F12000 X-59 Y7.5
G1 F900 X-60.499 Y7.5 E1045.66601
G0 F12000 X-60.499 Y7
G1 F900 X-59 Y7 E1045.7595
G0 F12000 X-59 Y6.5
G1 F900 X-60.499 Y6.5 E1045.85298
G0 F12000 X-60.499 Y6
G1 F900 X-59 Y6 E1045.94646
G0 F12000 X-59 Y5.5
G1 F900 X-60.499 Y5.5 E1046.03994
G0 F12000 X-60.499 Y5
G1 F900 X-59 Y5 E1046.13342
G0 F12000 X-59 Y4.5
G1 F900 X-60.499 Y4.5 E1046.2269
G0 F12000 X-60.499 Y4
G1 F900 X-59 Y4 E1046.32039
G0 F12000 X-59 Y3.5
G1 F900 X-60.499 Y3.5 E1046.41387
G0 F12000 X-60.499 Y3
G1 F900 X-59 Y3 E1046.50735
G0 F12000 X-59 Y2.5
G1 F900 X-60.499 Y2.5 E1046.60083
G0 F12000 X-60.499 Y2
G1 F900 X-59 Y2 E1046.69431
G0 F12000 X-59 Y1.5
G1 F900 X-60.499 Y1.5 E1046.7878
G0 F12000 X-60.499 Y1
G1 F900 X-59 Y1 E1046.88128
G0 F12000 X-59 Y0.5
G1 F900 X-60.499 Y0.5 E1046.97476
G0 F12000 X-60.499 Y0
G1 F900 X-59 Y0 E1047.06824
G0 F12000 X-59 Y-0.499
G1 F900 X-60.499 Y-0.499 E1047.16172
G0 F12000 X-60.499 Y-0.999
G1 F900 X-59 Y-0.999 E1047.2552
G0 F12000 X-59 Y-1.499
G1 F900 X-60.499 Y-1.499 E1047.34869
G0 F12000 X-60.499 Y-1.999
G1 F900 X-59 Y-1.999 E1047.44217
G0 F12000 X-59 Y-2.499
G1 F900 X-60.499 Y-2.499 E1047.53565
G0 F12000 X-60.499 Y-2.999
G1 F900 X-59 Y-2.999 E1047.62913
G0 F12000 X-59 Y-3.499
G1 F900 X-60.499 Y-3.499 E1047.72261
G0 F12000 X-60.499 Y-3.999
G1 F900 X-59 Y-3.999 E1047.81609
G0 F12000 X-59 Y-4.499
G1 F900 X-60.499 Y-4.499 E1047.90958
G0 F12000 X-60.499 Y-4.999
G1 F900 X-59 Y-4.999 E1048.00306
G0 F12000 X-59 Y-5.499
G1 F900 X-60.499 Y-5.499 E1048.09654
G0 F12000 X-60.499 Y-5.999
G1 F900 X-59 Y-5.999 E1048.19002
G0 F12000 X-59 Y-6.499
G1 F900 X-60.499 Y-6.499 E1048.2835
G0 F12000 X-60.499 Y-6.999
G1 F900 X-59 Y-6.999 E1048.37699
G0 F12000 X-59 Y-7.499
G1 F900 X-60.499 Y-7.499 E1048.47047
G0 F12000 X-60.499 Y-7.999
G1 F900 X-59 Y-7.999 E1048.56395
G0 F12000 X-59 Y-8.499
G1 F900 X-60.499 Y-8.499 E1048.65743
G0 F12000 X-60.499 Y-8.999
G1 F900 X-59 Y-8.999 E1048.75091
G0 F12000 X-59 Y-9.499
G1 F900 X-60.499 Y-9.499 E1048.84439
G0 F12000 X-60.499 Y-9.999
G1 F900 X-59 Y-9.999 E1048.93788
G0 F12000 X-59 Y-10.499
G1 F900 X-60.499 Y-10.499 E1049.03136
G0 F12000 X-60.499 Y-10.999
G1 F900 X-59 Y-10.999 E1049.12484
G0 F12000 X-59 Y-11.499
G1 F900 X-60.499 Y-11.499 E1049.21832
G0 F12000 X-60.499 Y-11.999
G1 F900 X-59 Y-11.999 E1049.3118
G0 F12000 X-59 Y-12.499
G1 F900 X-60.499 Y-12.499 E1049.40529
G0 F12000 X-60.499 Y-12.999
G1 F900 X-59 Y-12.999 E1049.49877
G0 F12000 X-59 Y-13.499
G1 F900 X-60.499 Y-13.499 E1049.59225
G0 F12000 X-60.499 Y-13.999
G1 F900 X-59 Y-13.999 E1049.68573
G0 F12000 X-59 Y-14.499
G1 F900 X-60.499 Y-14.499 E1049.77921
G0 F12000 X-60.499 Y-14.999
G1 F900 X-59 Y-14.999 E1049.87269
G0 F12000 X-59 Y-15.499
G1 F900 X-60.499 Y-15.499 E1049.96618
G0 F12000 X-60.499 Y-15.999
G1 F900 X-59 Y-15.999 E1050.05966
G0 F12000 X-59 Y-16.499
G1 F900 X-60.499 Y-16.499 E1050.15314
G0 F12000 X-60.499 Y-16.999
G1 F900 X-59 Y-16.999 E1050.24662
G0 F12000 X-59 Y-17.499
G1 F900 X-60.499 Y-17.499 E1050.3401
G0 F12000 X-60.499 Y-17.999
G1 F900 X-59 Y-17.999 E1050.43358
G0 F12000 X-59 Y-18.499
G1 F900 X-60.499 Y-18.499 E1050.52707
G0 F12000 X-60.499 Y-18.999
G1 F900 X-59 Y-18.999 E1050.62055
G0 F12000 X-59 Y-19.499
G1 F900 X-60.499 Y-19.499 E1050.71403
G0 F12000 X-60.499 Y-19.999
G1 F900 X-59 Y-19.999 E1050.80751
G0 F12000 X-59 Y-20.499
G1 F900 X-60.499 Y-20.499 E1050.90099
G0 F12000 X-60.499 Y-20.999
G1 F900 X-59 Y-20.999 E1050.99448
G0 F12000 X-59 Y-21.499
G1 F900 X-60.499 Y-21.499 E1051.08796
G0 F12000 X-60.499 Y-21.999
G1 F900 X-59 Y-21.999 E1051.18144
G0 F12000 X-59 Y-22.499
G1 F900 X-60.499 Y-22.499 E1051.27492
G0 F12000 X-60.499 Y-22.999
G1 F900 X-59 Y-22.999 E1051.3684
G0 F12000 X-59 Y-23.499
G1 F900 X-60.499 Y-23.499 E1051.46188
G0 F12000 X-60.499 Y-23.999
G1 F900 X-59 Y-23.999 E1051.55537
G0 F12000 X-59 Y-24.499
G1 F900 X-60.499 Y-24.499 E1051.64885
G0 F12000 X-60.499 Y-24.999
G1 F900 X-59 Y-24.999 E1051.74233
G0 F12000 X-59 Y-25.499
G1 F900 X-60.499 Y-25.499 E1051.83581
G0 F12000 X-60.499 Y-25.999
G1 F900 X-59 Y-25.999 E1051.92929
G0 F12000 X-59 Y-26.499
G1 F900 X-60.499 Y-26.499 E1052.02277
G0 F12000 X-60.499 Y-26.999
G1 F900 X-59 Y-26.999 E1052.11626
G0 F12000 X-59 Y-27.499
G1 F900 X-60.499 Y-27.499 E1052.20974
G0 F12000 X-60.499 Y-27.999
G1 F900 X-59 Y-27.999 E1052.30322
G0 F12000 X-59 Y-28.499
G1 F900 X-60.499 Y-28.499 E1052.3967
G0 F12000 X-60.499 Y-28.999
G1 F900 X-59 Y-28.999 E1052.49018
G0 F12000 X-59 Y-29.499
G1 F900 X-60.499 Y-29.499 E1052.58367
G0 F12000 X-60.499 Y-29.999
G1 F900 X-59 Y-29.999 E1052.67715
G0 F12000 X-59 Y-30.499
G1 F900 X-60.499 Y-30.499 E1052.77063
G0 F12000 X-60.499 Y-30.999
G1 F900 X-59 Y-30.999 E1052.86411
G0 F12000 X-59 Y-31.499
G1 F900 X-60.499 Y-31.499 E1052.95759
G0 F12000 X-60.499 Y-31.999
G1 F900 X-59 Y-31.999 E1053.05107
G0 F12000 X-59 Y-32.499
G1 F900 X-60.499 Y-32.499 E1053.14456
G0 F12000 X-60.499 Y-32.999
G1 F900 X-59 Y-33 E1053.23804
G0 F12000 X-59 Y-33.5
G1 F900 X-60.499 Y-33.499 E1053.33152
G0 F12000 X-60.499 Y-33.999
G1 F900 X-59 Y-34 E1053.425
G0 F12000 X-59 Y-34.5
G1 F900 X-60.499 Y-34.499 E1053.51848
G0 F12000 X-60.499 Y-34.999
G1 F900 X-59 Y-35 E1053.61196
G0 F12000 X-59 Y-35.5
G1 F900 X-60.499 Y-35.499 E1053.70545
G0 F12000 X-60.499 Y-35.999
G1 F900 X-59 Y-36 E1053.79893
G0 F12000 X-59 Y-36.5
G1 F900 X-60.499 Y-36.499 E1053.89241
G0 F12000 X-60.499 Y-36.999
G1 F900 X-59 Y-37 E1053.98589
G0 F12000 X-59 Y-37.5
G1 F900 X-60.499 Y-37.499 E1054.07937
G0 F12000 X-60.499 Y-37.999
G1 F900 X-59 Y-38 E1054.17286
G0 F12000 X-59 Y-38.5
G1 F900 X-60.499 Y-38.499 E1054.26634
G0 F12000 X-60.499 Y-38.999
G1 F900 X60.5 Y-39 E1061.81217
G0 F12000 X60.5 Y-38.5
G1 F900 X59 Y-38.5 E1061.90571
G0 F12000 X59 Y-38
G1 F900 X60.5 Y-38 E1061.99926
G0 F12000 X60.5 Y-37.5
G1 F900 X59 Y-37.5 E1062.0928
G0 F12000 X59 Y-37
G1 F900 X60.5 Y-37 E1062.18634
G0 F12000 X60.5 Y-36.5
G1 F900 X59 Y-36.5 E1062.27989
G0 F12000 X59 Y-36
G1 F900 X60.5 Y-36 E1062.37343
G0 F12000 X60.5 Y-35.5
G1 F900 X59 Y-35.5 E1062.46698
G0 F12000 X59 Y-35
G1 F900 X60.5 Y-35 E1062.56052
G0 F12000 X60.5 Y-34.5
G1 F900 X59 Y-34.5 E1062.65407
G0 F12000 X59 Y-34
G1 F900 X60.5 Y-34 E1062.74761
G0 F12000 X60.5 Y-33.5
G1 F900 X59 Y-33.5 E1062.84115
G0 F12000 X59 Y-33
G1 F900 X60.5 Y-33 E1062.9347
G0 F12000 X60.5 Y-32.5
G1 F900 X59 Y-32.5 E1063.02824
G0 F12000 X59 Y-32
G1 F900 X60.5 Y-32 E1063.12179
G0 F12000 X60.5 Y-31.5
G1 F900 X59 Y-31.5 E1063.21533
G0 F12000 X59 Y-31
G1 F900 X60.5 Y-31 E1063.30887
G0 F12000 X60.5 Y-30.5
G1 F900 X59 Y-30.5 E1063.40242
G0 F12000 X59 Y-30
G1 F900 X60.5 Y-30 E1063.49596
G0 F12000 X60.5 Y-29.5
G1 F900 X59 Y-29.5 E1063.58951
G0 F12000 X59 Y-29
G1 F900 X60.5 Y-29 E1063.68305
G0 F12000 X60.5 Y-28.5
G1 F900 X59 Y-28.5 E1063.77659
G0 F12000 X59 Y-28
G1 F900 X60.5 Y-28 E1063.87014
G0 F12000 X60.5 Y-27.5
G1 F900 X59 Y-27.5 E1063.96368
G0 F12000 X59 Y-27
G1 F900 X60.5 Y-27 E1064.05723
G0 F12000 X60.5 Y-26.5
G1 F900 X59 Y-26.5 E1064.15077
G0 F12000 X59 Y-26
G1 F900 X60.5 Y-26 E1064.24432
G0 F12000 X60.5 Y-25.5
G1 F900 X59 Y-25.5 E1064.33786
G0 F12000 X59 Y-25
G1 F900 X60.5 Y-25 E1064.4314
G0 F12000 X60.5 Y-24.5
G1 F900 X59 Y-24.5 E1064.52495
G0 F12000 X59 Y-24
G1 F900 X60.5 Y-24 E1064.61849
G0 F12000 X60.5 Y-23.5
G1 F900 X59 Y-23.5 E1064.71204
G0 F12000 X59 Y-23
G1 F900 X60.5 Y-23 E1064.80558
G0 F12000 X60.5 Y-22.5
G1 F900 X59 Y-22.5 E1064.89912
G0 F12000 X59 Y-22
G1 F900 X60.5 Y-22 E1064.99267
G0 F12000 X60.5 Y-21.5
G1 F900 X59 Y-21.5 E1065.08621
G0 F12000 X59 Y-21
G1 F900 X60.5 Y-21 E1065.17976
G0 F12000 X60.5 Y-20.5
G1 F900 X59 Y-20.5 E1065.2733
G0 F12000 X59 Y-20
G1 F900 X60.5 Y-20 E1065.36684
G0 F12000 X60.5 Y-19.5
G1 F900 X59 Y-19.5 E1065.46039
G0 F12000 X59 Y-19
G1 F900 X60.5 Y-19 E1065.55393
G0 F12000 X60.5 Y-18.5
G1 F900 X59 Y-18.5 E1065.64748
G0 F12000 X59 Y-18
G1 F900 X60.5 Y-18 E1065.74102
G0 F12000 X60.5 Y-17.5
G1 F900 X59 Y-17.5 E1065.83457
G0 F12000 X59 Y-17
G1 F900 X60.5 Y-17 E1065.92811
G0 F12000 X60.5 Y-16.5
G1 F900 X59 Y-16.5 E1066.02165
G0 F12000 X59 Y-16
G1 F900 X60.5 Y-16 E1066.1152
G0 F12000 X60.5 Y-15.5
G1 F900 X59 Y-15.5 E1066.20874
G0 F12000 X59 Y-15
G1 F900 X60.5 Y-15 E1066.30229
G0 F12000 X60.5 Y-14.5
G1 F900 X59 Y-14.5 E1066.39583
G0 F12000 X59 Y-14
G1 F900 X60.5 Y-14 E1066.48937
G0 F12000 X60.5 Y-13.5
G1 F900 X59 Y-13.5 E1066.58292
G0 F12000 X59 Y-13
G1 F900 X60.5 Y-13 E1066.67646
G0 F12000 X60.5 Y-12.5
G1 F900 X59 Y-12.5 E1066.77001
G0 F12000 X59 Y-12
G1 F900 X60.5 Y-12 E1066.86355
G0 F12000 X60.5 Y-11.5
G1 F900 X59 Y-11.5 E1066.9571
G0 F12000 X59 Y-11
G1 F900 X60.5 Y-11 E1067.05064
G0 F12000 X60.5 Y-10.5
G1 F900 X59 Y-10.5 E1067.14418
G0 F12000 X59 Y-10
G1 F900 X60.5 Y-10 E1067.23773
G0 F12000 X60.5 Y-9.5
G1 F900 X59 Y-9.5 E1067.33127
G0 F12000 X59 Y-9
G1 F900 X60.5 Y-9 E1067.42482
G0 F12000 X60.5 Y-8.5
G1 F900 X59 Y-8.5 E1067.51836
G0 F12000 X59 Y-8
G1 F900 X60.5 Y-8 E1067.6119
G0 F12000 X60.5 Y-7.5
G1 F900 X59 Y-7.5 E1067.70545
G0 F12000 X59 Y-7
G1 F900 X60.5 Y-7 E1067.79899
G0 F12000 X60.5 Y-6.5
G1 F900 X59 Y-6.5 E1067.89254
G0 F12000 X59 Y-6
G1 F900 X60.5 Y-6 E1067.98608
G0 F12000 X60.5 Y-5.5
G1 F900 X59 Y-5.5 E1068.07962
G0 F12000 X59 Y-5
G1 F900 X60.5 Y-5 E1068.17317
G0 F12000 X60.5 Y-4.5
G1 F900 X59 Y-4.5 E1068.26671
G0 F12000 X59 Y-4
G1 F900 X60.5 Y-4 E1068.36026
G0 F12000 X60.5 Y-3.5
G1 F900 X59 Y-3.5 E1068.4538
G0 F12000 X59 Y-3
G1 F900 X60.5 Y-3 E1068.54735
G0 F12000 X60.5 Y-2.5
G1 F900 X59 Y-2.5 E1068.64089
G0 F12000 X59 Y-2
G1 F900 X60.5 Y-2 E1068.73443
G0 F12000 X60.5 Y-1.5
G1 F900 X59 Y-1.5 E1068.82798
G0 F12000 X59 Y-1
G1 F900 X60.5 Y-1 E1068.92152
G0 F12000 X60.5 Y-0.5
G1 F900 X59 Y-0.5 E1069.01507
G0 F12000 X59 Y0
G1 F900 X60.5 Y0 E1069.10861
G0 F12000 X60.5 Y0.499
G1 F900 X59 Y0.499 E1069.20215
G0 F12000 X59 Y0.999
G1 F900 X60.5 Y0.999 E1069.2957
G0 F12000 X60.5 Y1.499
G1 F900 X59 Y1.499 E1069.38924
G0 F12000 X59 Y1.999
G1 F900 X60.5 Y1.999 E1069.48279
G0 F12000 X60.5 Y2.499
G1 F900 X59 Y2.499 E1069.57633
G0 F12000 X59 Y2.999
G1 F900 X60.5 Y2.999 E1069.66987
G0 F12000 X60.5 Y3.499
G1 F900 X59 Y3.499 E1069.76342
G0 F12000 X59 Y3.999
G1 F900 X60.5 Y3.999 E1069.85696
G0 F12000 X60.5 Y4.499
G1 F900 X59 Y4.499 E1069.95051
G0 F12000 X59 Y4.999
G1 F900 X60.5 Y4.999 E1070.04405
G0 F12000 X60.5 Y5.499
G1 F900 X59 Y5.499 E1070.1376
G0 F12000 X59 Y5.999
G1 F900 X60.5 Y5.999 E1070.23114
G0 F12000 X60.5 Y6.499
G1 F900 X59 Y6.499 E1070.32468
G0 F12000 X59 Y6.999
G1 F900 X60.5 Y6.999 E1070.41823
G0 F12000 X60.5 Y7.499
G1 F900 X59 Y7.499 E1070.51177
G0 F12000 X59 Y7.999
G1 F900 X60.5 Y7.999 E1070.60532
G0 F12000 X60.5 Y8.499
G1 F900 X59 Y8.499 E1070.69886
G0 F12000 X59 Y8.999
G1 F900 X60.5 Y8.999 E1070.7924
G0 F12000 X60.5 Y9.499
G1 F900 X59 Y9.499 E1070.88595
G0 F12000 X59 Y9.999
G1 F900 X60.5 Y9.999 E1070.97949
G0 F12000 X60.5 Y10.499
G1 F900 X59 Y10.499 E1071.07304
G0 F12000 X59 Y10.999
G1 F900 X60.5 Y10.999 E1071.16658
G0 F12000 X60.5 Y11.499
G1 F900 X59 Y11.499 E1071.26013
G0 F12000 X59 Y11.999
G1 F900 X60.5 Y11.999 E1071.35367
G0 F12000 X60.5 Y12.499
G1 F900 X59 Y12.499 E1071.44721
G0 F12000 X59 Y12.999
G1 F900 X60.5 Y12.999 E1071.54076
G0 F12000 X60.5 Y13.499
G1 F900 X59 Y13.499 E1071.6343
G0 F12000 X59 Y13.999
G1 F900 X60.5 Y13.999 E1071.72785
G0 F12000 X60.5 Y14.499
G1 F900 X59 Y14.499 E1071.82139
G0 F12000 X59 Y14.999
G1 F900 X60.5 Y14.999 E1071.91493
G0 F12000 X60.5 Y15.499
G1 F900 X59 Y15.499 E1072.00848
G0 F12000 X59 Y15.999
G1 F900 X60.5 Y15.999 E1072.10202
G0 F12000 X60.5 Y16.499
G1 F900 X59 Y16.499 E1072.19557
G0 F12000 X59 Y16.999
G1 F900 X60.5 Y16.999 E1072.28911
G0 F12000 X60.5 Y17.499
G1 F900 X59 Y17.499 E1072.38265
G0 F12000 X59 Y17.999
G1 F900 X60.5 Y17.999 E1072.4762
G0 F12000 X60.5 Y18.499
G1 F900 X59 Y18.499 E1072.56974
G0 F12000 X59 Y18.999
G1 F900 X60.5 Y18.999 E1072.66329
G0 F12000 X60.5 Y19.499
G1 F900 X59 Y19.499 E1072.75683
G0 F12000 X59 Y19.999
G1 F900 X60.5 Y19.999 E1072.85038
G0 F12000 X60.5 Y20.499
G1 F900 X59 Y20.499 E1072.94392
G0 F12000 X59 Y20.999
G1 F900 X60.5 Y20.999 E1073.03746
G0 F12000 X60.5 Y21.499
G1 F900 X59 Y21.499 E1073.13101
G0 F12000 X59 Y21.999
G1 F900 X60.5 Y21.999 E1073.22455
G0 F12000 X60.5 Y22.499
G1 F900 X59 Y22.499 E1073.3181
G0 F12000 X59 Y22.999
G1 F900 X60.5 Y22.999 E1073.41164
G0 F12000 X60.5 Y23.499
G1 F900 X59 Y23.499 E1073.50518
G0 F12000 X59 Y23.999
G1 F900 X60.5 Y23.999 E1073.59873
G0 F12000 X60.5 Y24.499
G1 F900 X59 Y24.499 E1073.69227
G0 F12000 X59 Y24.999
G1 F900 X60.5 Y24.999 E1073.78582
G0 F12000 X60.5 Y25.499
G1 F900 X59 Y25.499 E1073.87936
G0 F12000 X59 Y25.999
G1 F900 X60.5 Y25.999 E1073.9729
G0 F12000 X60.5 Y26.499
G1 F900 X59 Y26.499 E1074.06645
G0 F12000 X59 Y26.999
G1 F900 X60.5 Y26.999 E1074.15999
G0 F12000 X60.5 Y27.499
G1 F900 X59 Y27.499 E1074.25354
G0 F12000 X59 Y27.999
G1 F900 X60.5 Y27.999 E1074.34708
G0 F12000 X60.5 Y28.499
G1 F900 X59 Y28.499 E1074.44063
G0 F12000 X59 Y28.999
G1 F900 X60.5 Y28.999 E1074.53417
G0 F12000 X60.5 Y29.499
G1 F900 X59 Y29.499 E1074.62771
G0 F12000 X59 Y29.999
G1 F900 X60.5 Y29.999 E1074.72126
G0 F12000 X60.5 Y30.499
G1 F900 X59 Y30.499 E1074.8148
G0 F12000 X59 Y30.999
G1 F900 X60.5 Y30.999 E1074.90835
G0 F12000 X60.5 Y31.499
G1 F900 X59 Y31.499 E1075.00189
G0 F12000 X59 Y31.999
G1 F900 X60.5 Y31.999 E1075.09543
G0 F12000 X60.5 Y32.499
G1 F900 X59 Y32.499 E1075.18898
G0 F12000 X59 Y33
G1 F900 X60.5 Y32.999 E1075.28252
G0 F12000 X60.5 Y33.499
G1 F900 X59 Y33.5 E1075.37607
G0 F12000 X59 Y34
G1 F900 X60.5 Y33.999 E1075.46961
G0 F12000 X60.5 Y34.499
G1 F900 X59 Y34.5 E1075.56316
G0 F12000 X59 Y35
G1 F900 X60.5 Y34.999 E1075.6567
G0 F12000 X60.5 Y35.499
G1 F900 X59 Y35.5 E1075.75024
G0 F12000 X59 Y36
G1 F900 X60.5 Y35.999 E1075.84379
G0 F12000 X60.5 Y36.499
G1 F900 X59 Y36.5 E1075.93733
G0 F12000 X59 Y37
G1 F900 X60.5 Y36.999 E1076.03088
G0 F12000 X60.5 Y37.499
G1 F900 X59 Y37.5 E1076.12442
G0 F12000 X59 Y38
G1 F900 X60.5 Y37.999 E1076.21796
G0 F12000 X60.5 Y38.499
G1 F900 X59 Y38.5 E1076.31151
G0 F12000 X59 Y39
G1 F900 X60.5 Y38.999 E1076.40505
G0 F12000 X60.5 Y39.499
G1 F900 X-60.499 Y39.5 E1083.95088
G0 F12000 X-60.499 Y39
G1 F900 X-59 Y39 E1084.04436
G0 F12000 X-59 Y38.5
G1 F900 X-60.499 Y38.5 E1084.13785
G0 F12000 X-60.499 Y38
G1 F900 X-59 Y38 E1084.23133
G0 F12000 X-59 Y37.5
G1 F900 X-60.499 Y37.5 E1084.32481
G0 F12000 X-60.499 Y37
G1 F900 X-59 Y37 E1084.41829
G0 F12000 X-59 Y36.5
G1 F900 X-60.499 Y36.5 E1084.51177
G0 F12000 X-60.499 Y36
G1 F900 X-59 Y36 E1084.60526
G0 F12000 X-59 Y35.5
G1 F900 X-60.499 Y35.5 E1084.69874
G0 F12000 X-60.499 Y35
G1 F900 X-59 Y35 E1084.79222
G0 F12000 X-59 Y34.5
G1 F900 X-60.499 Y34.5 E1084.8857
G0 F12000 X-60.499 Y34
G1 F900 X-59 Y34 E1084.97918
G0 F12000 X-59 Y33.5
G1 F900 X-60.499 Y33.5 E1085.07266
G0 F12000 X-60.499 Y33
G1 F900 X-59 Y33 E1085.16615
G0 F12000 X-59 Y32.5
G1 F900 X-60.499 Y32.5 E1085.25963
G0 F12000 X-60.499 Y32
G1 F900 X-59 Y32 E1085.35311
G0 F12000 X-59 Y31.5
G1 F900 X-60.499 Y31.5 E1085.44659
G0 F12000 X-60.499 Y31
G1 F900 X-59 Y31 E1085.54007
G0 F12000 X-59 Y30.5
G1 F900 X-60.499 Y30.5 E1085.63356
G0 F12000 X-60.499 Y30
G1 F900 X-59 Y30 E1085.72704
G0 F12000 X-60.499 Y40
G1 F900 X60.5 Y39.999 E1093.27287
G0 F12000 X60.5 Y-39.5
G1 F900 X-60.499 Y-39.499 E1100.8187
G0 F12000 X-60.499 Y-39.999
G1 F900 X60.5 Y-40 E1108.36453
G1 F6000 E1106.56453
G1 Z0.8
G0 F12000 X-20.5 Y-12.456
; TYPE:SUPPORT-INTERFACE
G1 Z0.3
G1 F6000 E1108.36453
G1 F900 X-20.5 Y-9.552 E1108.54563
G0 F12000 X-21 Y-8.931
G1 F900 X-21 Y-13.07 E1108.80375
G0 F12000 X-21.5 Y-13.446
G1 F900 X-21.5 Y-12.106 E1108.88732
G0 F12000 X-22 Y-12.564
G1 F900 X-22 Y-13.665 E1108.95598
G0 F12000 X-22.5 Y-13.792
G1 F900 X-22.5 Y-12.784 E1109.01884
G0 F12000 X-23 Y-12.834
G1 F900 X-23 Y-13.845 E1109.08189
G0 F12000 X-23.5 Y-13.776
G1 F900 X-23.5 Y-12.746 E1109.14612
G0 F12000 X-24 Y-12.498
G1 F900 X-24 Y-13.625 E1109.2164
G0 F12000 X-24.5 Y-13.375
G1 F900 X-24.5 Y-11.979 E1109.30346
G0 F12000 X-25.5 Y-12.233
G1 F900 X-25.5 Y-9.77 E1109.45706
G0 F12000 X-25 Y-9.029
G1 F900 X-25 Y-12.975 E1109.70315
G0 F12000 X-24.5 Y-10.019
G1 F900 X-24.5 Y-8.625 E1109.79008
G0 F12000 X-24 Y-8.373
G1 F900 X-24 Y-9.508 E1109.86086
G0 F12000 X-23.5 Y-9.254
G1 F900 X-23.5 Y-8.217 E1109.92553
G0 F12000 X-23 Y-8.155
G1 F900 X-23 Y-9.168 E1109.9887
G0 F12000 X-22.5 Y-9.217
G1 F900 X-22.5 Y-8.207 E1110.05169
G0 F12000 X-22 Y-8.33
G1 F900 X-22 Y-9.422 E1110.11979
G0 F12000 X-21.5 Y-9.887
G1 F900 X-21.5 Y-8.543 E1110.20361
G1 F6000 E1108.40361
G1 Z0.8
G0 F12000 X-40.5 Y-9.577
G1 Z0.3
G1 F6000 E1110.20361
G1 F900 X-40.5 Y-12.42 E1110.3809
G0 F12000 X-41 Y-13.049
G1 F900 X-41 Y-8.935 E1110.63746
G0 F12000 X-41.5 Y-8.567
G1 F900 X-41.5 Y-9.88 E1110.71935
G0 F12000 X-42 Y-9.436
G1 F900 X-42 Y-8.334 E1110.78807
G0 F12000 X-42.5 Y-8.192
G1 F900 X-42.5 Y-9.224 E1110.85243
G0 F12000 X-43 Y-9.166
G1 F900 X-43 Y-8.163 E1110.91498
G0 F12000 X-43.5 Y-8.224
G1 F900 X-43.5 Y-9.247 E1110.97878
G0 F12000 X-44 Y-9.495
G1 F900 X-44 Y-8.362 E1111.04943
G0 F12000 X-44.5 Y-8.612
G1 F900 X-44.5 Y-10.034 E1111.13811
G0 F12000 X-45.5 Y-9.729
G1 F900 X-45.5 Y-12.219 E1111.2934
G0 F12000 X-45 Y-12.949
G1 F900 X-45 Y-9.037 E1111.53736
G0 F12000 X-44.5 Y-11.984
G1 F900 X-44.5 Y-13.363 E1111.62336
G0 F12000 X-44 Y-13.63
G1 F900 X-44 Y-12.495 E1111.69414
G0 F12000 X-43.5 Y-12.739
G1 F900 X-43.5 Y-13.797 E1111.76012
G0 F12000 X-43 Y-13.829
G1 F900 X-43 Y-12.824 E1111.82279
G0 F12000 X-42.5 Y-12.77
G1 F900 X-42.5 Y-13.793 E1111.88659
G0 F12000 X-42 Y-13.684
G1 F900 X-42 Y-12.563 E1111.9565
G0 F12000 X-41.5 Y-12.113
G1 F900 X-41.5 Y-13.435 E1112.03894
G1 F6000 E1110.23894
G1 Z0.8
G0 F12000 X-25.5 Y-23.773
G1 Z0.3
G1 F6000 E1112.03894
G1 F900 X-25.5 Y-26.24 E1112.19279
G0 F12000 X-25 Y-26.981
G1 F900 X-25 Y-23.034 E1112.43894
G0 F12000 X-24.5 Y-22.627
G1 F900 X-24.5 Y-24.012 E1112.52531
G0 F12000 X-24 Y-23.503
G1 F900 X-24 Y-22.374 E1112.59572
G0 F12000 X-23.5 Y-22.214
G1 F900 X-23.5 Y-23.251 E1112.66039
G0 F12000 X-23 Y-23.165
G1 F900 X-23 Y-22.158 E1112.72319
G0 F12000 X-22.5 Y-22.207
G1 F900 X-22.5 Y-23.219 E1112.7863
G0 F12000 X-22 Y-23.418
G1 F900 X-22 Y-22.328 E1112.85427
G0 F12000 X-21.5 Y-22.545
G1 F900 X-21.5 Y-23.883 E1112.93771
G0 F12000 X-20.5 Y-23.553
G1 F900 X-20.5 Y-26.458 E1113.11888
G0 F12000 X-21 Y-27.076
G1 F900 X-21 Y-22.935 E1113.37712
G0 F12000 X-21.5 Y-26.113
G1 F900 X-21.5 Y-27.445 E1113.46019
G0 F12000 X-22 Y-27.665
G1 F900 X-22 Y-26.571 E1113.52841
G0 F12000 X-22.5 Y-26.786
G1 F900 X-22.5 Y-27.794 E1113.59128
G0 F12000 X-23 Y-27.85
G1 F900 X-23 Y-26.838 E1113.65439
G0 F12000 X-23.5 Y-26.752
G1 F900 X-23.5 Y-27.774 E1113.71812
G0 F12000 X-24 Y-27.625
G1 F900 X-24 Y-26.498 E1113.7884
G0 F12000 X-24.5 Y-25.974
G1 F900 X-24.5 Y-27.378 E1113.87596
G1 F6000 E1112.07596
G1 Z0.8
G0 F12000 X-40.5 Y-26.438
G1 Z0.3
G1 F6000 E1113.87596
G1 F900 X-40.5 Y-23.548 E1114.05619
G0 F12000 X-41 Y-22.919
G1 F900 X-41 Y-27.057 E1114.31425
G0 F12000 X-41.5 Y-27.447
G1 F900 X-41.5 Y-26.108 E1114.39775
G0 F12000 X-42 Y-26.573
G1 F900 X-42 Y-27.672 E1114.46629
G0 F12000 X-42.5 Y-27.791
G1 F900 X-42.5 Y-26.775 E1114.52965
G0 F12000 X-43 Y-26.828
G1 F900 X-43 Y-27.836 E1114.59251
G0 F12000 X-43.5 Y-27.783
G1 F900 X-43.5 Y-26.743 E1114.65737
G0 F12000 X-44 Y-26.493
G1 F900 X-44 Y-27.624 E1114.7279
G0 F12000 X-44.5 Y-27.366
G1 F900 X-44.5 Y-25.988 E1114.81384
G0 F12000 X-45.5 Y-26.222
G1 F900 X-45.5 Y-23.75 E1114.968
G0 F12000 X-45 Y-23.022
G1 F900 X-45 Y-26.958 E1115.21346
G0 F12000 X-44.5 Y-24.028
G1 F900 X-44.5 Y-22.615 E1115.30157
G0 F12000 X-44 Y-22.37
G1 F900 X-44 Y-23.504 E1115.37229
G0 F12000 X-43.5 Y-23.248
G1 F900 X-43.5 Y-22.222 E1115.43628
G0 F12000 X-43 Y-22.151
G1 F900 X-43 Y-23.163 E1115.49939
G0 F12000 X-42.5 Y-23.215
G1 F900 X-42.5 Y-22.204 E1115.56244
G0 F12000 X-42 Y-22.335
G1 F900 X-42 Y-23.429 E1115.63066
G0 F12000 X-41.5 Y-23.885
G1 F900 X-41.5 Y-22.557 E1115.71348
G0 F12000 X-41.5 Y-22.557 Z0.55
; Layer Change GCode
; LAYER:1
G1 F6000 E1113.91348
G1 Z1.05
G0 F12000 X-40.71 Y-21.463 Z1
G0 X-42.475 Y-15.268
G0 X-42.642 Y-15.301
G0 X-43.766 Y-15.234
G0 X-44.834 Y-14.878
G0 X-45.773 Y-14.259
G0 X-46.521 Y-13.417
G0 X-47.026 Y-12.41
G0 X-47.251 Y-11.307
G0 X-47.184 Y-10.185
G0 X-46.829 Y-9.116
G0 X-46.209 Y-8.176
G0 X-45.368 Y-7.428
G0 X-44.792 Y-7.142
G0 X-46.799 Y-0.098
G0 X-47.239 Y-0.041
G0 X-48.589 Y2.944
G0 X-47.923 Y3.842
G0 X-57.444 Y37.241
G0 X-57.554 Y37.626
G0 X-57.49 Y37.4
G0 X-57.49 Y37.4
G0 X-57.75 Y37.75
G0 X-57.75 Y37.75
G0 X-56.75 Y36.75
; TYPE:WALL-INNER
G1 Z0.5
G1 F6000 E1115.71348
G1 F2400 X-56.75 Y36.75 E1115.71348
G1 X-56.75 Y-36.75 E1118.76926
G1 X56.75 Y-36.75 E1123.48804
G1 X56.75 Y36.75 E1126.54381
G1 X-56.75 Y36.75 E1131.26259
G0 F12000 X-57.25 Y37.25
G1 F2400 X-57.25 Y37.25 E1131.26259
G1 X-57.25 Y-37.25 E1134.35994
G1 X57.25 Y-37.25 E1139.1203
G1 X57.25 Y37.25 E1142.21765
G1 X-57.25 Y37.25 E1146.97801
G0 F12000 X-57.75 Y37.75
; TYPE:WALL-OUTER
G1 F1800 X-57.75 Y37.75 E1146.97801
G1 X-57.75 Y-37.75 E1150.11693
G1 X57.75 Y-37.75 E1154.91886
G1 X57.75 Y37.75 E1158.05779
G1 X-57.75 Y37.75 E1162.85972
G1 F6000 E1161.05972
G1 Z1
G0 F12000 X-57.49 Y37.4
G0 X-49.12 Y28.463
G0 X-49.12 Y28.463
; TYPE:WALL-INNER
G0 X-49.12 Y28.463
G1 Z0.5
G1 F6000 E1162.85972
G1 F2400 X-46.284 Y31.204 E1163.0237
G1 X-42.493 Y30.119 E1163.18764
G1 X-41.919 Y27.82 E1163.28615
G1 X-40.111 Y29.063 E1163.37737
G1 X-36.227 Y30.436 E1163.54864
G1 X-32.12 Y30.759 E1163.71992
G1 X-28.069 Y30.007 E1163.89122
G1 X-24.352 Y28.232 E1164.06247
G0 F12000 X-24.133 Y28.204
G1 F2400 X-23.949 Y27.888 E1164.07767
G0 F12000 X-23.914 Y28.177
G1 F2400 X-23.719 Y29.752 E1164.14365
G1 X-20.09 Y31.292 E1164.30755
G1 X-16.941 Y28.918 E1164.47151
G1 X-17.422 Y25.004 E1164.63546
G1 X-20.07 Y23.881 E1164.75504
G1 X-18.888 Y22.16 E1164.84184
G1 X-17.513 Y18.277 E1165.0131
G1 X-17.191 Y14.17 E1165.18437
G1 X-17.943 Y10.119 E1165.35567
G1 X-19.717 Y6.401 E1165.52694
G0 F12000 X-19.777 Y6.181
G1 F2400 X-20.046 Y6.017 E1165.54004
G0 F12000 X-19.838 Y5.961
G1 F2400 X-17.774 Y5.4 E1165.62896
G1 X-16.765 Y1.589 E1165.79287
G1 X-19.561 Y-1.191 E1165.95679
G1 X-23.368 Y-0.16 E1166.12077
G1 X-23.376 Y-0.129 E1166.1221
G1 X-28.802 Y-0.129 E1166.34769
G1 X-29.672 Y-0.437 E1166.38606
G1 X-33.779 Y-0.759 E1166.55733
G1 X-37.83 Y-0.008 E1166.72862
G1 X-41.548 Y1.767 E1166.89991
G0 F12000 X-41.61 Y1.812
G1 F2400 X-41.666 Y1.868 E1166.9032
G0 F12000 X-41.673 Y1.858
G1 F2400 X-43.703 Y-0.972 E1167.048
G1 X-47.628 Y-0.583 E1167.21198
G1 X-49.252 Y3.01 E1167.37591
G1 X-46.954 Y6.214 E1167.53984
G1 X-45.819 Y6.102 E1167.58725
G1 X-47.013 Y7.839 E1167.67489
G1 X-48.386 Y11.722 E1167.84612
G1 X-48.709 Y15.829 E1168.01739
G1 X-47.957 Y19.88 E1168.18869
G1 X-46.182 Y23.598 E1168.35998
G0 F12000 X-46.119 Y23.816
G1 F2400 X-45.857 Y23.978 E1168.37279
G0 F12000 X-46.056 Y24.034
G1 F2400 X-48.164 Y24.638 E1168.46395
G1 X-49.12 Y28.463 E1168.62787
G0 F12000 X-48.565 Y28.304
G0 X-48.565 Y28.304
G1 F2400 X-46.144 Y30.644 E1168.76786
G1 X-42.908 Y29.718 E1168.90779
G1 X-42.229 Y27 E1169.02427
G1 X-39.882 Y28.613 E1169.14267
G1 X-36.122 Y29.943 E1169.30848
G1 X-32.146 Y30.255 E1169.47429
G1 X-28.225 Y29.527 E1169.64009
G1 X-24.627 Y27.809 E1169.80586
G1 X-23.566 Y26.903 E1169.86386
G1 X-23.258 Y29.404 E1169.96863
G1 X-20.16 Y30.719 E1170.10855
G1 X-17.473 Y28.692 E1170.24849
G1 X-17.883 Y25.352 E1170.38839
G1 X-20.828 Y24.103 E1170.52138
G1 X-19.337 Y21.931 E1170.63092
G1 X-18.006 Y18.172 E1170.7967
G1 X-17.695 Y14.196 E1170.96251
G1 X-18.423 Y10.275 E1171.12831
G1 X-20.14 Y6.676 E1171.2941
G1 X-20.939 Y5.741 E1171.34523
G1 X-18.184 Y4.993 E1171.46392
G1 X-17.322 Y1.74 E1171.60383
G1 X-19.709 Y-0.633 E1171.74377
G1 X-22.958 Y0.247 E1171.88371
G1 X-22.991 Y0.371 E1171.88904
G1 X-28.887 Y0.371 E1172.13417
G1 X-29.777 Y0.056 E1172.17342
G1 X-33.753 Y-0.255 E1172.33923
G1 X-37.674 Y0.472 E1172.50503
G1 X-41.273 Y2.19 E1172.67083
G1 X-41.73 Y2.58 E1172.69581
G0 F12000 X-41.854 Y2.434
G1 F2400 X-42.35 Y3.11 E1172.73066
G0 F12000 X-41.979 Y2.289
G1 F2400 X-43.941 Y-0.446 E1172.8706
G1 X-47.291 Y-0.114 E1173.01056
G1 X-48.678 Y2.953 E1173.15051
G1 X-46.716 Y5.688 E1173.29045
G1 X-44.798 Y5.498 E1173.37058
G1 X-46.563 Y8.068 E1173.5002
G1 X-47.893 Y11.827 E1173.66597
G1 X-48.205 Y15.803 E1173.83178
G1 X-47.477 Y19.724 E1173.99759
G1 X-45.759 Y23.323 E1174.16339
G1 X-44.972 Y24.244 E1174.21376
G1 X-47.749 Y25.039 E1174.33385
G1 X-48.565 Y28.304 E1174.47377
G0 F12000 X-48.01 Y28.145
; TYPE:WALL-OUTER
G1 F1800 X-48.01 Y28.145 E1174.47377
G1 X-46.004 Y30.084 E1174.58976
G1 X-43.323 Y29.317 E1174.70569
G1 X-42.647 Y26.611 E1174.82165
G1 X-44.653 Y24.673 E1174.93762
G1 X-47.334 Y25.44 E1175.05355
G1 X-48.01 Y28.145 E1175.16947
G1 F6000 E1173.36947
G1 Z1
G0 F12000 X-48.349 Y28.061
G0 X-43.297 Y-6.142
G0 X-43.297 Y-6.142
; TYPE:WALL-INNER
G1 Z0.5
G1 F6000 E1175.16947
G1 F2400 X-43.297 Y-6.142 E1175.16947
G1 X-42.028 Y-6.218 E1175.22232
G1 X-40.822 Y-6.62 E1175.27518
G1 X-39.762 Y-7.319 E1175.32796
G1 X-38.917 Y-8.27 E1175.38086
G1 X-38.349 Y-9.407 E1175.4337
G1 X-38.092 Y-10.652 E1175.48655
G1 X-38.168 Y-11.921 E1175.5394
G1 X-38.57 Y-13.127 E1175.59225
G1 X-39.27 Y-14.189 E1175.64514
G1 X-40.22 Y-15.032 E1175.69794
G1 X-41.358 Y-15.601 E1175.75084
G1 X-42.602 Y-15.857 E1175.80364
G1 X-43.872 Y-15.781 E1175.85654
G1 X-45.078 Y-15.379 E1175.90939
G1 X-46.139 Y-14.68 E1175.96221
G1 X-46.982 Y-13.729 E1176.01505
G1 X-47.551 Y-12.592 E1176.06791
G1 X-47.807 Y-11.347 E1176.12075
G1 X-47.731 Y-10.079 E1176.17356
G1 X-47.33 Y-8.872 E1176.22644
G1 X-46.63 Y-7.81 E1176.27932
G1 X-45.68 Y-6.967 E1176.33213
G1 X-44.542 Y-6.397 E1176.38504
G1 X-43.297 Y-6.142 E1176.43788
G0 F12000 X-43.261 Y-6.645
G1 F2400 X-43.261 Y-6.645 E1176.43788
G1 X-42.124 Y-6.713 E1176.48523
G1 X-41.042 Y-7.074 E1176.53266
G1 X-40.092 Y-7.7 E1176.57996
G1 X-39.334 Y-8.553 E1176.6274
G1 X-38.825 Y-9.572 E1176.67475
G1 X-38.595 Y-10.688 E1176.72213
G1 X-38.663 Y-11.825 E1176.76948
G1 X-39.024 Y-12.907 E1176.8169
G1 X-39.651 Y-13.858 E1176.86426
G1 X-40.503 Y-14.614 E1176.91162
G1 X-41.523 Y-15.125 E1176.95905
G1 X-42.638 Y-15.354 E1177.00637
G1 X-43.776 Y-15.286 E1177.05377
G1 X-44.858 Y-14.925 E1177.10119
G1 X-45.808 Y-14.299 E1177.14849
G1 X-46.564 Y-13.446 E1177.19588
G1 X-47.075 Y-12.427 E1177.24327
G1 X-47.304 Y-11.311 E1177.29064
G1 X-47.236 Y-10.174 E1177.33799
G1 X-46.877 Y-9.093 E1177.38535
G1 X-46.249 Y-8.141 E1177.43277
G1 X-45.397 Y-7.385 E1177.48012
G1 X-44.377 Y-6.874 E1177.52755
G1 X-43.261 Y-6.645 E1177.57492
G0 F12000 X-43.225 Y-7.148
; TYPE:WALL-OUTER
G1 F1800 X-43.225 Y-7.148 E1177.57492
G1 X-42.219 Y-7.208 E1177.61682
G1 X-41.263 Y-7.527 E1177.65872
G1 X-40.422 Y-8.081 E1177.70059
G1 X-39.752 Y-8.836 E1177.74255
G1 X-39.302 Y-9.737 E1177.78442
G1 X-39.098 Y-10.724 E1177.82633
G1 X-39.158 Y-11.73 E1177.86823
G1 X-39.477 Y-12.686 E1177.91013
G1 X-40.032 Y-13.528 E1177.95205
G1 X-40.786 Y-14.197 E1177.99396
G1 X-41.688 Y-14.648 E1178.03589
G1 X-42.674 Y-14.851 E1178.07774
G1 X-43.681 Y-14.791 E1178.11968
G1 X-44.637 Y-14.472 E1178.16158
G1 X-45.478 Y-13.918 E1178.20345
G1 X-46.147 Y-13.163 E1178.24539
G1 X-46.598 Y-12.262 E1178.28728
G1 X-46.801 Y-11.275 E1178.32917
G1 X-46.741 Y-10.269 E1178.37107
G1 X-46.423 Y-9.313 E1178.41296
G1 X-45.868 Y-8.471 E1178.45489
G1 X-45.114 Y-7.802 E1178.49679
G1 X-44.212 Y-7.351 E1178.53872
G1 X-43.225 Y-7.148 E1178.58061
G1 F6000 E1176.78061
G1 Z1
G0 F12000 X-43.295 Y-6.806
G0 X-43.296 Y-6.694
G0 X-43.257 Y-6.698
G0 X-44.36 Y-6.923
G0 X-45.368 Y-7.428
G0 X-46.209 Y-8.176
G0 X-46.829 Y-9.116
G0 X-47.184 Y-10.185
G0 X-47.251 Y-11.307
G0 X-47.026 Y-12.41
G0 X-46.521 Y-13.417
G0 X-45.773 Y-14.259
G0 X-44.834 Y-14.878
G0 X-43.766 Y-15.234
G0 X-43.161 Y-15.271
G0 X-43.086 Y-20.132
G0 X-43.086 Y-20.132
; TYPE:WALL-INNER
G1 Z0.5
G1 F6000 E1178.58061
G1 F2400 X-43.086 Y-20.132 E1178.58061
G1 X-41.822 Y-20.263 E1178.63345
G1 X-40.635 Y-20.716 E1178.68627
G1 X-39.605 Y-21.461 E1178.73912
G1 X-38.802 Y-22.447 E1178.79199
G1 X-38.284 Y-23.608 E1178.84484
G1 X-38.083 Y-24.862 E1178.89764
G1 X-38.212 Y-26.128 E1178.95055
G1 X-38.666 Y-27.316 E1179.00342
G1 X-39.412 Y-28.346 E1179.0563
G1 X-40.398 Y-29.147 E1179.10911
G1 X-41.559 Y-29.666 E1179.16199
G1 X-42.814 Y-29.867 E1179.21483
G1 X-44.078 Y-29.736 E1179.26766
G1 X-45.265 Y-29.283 E1179.32048
G1 X-46.295 Y-28.538 E1179.37333
G1 X-47.097 Y-27.552 E1179.42617
G1 X-47.616 Y-26.391 E1179.47904
G1 X-47.817 Y-25.136 E1179.53189
G1 X-47.686 Y-23.871 E1179.58476
G1 X-47.233 Y-22.684 E1179.63758
G1 X-46.488 Y-21.654 E1179.69043
G1 X-45.502 Y-20.852 E1179.74327
G1 X-44.341 Y-20.333 E1179.79614
G1 X-43.086 Y-20.132 E1179.84899
G0 F12000 X-43.072 Y-20.636
G1 F2400 X-43.072 Y-20.636 E1179.84899
G1 X-41.939 Y-20.753 E1179.89634
G1 X-40.874 Y-21.16 E1179.94374
G1 X-39.952 Y-21.827 E1179.99105
G1 X-39.232 Y-22.712 E1180.03849
G1 X-38.767 Y-23.752 E1180.08585
G1 X-38.587 Y-24.876 E1180.13318
G1 X-38.703 Y-26.011 E1180.18061
G1 X-39.11 Y-27.076 E1180.22801
G1 X-39.779 Y-27.999 E1180.2754
G1 X-40.663 Y-28.717 E1180.32275
G1 X-41.703 Y-29.183 E1180.37013
G1 X-42.828 Y-29.363 E1180.4175
G1 X-43.961 Y-29.246 E1180.46485
G1 X-45.026 Y-28.839 E1180.51225
G1 X-45.949 Y-28.172 E1180.5596
G1 X-46.667 Y-27.287 E1180.60698
G1 X-47.133 Y-26.247 E1180.65436
G1 X-47.313 Y-25.122 E1180.70173
G1 X-47.196 Y-23.988 E1180.74912
G1 X-46.789 Y-22.923 E1180.79652
G1 X-46.122 Y-22 E1180.84387
G1 X-45.237 Y-21.282 E1180.89125
G1 X-44.197 Y-20.816 E1180.93863
G1 X-43.072 Y-20.636 E1180.986
G0 F12000 X-43.058 Y-21.14
; TYPE:WALL-OUTER
G1 F1800 X-43.058 Y-21.14 E1180.986
G1 X-42.056 Y-21.244 E1181.02788
G1 X-41.114 Y-21.603 E1181.06979
G1 X-40.298 Y-22.194 E1181.11168
G1 X-39.661 Y-22.976 E1181.15361
G1 X-39.25 Y-23.896 E1181.1955
G1 X-39.091 Y-24.891 E1181.2374
G1 X-39.194 Y-25.894 E1181.27932
G1 X-39.553 Y-26.836 E1181.32123
G1 X-40.145 Y-27.652 E1181.36314
G1 X-40.927 Y-28.288 E1181.40505
G1 X-41.847 Y-28.7 E1181.44696
G1 X-42.842 Y-28.859 E1181.48885
G1 X-43.844 Y-28.755 E1181.53073
G1 X-44.786 Y-28.396 E1181.57264
G1 X-45.602 Y-27.805 E1181.61453
G1 X-46.238 Y-27.023 E1181.65644
G1 X-46.65 Y-26.103 E1181.69835
G1 X-46.809 Y-25.108 E1181.74024
G1 X-46.705 Y-24.105 E1181.78216
G1 X-46.346 Y-23.163 E1181.82407
G1 X-45.755 Y-22.347 E1181.86596
G1 X-44.973 Y-21.711 E1181.90787
G1 X-44.053 Y-21.299 E1181.94978
G1 X-43.058 Y-21.14 E1181.99167
G1 F6000 E1180.19167
G1 Z1
G0 F12000 X-43.112 Y-20.796
G0 X-43.02 Y-20.811
G0 X-43.07 Y-20.688
G0 X-41.951 Y-20.804
G0 X-41.784 Y-21.039
G0 X-27.63 Y-23.652
G0 X-27.63 Y-23.652
; TYPE:WALL-INNER
G1 Z0.5
G1 F6000 E1181.99167
G1 F2400 X-27.63 Y-23.652 E1181.99167
G1 X-27.121 Y-22.487 E1182.04453
G1 X-26.329 Y-21.493 E1182.09737
G1 X-25.306 Y-20.739 E1182.1502
G1 X-24.123 Y-20.273 E1182.20306
G1 X-22.859 Y-20.13 E1182.25595
G1 X-21.603 Y-20.321 E1182.30877
G1 X-20.438 Y-20.828 E1182.36159
G1 X-19.443 Y-21.62 E1182.41446
G1 X-18.688 Y-22.643 E1182.46732
G1 X-18.224 Y-23.826 E1182.52016
G1 X-18.081 Y-25.089 E1182.573
G1 X-18.27 Y-26.347 E1182.62589
G1 X-18.779 Y-27.512 E1182.67875
G1 X-19.571 Y-28.506 E1182.73159
G1 X-20.594 Y-29.26 E1182.78442
G1 X-21.776 Y-29.726 E1182.83724
G1 X-23.041 Y-29.869 E1182.89017
G1 X-24.297 Y-29.678 E1182.94299
G1 X-25.462 Y-29.171 E1182.99581
G1 X-26.456 Y-28.379 E1183.04865
G1 X-27.211 Y-27.356 E1183.10151
G1 X-27.676 Y-26.173 E1183.15436
G1 X-27.819 Y-24.91 E1183.2072
G1 X-27.63 Y-23.652 E1183.26009
G0 F12000 X-27.145 Y-23.792
G1 F2400 X-27.145 Y-23.792 E1183.26009
G1 X-26.689 Y-22.748 E1183.30746
G1 X-25.979 Y-21.856 E1183.35486
G1 X-25.062 Y-21.18 E1183.40222
G1 X-24.002 Y-20.763 E1183.44958
G1 X-22.869 Y-20.635 E1183.49698
G1 X-21.743 Y-20.805 E1183.54433
G1 X-20.698 Y-21.26 E1183.59171
G1 X-19.806 Y-21.97 E1183.63911
G1 X-19.13 Y-22.887 E1183.68647
G1 X-18.714 Y-23.948 E1183.73386
G1 X-18.586 Y-25.08 E1183.78122
G1 X-18.755 Y-26.207 E1183.8286
G1 X-19.211 Y-27.251 E1183.87596
G1 X-19.921 Y-28.143 E1183.92336
G1 X-20.838 Y-28.819 E1183.97072
G1 X-21.897 Y-29.236 E1184.01804
G1 X-23.031 Y-29.364 E1184.06549
G1 X-24.157 Y-29.194 E1184.11283
G1 X-25.202 Y-28.739 E1184.16022
G1 X-26.093 Y-28.029 E1184.20758
G1 X-26.77 Y-27.112 E1184.25497
G1 X-27.186 Y-26.051 E1184.30235
G1 X-27.314 Y-24.919 E1184.34972
G1 X-27.145 Y-23.792 E1184.3971
G0 F12000 X-26.66 Y-23.931
; TYPE:WALL-OUTER
G1 F1800 X-26.66 Y-23.931 E1184.3971
G1 X-26.257 Y-23.008 E1184.43897
G1 X-25.629 Y-22.219 E1184.48089
G1 X-24.818 Y-21.621 E1184.52279
G1 X-23.88 Y-21.252 E1184.56469
G1 X-22.878 Y-21.139 E1184.60661
G1 X-21.882 Y-21.29 E1184.6485
G1 X-20.958 Y-21.692 E1184.69039
G1 X-20.169 Y-22.32 E1184.73232
G1 X-19.571 Y-23.131 E1184.77421
G1 X-19.203 Y-24.069 E1184.8161
G1 X-19.09 Y-25.071 E1184.85802
G1 X-19.24 Y-26.068 E1184.89994
G1 X-19.643 Y-26.991 E1184.94181
G1 X-20.271 Y-27.78 E1184.98374
G1 X-21.082 Y-28.378 E1185.02563
G1 X-22.019 Y-28.747 E1185.0675
G1 X-23.022 Y-28.86 E1185.10946
G1 X-24.018 Y-28.709 E1185.15134
G1 X-24.942 Y-28.307 E1185.19324
G1 X-25.73 Y-27.679 E1185.23513
G1 X-26.329 Y-26.868 E1185.27705
G1 X-26.697 Y-25.93 E1185.31894
G1 X-26.81 Y-24.928 E1185.36086
G1 X-26.66 Y-23.931 E1185.40278
G1 F6000 E1183.60278
G1 Z1
G0 F12000 X-26.981 Y-23.791
G0 X-26.885 Y-23.507
G0 X-26.757 Y-23.128
G0 X-24.243 Y-15.695
G0 X-24.243 Y-15.695
; TYPE:WALL-INNER
G1 Z0.5
G1 F6000 E1185.40278
G1 F2400 X-24.243 Y-15.695 E1185.40278
G1 X-25.414 Y-15.199 E1185.45565
G1 X-26.416 Y-14.418 E1185.50847
G1 X-27.184 Y-13.405 E1185.56132
G1 X-27.662 Y-12.226 E1185.61421
G1 X-27.819 Y-10.965 E1185.66704
G1 X-27.645 Y-9.706 E1185.71988
G1 X-27.149 Y-8.535 E1185.77275
G1 X-26.369 Y-7.532 E1185.82558
G1 X-25.355 Y-6.766 E1185.87841
G1 X-24.177 Y-6.287 E1185.93128
G1 X-22.916 Y-6.13 E1185.98411
G1 X-21.656 Y-6.304 E1186.03699
G1 X-20.486 Y-6.8 E1186.08983
G1 X-19.482 Y-7.581 E1186.14271
G1 X-18.716 Y-8.594 E1186.19551
G1 X-18.238 Y-9.772 E1186.24837
G1 X-18.08 Y-11.034 E1186.30124
G1 X-18.256 Y-12.293 E1186.3541
G1 X-18.749 Y-13.464 E1186.40692
G1 X-19.531 Y-14.467 E1186.4598
G1 X-20.544 Y-15.233 E1186.5126
G1 X-21.722 Y-15.712 E1186.56547
G1 X-22.984 Y-15.869 E1186.61834
G1 X-24.243 Y-15.695 E1186.67118
G0 F12000 X-24.109 Y-15.208
G1 F2400 X-24.109 Y-15.208 E1186.67118
G1 X-25.159 Y-14.764 E1186.71857
G1 X-26.057 Y-14.064 E1186.76591
G1 X-26.746 Y-13.156 E1186.8133
G1 X-27.174 Y-12.099 E1186.86071
G1 X-27.314 Y-10.969 E1186.90805
G1 X-27.158 Y-9.84 E1186.95543
G1 X-26.714 Y-8.79 E1187.00283
G1 X-26.015 Y-7.891 E1187.05018
G1 X-25.106 Y-7.204 E1187.09755
G1 X-24.05 Y-6.775 E1187.14493
G1 X-22.92 Y-6.635 E1187.19227
G1 X-21.79 Y-6.791 E1187.2397
G1 X-20.741 Y-7.235 E1187.28706
G1 X-19.841 Y-7.935 E1187.33446
G1 X-19.154 Y-8.843 E1187.3818
G1 X-18.726 Y-9.899 E1187.42917
G1 X-18.584 Y-11.03 E1187.47656
G1 X-18.742 Y-12.159 E1187.52396
G1 X-19.184 Y-13.209 E1187.57132
G1 X-19.885 Y-14.108 E1187.61872
G1 X-20.793 Y-14.795 E1187.66605
G1 X-21.849 Y-15.224 E1187.71344
G1 X-22.98 Y-15.364 E1187.76082
G1 X-24.109 Y-15.208 E1187.80821
G0 F12000 X-23.975 Y-14.722
; TYPE:WALL-OUTER
G1 F1800 X-23.975 Y-14.722 E1187.80821
G1 X-24.904 Y-14.329 E1187.85014
G1 X-25.698 Y-13.71 E1187.892
G1 X-26.307 Y-12.907 E1187.9339
G1 X-26.686 Y-11.972 E1187.97585
G1 X-26.81 Y-10.972 E1188.01774
G1 X-26.672 Y-9.974 E1188.05963
G1 X-26.279 Y-9.045 E1188.10156
G1 X-25.661 Y-8.25 E1188.14343
G1 X-24.857 Y-7.643 E1188.18531
G1 X-23.923 Y-7.263 E1188.22723
G1 X-22.923 Y-7.139 E1188.26913
G1 X-21.924 Y-7.277 E1188.31105
G1 X-20.996 Y-7.67 E1188.35295
G1 X-20.2 Y-8.289 E1188.39488
G1 X-19.593 Y-9.092 E1188.43673
G1 X-19.214 Y-10.026 E1188.47863
G1 X-19.089 Y-11.027 E1188.52057
G1 X-19.228 Y-12.025 E1188.56247
G1 X-19.619 Y-12.954 E1188.60437
G1 X-20.239 Y-13.749 E1188.64629
G1 X-21.042 Y-14.356 E1188.68813
G1 X-21.976 Y-14.736 E1188.73006
G1 X-22.977 Y-14.86 E1188.77199
G1 X-23.975 Y-14.722 E1188.81388
G1 F6000 E1187.01388
G1 Z1
G0 F12000 X-24.109 Y-15.045
G0 X-23.939 Y-15.066
G0 X-24.095 Y-15.157
G0 X-16.049 Y-16.072
G0 X14.738 Y-20
G0 X14.738 Y-20
; TYPE:WALL-INNER
G1 Z0.5
G1 F6000 E1188.81388
G1 F2400 X14.738 Y-20 E1188.81388
G1 X14.918 Y-18.638 E1188.871
G1 X15.443 Y-17.369 E1188.92809
G1 X16.28 Y-16.28 E1188.9852
G1 X17.369 Y-15.443 E1189.0423
G1 X18.638 Y-14.918 E1189.09939
G1 X19.999 Y-14.738 E1189.15647
G1 X21.361 Y-14.918 E1189.21359
G1 X22.629 Y-15.443 E1189.27065
G1 X23.719 Y-16.279 E1189.32776
G1 X24.556 Y-17.369 E1189.38489
G1 X25.081 Y-18.638 E1189.44199
G1 X25.26 Y-20 E1189.4991
G1 X25.081 Y-21.361 E1189.55617
G1 X24.556 Y-22.63 E1189.61327
G1 X23.719 Y-23.719 E1189.67037
G1 X22.63 Y-24.556 E1189.72747
G1 X21.361 Y-25.081 E1189.78457
G1 X19.999 Y-25.261 E1189.84169
G1 X18.638 Y-25.081 E1189.89876
G1 X17.369 Y-24.556 E1189.95586
G1 X16.28 Y-23.719 E1190.01296
G1 X15.443 Y-22.63 E1190.07007
G1 X14.918 Y-21.361 E1190.12716
G1 X14.738 Y-20 E1190.18424
G0 F12000 X15.242 Y-20
G1 F2400 X15.242 Y-20 E1190.18424
G1 X15.405 Y-18.768 E1190.23591
G1 X15.88 Y-17.621 E1190.28752
G1 X16.636 Y-16.636 E1190.33914
G1 X17.621 Y-15.88 E1190.39077
G1 X18.768 Y-15.405 E1190.44238
G1 X19.999 Y-15.242 E1190.49401
G1 X21.231 Y-15.405 E1190.54567
G1 X22.377 Y-15.88 E1190.59725
G1 X23.363 Y-16.636 E1190.6489
G1 X24.119 Y-17.621 E1190.70053
G1 X24.594 Y-18.769 E1190.75218
G1 X24.755 Y-20 E1190.80379
G1 X24.594 Y-21.23 E1190.85537
G1 X24.119 Y-22.378 E1190.90702
G1 X23.363 Y-23.363 E1190.95864
G1 X22.378 Y-24.119 E1191.01027
G1 X21.231 Y-24.594 E1191.06188
G1 X19.999 Y-24.757 E1191.11355
G1 X18.768 Y-24.594 E1191.16517
G1 X17.621 Y-24.119 E1191.21679
G1 X16.636 Y-23.363 E1191.26841
G1 X15.88 Y-22.378 E1191.32003
G1 X15.405 Y-21.231 E1191.37165
G1 X15.242 Y-20 E1191.42327
G0 F12000 X15.747 Y-20
; TYPE:WALL-OUTER
G1 F1800 X15.747 Y-20 E1191.42327
G1 X15.892 Y-18.899 E1191.46944
G1 X16.317 Y-17.873 E1191.51561
G1 X16.993 Y-16.993 E1191.56175
G1 X17.873 Y-16.317 E1191.60788
G1 X18.899 Y-15.892 E1191.65405
G1 X19.999 Y-15.747 E1191.70018
G1 X21.1 Y-15.892 E1191.74635
G1 X22.125 Y-16.317 E1191.79248
G1 X23.006 Y-16.993 E1191.83865
G1 X23.682 Y-17.873 E1191.88479
G1 X24.107 Y-18.899 E1191.93096
G1 X24.251 Y-20 E1191.97712
G1 X24.107 Y-21.1 E1192.02325
G1 X23.682 Y-22.126 E1192.06942
G1 X23.006 Y-23.006 E1192.11555
G1 X22.126 Y-23.682 E1192.16169
G1 X21.1 Y-24.107 E1192.20786
G1 X19.999 Y-24.252 E1192.25403
G1 X18.899 Y-24.107 E1192.30015
G1 X17.873 Y-23.682 E1192.34633
G1 X16.993 Y-23.006 E1192.39246
G1 X16.317 Y-22.126 E1192.4386
G1 X15.892 Y-21.1 E1192.48477
G1 X15.747 Y-20 E1192.53089
G1 F6000 E1190.73089
G1 Z1
G0 F12000 X15.401 Y-20.046
G0 X-17.548 Y1.59
G0 X-17.883 Y1.809
G0 X-17.633 Y1.645
G0 X-17.633 Y1.645
G0 X-17.879 Y1.891
G0 X-17.879 Y1.891
G1 Z0.5
G1 F6000 E1192.53089
G1 F1800 X-19.857 Y-0.075 E1192.64684
G1 X-22.549 Y0.654 E1192.76279
G1 X-22.618 Y0.916 E1192.77406
G0 F12000 X-22.706 Y0.893
G1 F1800 X-22.795 Y1.583 E1192.80298
G0 F12000 X-22.795 Y0.871
G1 F1800 X-28.973 Y0.871 E1193.05983
G1 X-29.882 Y0.549 E1193.09993
G1 X-33.726 Y0.248 E1193.26023
G1 X-37.518 Y0.951 E1193.42057
G1 X-40.998 Y2.613 E1193.5809
G1 X-43.93 Y5.117 E1193.74121
G1 X-46.114 Y8.297 E1193.90159
G1 X-47.4 Y11.932 E1194.0619
G1 X-47.702 Y15.776 E1194.22221
G1 X-46.998 Y19.568 E1194.38255
G1 X-45.336 Y23.048 E1194.54289
G1 X-42.832 Y25.979 E1194.70316
G1 X-39.653 Y28.164 E1194.86353
G1 X-36.017 Y29.45 E1195.02388
G1 X-32.173 Y29.752 E1195.18419
G1 X-28.381 Y29.048 E1195.34453
G1 X-24.902 Y27.386 E1195.50483
G1 X-21.97 Y24.882 E1195.66513
G1 X-19.786 Y21.702 E1195.82552
G1 X-18.499 Y18.067 E1195.98584
G1 X-18.198 Y14.223 E1196.14614
G1 X-18.902 Y10.431 E1196.30649
G1 X-20.563 Y6.951 E1196.46681
G1 X-22.795 Y4.339 E1196.60965
G0 F12000 X-22.664 Y4.207
G1 F1800 X-22.795 Y3.816 E1196.62679
G0 F12000 X-22.534 Y4.075
G1 F1800 X-21.285 Y5.317 E1196.70002
G1 X-18.593 Y4.586 E1196.816
G1 X-17.879 Y1.891 E1196.93191
G1 F6000 E1195.13191
G1 Z1
G0 F12000 X-17.633 Y1.645
G0 X-17.622 Y1.568
G0 X-17.408 Y1.764
G0 X-18.248 Y4.931
G0 X-21.41 Y5.789
G0 X-21.439 Y5.528
G0 X-20.184 Y6.704
G0 X-18.472 Y10.292
G0 X-17.747 Y14.199
G0 X-18.058 Y18.161
G0 X-19.384 Y21.907
G0 X-20.682 Y23.607
G0 X-20.777 Y24.288
G0 X-20.777 Y24.288
G0 X-20.912 Y24.61
G1 Z0.5
G1 F6000 E1196.93191
G1 F1800 X-20.912 Y24.61 E1196.93191
G1 X-23.139 Y26.289 E1197.04786
G1 X-22.797 Y29.057 E1197.16382
G1 X-20.231 Y30.146 E1197.27971
G1 X-18.004 Y28.467 E1197.39566
G1 X-18.344 Y25.699 E1197.51161
G1 X-20.912 Y24.61 E1197.62757
G1 F6000 E1195.82757
G1 Z1
G0 F12000 X-20.777 Y24.288
G0 X-20.93 Y24.163
G0 X-21.506 Y24.704
G0 X-20.972 Y24.126
G0 X-17.955 Y25.405
G0 X-17.555 Y28.657
G0 X-20.171 Y30.63
G0 X-23.187 Y29.351
G0 X-23.448 Y26.598
G0 X-24.656 Y27.765
G0 X-28.242 Y29.478
G0 X-32.149 Y30.203
G0 X-36.111 Y29.891
G0 X-39.858 Y28.566
G0 X-42.315 Y26.777
G0 X-42.973 Y29.655
G0 X-46.122 Y30.558
G0 X-48.479 Y28.28
G0 X-47.684 Y25.102
G0 X-44.535 Y24.199
G0 X-44.336 Y24.616
G0 X-45.715 Y23.294
G0 X-47.428 Y19.707
G0 X-48.153 Y15.8
G0 X-47.841 Y11.838
G0 X-46.516 Y8.092
G0 X-44.451 Y5.084
G0 X-44.374 Y5.148
G0 X-44.374 Y5.148
G0 X-43.703 Y4.887
G1 Z0.5
G1 F6000 E1197.62757
G1 F1800 X-43.703 Y4.887 E1197.62757
G1 X-42.554 Y2.346 E1197.74351
G1 X-44.179 Y0.08 E1197.85944
G1 X-46.954 Y0.355 E1197.97538
G1 X-48.103 Y2.896 E1198.09132
G1 X-46.478 Y5.162 E1198.20725
G1 X-43.703 Y4.887 E1198.32319
G0 F12000 X-44.374 Y5.148
G0 X-44.336 Y5.129
G0 X-44.693 Y5.309
G0 X-47 Y6.469
G0 X-47 Y6.469
; TYPE:FILL
G1 F2400 X-47 Y7.379 E1198.36102
G0 F12000 X-47.5 Y8.467
G1 F2400 X-47.5 Y5.881 E1198.46853
G0 F12000 X-48 Y5.184
G1 F2400 X-48 Y9.881 E1198.66381
G0 F12000 X-48.5 Y11.294
G1 F2400 X-48.5 Y4.487 E1198.94681
G0 F12000 X-49 Y3.789
G1 F2400 X-49 Y26.953 E1199.90986
G0 F12000 X-49 Y28.926
G0 X-49 Y28.926
G1 F2400 X-48.999 Y36.499 E1200.22471
G0 F12000 X-48.499 Y36.499
G1 F2400 X-48.5 Y29.409 E1200.51948
G0 F12000 X-47.999 Y29.892
G1 F2400 X-47.999 Y36.499 E1200.79417
G0 F12000 X-47.499 Y36.499
G1 F2400 X-47.499 Y30.375 E1201.04877
G0 F12000 X-46.999 Y30.858
G1 F2400 X-46.999 Y36.499 E1201.2833
G0 F12000 X-46.499 Y36.499
G1 F2400 X-46.499 Y31.341 E1201.49774
G0 F12000 X-45.999 Y31.382
G1 F2400 X-45.999 Y36.499 E1201.71048
G0 F12000 X-45.499 Y36.499
G1 F2400 X-45.499 Y31.239 E1201.92917
G0 F12000 X-44.999 Y31.096
G1 F2400 X-44.999 Y36.499 E1202.1538
G0 F12000 X-44.499 Y36.499
G1 F2400 X-44.499 Y30.953 E1202.38437
G0 F12000 X-43.999 Y30.81
G1 F2400 X-43.999 Y36.499 E1202.6209
G0 F12000 X-43.499 Y36.499
G1 F2400 X-43.499 Y30.666 E1202.8634
G0 F12000 X-42.999 Y30.523
G1 F2400 X-42.999 Y36.499 E1203.11186
G0 F12000 X-42.499 Y36.499
G1 F2400 X-42.499 Y30.38 E1203.36626
G0 F12000 X-42 Y29.174
G1 F2400 X-41.999 Y36.499 E1203.67079
G0 F12000 X-41.499 Y36.499
G1 F2400 X-41.5 Y28.41 E1204.00709
G0 F12000 X-41 Y28.754
G1 F2400 X-40.999 Y36.499 E1204.32909
G0 F12000 X-40.499 Y36.499
G1 F2400 X-40.5 Y29.097 E1204.63683
G0 F12000 X-40 Y29.366
G1 F2400 X-39.999 Y36.499 E1204.93339
G0 F12000 X-39.499 Y36.499
G1 F2400 X-39.5 Y29.542 E1205.22263
G0 F12000 X-38.999 Y29.719
G1 F2400 X-38.999 Y36.499 E1205.50451
G0 F12000 X-38.499 Y36.499
G1 F2400 X-38.499 Y29.896 E1205.77903
G0 F12000 X-37.999 Y30.073
G1 F2400 X-37.999 Y36.499 E1206.04619
G0 F12000 X-37.499 Y36.499
G1 F2400 X-37.499 Y30.25 E1206.30599
G0 F12000 X-36.999 Y30.427
G1 F2400 X-36.999 Y36.499 E1206.55844
G0 F12000 X-36.499 Y36.499
G1 F2400 X-36.499 Y30.603 E1206.80357
G0 F12000 X-35.999 Y30.704
G1 F2400 X-35.999 Y36.499 E1207.04449
G0 F12000 X-35.499 Y36.499
G1 F2400 X-35.499 Y30.743 E1207.2838
G0 F12000 X-34.999 Y30.783
G1 F2400 X-34.999 Y36.499 E1207.52144
G0 F12000 X-34.499 Y36.499
G1 F2400 X-34.499 Y30.822 E1207.75747
G0 F12000 X-33.999 Y30.861
G1 F2400 X-33.999 Y36.499 E1207.99187
G0 F12000 X-33.499 Y36.499
G1 F2400 X-33.499 Y30.901 E1208.2246
G0 F12000 X-32.999 Y30.94
G1 F2400 X-32.999 Y36.499 E1208.45572
G0 F12000 X-32.499 Y36.499
G1 F2400 X-32.499 Y30.979 E1208.68522
G0 F12000 X-31.999 Y30.99
G1 F2400 X-31.999 Y36.499 E1208.91425
G0 F12000 X-31.499 Y36.499
G1 F2400 X-31.499 Y30.897 E1209.14716
G0 F12000 X-30.999 Y30.804
G1 F2400 X-30.999 Y36.499 E1209.38393
G0 F12000 X-30.499 Y36.499
G1 F2400 X-30.499 Y30.711 E1209.62457
G0 F12000 X-29.999 Y30.619
G1 F2400 X-29.999 Y36.499 E1209.86903
G0 F12000 X-29.499 Y36.499
G1 F2400 X-29.499 Y30.526 E1210.11736
G0 F12000 X-28.999 Y30.433
G1 F2400 X-28.999 Y36.499 E1210.36955
G0 F12000 X-28.499 Y36.499
G1 F2400 X-28.499 Y30.34 E1210.62561
G0 F12000 X-27.999 Y30.247
G1 F2400 X-27.999 Y36.499 E1210.88554
G0 F12000 X-27.499 Y36.499
G1 F2400 X-27.499 Y30.011 E1211.15528
G0 F12000 X-26.999 Y29.773
G1 F2400 X-26.999 Y36.499 E1211.43491
G0 F12000 X-26.499 Y36.499
G1 F2400 X-26.499 Y29.534 E1211.72449
G0 F12000 X-25.999 Y29.295
G1 F2400 X-25.999 Y36.499 E1212.02399
G0 F12000 X-25.499 Y36.499
G1 F2400 X-25.499 Y29.057 E1212.3334
G0 F12000 X-24.999 Y28.818
G1 F2400 X-24.999 Y36.499 E1212.65273
G0 F12000 X-24.499 Y36.499
G1 F2400 X-24.499 Y28.58 E1212.98197
G0 F12000 X-23.999 Y29.517
G1 F2400 X-23.999 Y36.499 E1213.27225
G0 F12000 X-23.499 Y36.499
G1 F2400 X-23.499 Y30.116 E1213.53762
G0 F12000 X-22.999 Y30.328
G1 F2400 X-22.999 Y36.499 E1213.79418
G0 F12000 X-22.499 Y36.499
G1 F2400 X-22.499 Y30.54 E1214.04193
G0 F12000 X-21.999 Y30.752
G1 F2400 X-21.999 Y36.499 E1214.28086
G0 F12000 X-21.499 Y36.499
G1 F2400 X-21.499 Y30.964 E1214.51098
G0 F12000 X-20.999 Y31.177
G1 F2400 X-20.999 Y36.499 E1214.73224
G0 F12000 X-20.499 Y36.499
G1 F2400 X-20.499 Y31.389 E1214.94469
G0 F12000 X-19.999 Y31.535
G1 F2400 X-19.999 Y36.499 E1215.15107
G0 F12000 X-19.499 Y36.499
G1 F2400 X-19.499 Y31.158 E1215.37312
G0 F12000 X-18.999 Y30.781
G1 F2400 X-18.999 Y36.499 E1215.61085
G0 F12000 X-18.499 Y36.499
G1 F2400 X-18.499 Y30.404 E1215.86425
G0 F12000 X-17.999 Y30.026
G1 F2400 X-17.999 Y36.499 E1216.13337
G0 F12000 X-17.499 Y36.499
G1 F2400 X-17.499 Y29.649 E1216.41816
G0 F12000 X-16.999 Y29.272
G1 F2400 X-16.999 Y36.499 E1216.71862
G0 F12000 X-16.499 Y36.499
G1 F2400 X-16.5 Y1.561 E1218.17117
G0 F12000 X-16.5 Y1.499
G1 F2400 X-16.5 Y-36.5 E1219.75099
G0 F12000 X-17 Y-36.5
G1 F2400 X-17 Y1.002 E1221.31014
G0 F12000 X-17.5 Y0.505
G1 F2400 X-17.5 Y-36.5 E1222.84863
G0 F12000 X-18 Y-36.5
G1 F2400 X-18 Y-26.242 E1223.27511
G0 F12000 X-18.5 Y-27.5
G1 F2400 X-18.5 Y-36.5 E1223.64928
G0 F12000 X-19 Y-36.5
G1 F2400 X-19 Y-28.19 E1223.99477
G0 F12000 X-19.5 Y-28.765
G1 F2400 X-19.5 Y-36.5 E1224.31636
G0 F12000 X-20 Y-36.5
G1 F2400 X-20 Y-29.133 E1224.62264
G0 F12000 X-20.5 Y-29.491
G1 F2400 X-20.5 Y-36.5 E1224.91404
G0 F12000 X-21 Y-36.5
G1 F2400 X-21 Y-29.688 E1225.19725
G0 F12000 X-21.5 Y-29.885
G1 F2400 X-21.5 Y-36.5 E1225.47227
G0 F12000 X-22 Y-36.5
G1 F2400 X-22 Y-30.002 E1225.74243
G0 F12000 X-22.5 Y-30.058
G1 F2400 X-22.5 Y-36.5 E1226.01025
G0 F12000 X-23 Y-36.5
G1 F2400 X-23 Y-30.115 E1226.27571
G0 F12000 X-23.5 Y-30.051
G1 F2400 X-23.5 Y-36.5 E1226.54383
G0 F12000 X-24 Y-36.5
G1 F2400 X-24 Y-29.975 E1226.81511
G0 F12000 X-24.5 Y-29.862
G1 F2400 X-24.5 Y-36.5 E1227.09108
G0 F12000 X-25 Y-36.5
G1 F2400 X-25 Y-29.644 E1227.37612
G0 F12000 X-25.5 Y-29.426
G1 F2400 X-25.5 Y-36.5 E1227.67023
G0 F12000 X-26 Y-36.5
G1 F2400 X-26 Y-29.06 E1227.97955
G0 F12000 X-26.5 Y-28.662
G1 F2400 X-26.5 Y-36.5 E1228.30541
G0 F12000 X-27 Y-36.5
G1 F2400 X-27 Y-28.061 E1228.65626
G0 F12000 X-27.5 Y-27.299
G1 F2400 X-27.5 Y-36.5 E1229.0388
G0 F12000 X-28 Y-36.5
G1 F2400 X-28 Y-25.524 E1229.49513
G0 F12000 X-28 Y-24.437
G1 F2400 X-28 Y-11.533 E1230.03161
G0 F12000 X-28 Y-10.451
G1 F2400 X-28 Y-0.378 E1230.4504
G0 F12000 X-27.5 Y-0.378
G1 F2400 X-27.5 Y-8.72 E1230.79722
G0 F12000 X-27 Y-7.934
G1 F2400 X-27 Y-0.378 E1231.11136
G0 F12000 X-26.5 Y-0.378
G1 F2400 X-26.5 Y-7.318 E1231.39989
G0 F12000 X-26 Y-6.94
G1 F2400 X-26 Y-0.378 E1231.67271
G0 F12000 X-25.5 Y-0.378
G1 F2400 X-25.5 Y-6.563 E1231.92985
G0 F12000 X-25 Y-6.352
G1 F2400 X-25 Y-0.378 E1232.17822
G0 F12000 X-24.5 Y-0.378
G1 F2400 X-24.5 Y-6.148 E1232.41811
G0 F12000 X-24 Y-6.012
G1 F2400 X-24 Y-0.378 E1232.65234
G0 F12000 X-23.5 Y-0.383
G1 F2400 X-23.5 Y-5.95 E1232.88379
G0 F12000 X-23 Y-5.887
G1 F2400 X-23 Y-0.518 E1233.10701
G0 F12000 X-22.5 Y-0.653
G1 F2400 X-22.5 Y-5.935 E1233.32661
G0 F12000 X-22 Y-6.004
G1 F2400 X-22 Y-0.789 E1233.54343
G0 F12000 X-21.5 Y-0.924
G1 F2400 X-21.5 Y-6.098 E1233.75854
G0 F12000 X-21 Y-6.31
G1 F2400 X-21 Y-1.059 E1233.97685
G0 F12000 X-20.5 Y-1.195
G1 F2400 X-20.5 Y-6.521 E1234.19828
G0 F12000 X-20 Y-6.861
G1 F2400 X-20 Y-1.33 E1234.42823
G0 F12000 X-19.5 Y-1.465
G1 F2400 X-19.5 Y-7.25 E1234.66874
G0 F12000 X-19 Y-7.803
G1 F2400 X-19 Y-0.985 E1234.9522
G0 F12000 X-18.5 Y-0.488
G1 F2400 X-18.5 Y-8.463 E1235.28376
G0 F12000 X-18 Y-9.694
G1 F2400 X-18 Y0.008 E1235.68712
G0 F12000 X-17 Y3.45
G0 X-17 Y3.45
G1 F2400 X-17 Y13.828 E1236.11859
G0 F12000 X-16.999 Y14.935
G1 F2400 X-16.999 Y26.386 E1236.59467
G0 F12000 X-17.499 Y24.698
G0 X-17.499 Y24.698
G1 F2400 X-17.499 Y18.987 E1236.8321
G0 F12000 X-17.999 Y20.399
G1 F2400 X-17.999 Y24.486 E1237.00202
G0 F12000 X-18.499 Y24.275
G1 F2400 X-18.499 Y21.81 E1237.1045
G0 F12000 X-18.999 Y22.763
G1 F2400 X-18.999 Y24.063 E1237.15855
G0 F12000 X-19.499 Y23.851
G1 F2400 X-19.499 Y23.492 E1237.17348
G1 F6000 E1235.37348
G1 Z1
G0 F12000 X-18.979 Y20.279
G0 X-18.058 Y18.161
G0 X-17.864 Y13.389
G0 X-17.5 Y11.135
G0 X-17.5 Y11.135
G1 Z0.5
G1 F6000 E1237.17348
G1 F2400 X-17.5 Y5.339 E1237.41445
G0 F12000 X-18 Y5.72
G1 F2400 X-18 Y9.418 E1237.56819
G0 F12000 X-18.5 Y8.37
G1 F2400 X-18.5 Y5.856 E1237.67271
G0 F12000 X-19 Y5.991
G1 F2400 X-19 Y7.322 E1237.72805
G0 F12000 X-19.5 Y6.274
G1 F2400 X-19.5 Y6.127 E1237.73416
G1 F6000 E1235.93416
G1 Z1
G0 F12000 X-20.379 Y5.49
G0 X-18.248 Y4.931
G0 X-17.408 Y1.764
G0 X-19.732 Y-0.547
G0 X-22.895 Y0.311
G0 X-22.92 Y0.463
G0 X-27.278 Y0.504
G0 X-28.5 Y-0.378
G0 X-28.5 Y-0.378
G1 Z0.5
G1 F6000 E1237.73416
G1 F2400 X-28.5 Y-36.5 E1239.23594
G0 F12000 X-29 Y-36.5
G1 F2400 X-29 Y-0.463 E1240.73418
G0 F12000 X-29.5 Y-0.64
G1 F2400 X-29.5 Y-36.5 E1242.22507
G0 F12000 X-30 Y-36.499
G1 F2400 X-30 Y-0.713 E1243.71288
G0 F12000 X-30.5 Y-0.752
G1 F2400 X-30.5 Y-36.499 E1245.19907
G0 F12000 X-31 Y-36.499
G1 F2400 X-31 Y-0.791 E1246.68363
G0 F12000 X-31.5 Y-0.83
G1 F2400 X-31.5 Y-36.499 E1248.16658
G0 F12000 X-32 Y-36.499
G1 F2400 X-32 Y-0.87 E1249.64786
G0 F12000 X-32.5 Y-0.909
G1 F2400 X-32.5 Y-36.499 E1251.12752
G0 F12000 X-33 Y-36.499
G1 F2400 X-33 Y-0.948 E1252.60556
G0 F12000 X-33.5 Y-0.987
G1 F2400 X-33.5 Y-36.499 E1254.08197
G0 F12000 X-34 Y-36.499
G1 F2400 X-34 Y-0.971 E1255.55906
G0 F12000 X-34.5 Y-0.878
G1 F2400 X-34.5 Y-36.499 E1257.04001
G0 F12000 X-35 Y-36.499
G1 F2400 X-35 Y-0.786 E1258.52478
G0 F12000 X-35.5 Y-0.693
G1 F2400 X-35.5 Y-36.499 E1260.01342
G0 F12000 X-36 Y-36.499
G1 F2400 X-36 Y-0.6 E1261.50593
G0 F12000 X-36.5 Y-0.508
G1 F2400 X-36.5 Y-36.499 E1263.00226
G0 F12000 X-37 Y-36.499
G1 F2400 X-37 Y-0.415 E1264.50246
G0 F12000 X-37.5 Y-0.322
G1 F2400 X-37.5 Y-36.499 E1266.00652
G0 F12000 X-38 Y-36.499
G1 F2400 X-38 Y-26.271 E1266.43175
G0 F12000 X-38.5 Y-27.513
G1 F2400 X-38.5 Y-36.499 E1266.80535
G0 F12000 X-39 Y-36.499
G1 F2400 X-39 Y-28.203 E1267.15026
G0 F12000 X-39.5 Y-28.739
G1 F2400 X-39.5 Y-36.499 E1267.47288
G0 F12000 X-40 Y-36.499
G1 F2400 X-40 Y-29.145 E1267.77862
G0 F12000 X-40.5 Y-29.466
G1 F2400 X-40.5 Y-36.499 E1268.07102
G0 F12000 X-41 Y-36.499
G1 F2400 X-41 Y-29.69 E1268.35411
G0 F12000 X-41.5 Y-29.909
G1 F2400 X-41.5 Y-36.499 E1268.62809
G0 F12000 X-42 Y-36.499
G1 F2400 X-42 Y-29.989 E1268.89874
G0 F12000 X-42.5 Y-30.069
G1 F2400 X-42.5 Y-36.499 E1269.16607
G0 F12000 X-43 Y-36.499
G1 F2400 X-43 Y-30.098 E1269.43219
G0 F12000 X-43.5 Y-30.046
G1 F2400 X-43.5 Y-36.499 E1269.70048
G0 F12000 X-44 Y-36.499
G1 F2400 X-44 Y-29.994 E1269.97092
G0 F12000 X-44.5 Y-29.841
G1 F2400 X-44.5 Y-36.499 E1270.24773
G0 F12000 X-45 Y-36.499
G1 F2400 X-45 Y-29.65 E1270.53248
G0 F12000 X-45.5 Y-29.42
G1 F2400 X-45.5 Y-36.499 E1270.82679
G0 F12000 X-46 Y-36.499
G1 F2400 X-46 Y-29.058 E1271.13615
G0 F12000 X-46.5 Y-28.681
G1 F2400 X-46.5 Y-36.499 E1271.46118
G0 F12000 X-47 Y-36.499
G1 F2400 X-47 Y-28.067 E1271.81175
G0 F12000 X-47.5 Y-27.263
G1 F2400 X-47.5 Y-36.499 E1272.19573
G0 F12000 X-48 Y-36.499
G1 F2400 X-48 Y-25.572 E1272.65003
G0 F12000 X-48 Y-24.477
G1 F2400 X-48 Y-11.649 E1273.18335
G0 F12000 X-48 Y-10.396
G1 F2400 X-48 Y-0.367 E1273.60031
G0 F12000 X-47.5 Y-0.845
G1 F2400 X-47.5 Y-8.675 E1273.92584
G0 F12000 X-47 Y-7.917
G1 F2400 X-47 Y-0.895 E1274.21778
G0 F12000 X-46.5 Y-0.945
G1 F2400 X-46.5 Y-7.36 E1274.48449
G0 F12000 X-46 Y-6.915
G1 F2400 X-46 Y-0.994 E1274.73066
G0 F12000 X-45.5 Y-1.044
G1 F2400 X-45.5 Y-6.596 E1274.96148
G0 F12000 X-45 Y-6.346
G1 F2400 X-45 Y-1.094 E1275.17983
G0 F12000 X-44.5 Y-1.143
G1 F2400 X-44.5 Y-6.132 E1275.38725
G0 F12000 X-44 Y-6.03
G1 F2400 X-44 Y-1.193 E1275.58835
G0 F12000 X-43.5 Y-1.117
G1 F2400 X-43.5 Y-5.927 E1275.78833
G0 F12000 X-43 Y-5.909
G1 F2400 X-43 Y-0.42 E1276.01653
G0 F12000 X-42.5 Y0.276
G1 F2400 X-42.5 Y-5.939 E1276.27492
G0 F12000 X-42 Y-5.969
G1 F2400 X-42 Y0.973 E1276.56354
G0 F12000 X-41.5 Y1.466
G1 F2400 X-41.5 Y-6.129 E1276.8793
G0 F12000 X-41 Y-6.296
G1 F2400 X-41 Y1.227 E1277.19207
G0 F12000 X-40.5 Y0.989
G1 F2400 X-40.5 Y-6.532 E1277.50476
G0 F12000 X-40 Y-6.862
G1 F2400 X-40 Y0.75 E1277.82123
G0 F12000 X-39.5 Y0.512
G1 F2400 X-39.5 Y-7.237 E1278.1434
G0 F12000 X-39 Y-7.799
G1 F2400 X-39 Y0.273 E1278.47899
G0 F12000 X-38.5 Y0.035
G1 F2400 X-38.5 Y-8.545 E1278.83571
G0 F12000 X-38 Y-9.862
G1 F2400 X-38 Y-0.203 E1279.23728
G1 F6000 E1277.43728
G1 Z1
G0 F12000 X-43.506 Y0.291
G0 X-43.978 Y-0.365
G0 X-47.239 Y-0.041
G0 X-47.554 Y0.654
G0 X-48.5 Y0.739
G0 X-48.5 Y0.739
G1 Z0.5
G1 F6000 E1279.23728
G1 F2400 X-48.5 Y-36.499 E1280.78546
G0 F12000 X-49 Y-36.499
G1 F2400 X-49 Y1.845 E1282.37961
G0 F12000 X-49.5 Y2.952
G1 F2400 X-49.5 Y-36.499 E1284.0198
G0 F12000 X-50 Y-36.499
G1 F2400 X-49.999 Y36.499 E1287.0547
G0 F12000 X-49.499 Y36.499
G1 F2400 X-49.5 Y3.092 E1288.4436
G0 F12000 X-48.5 Y18.323
G0 X-48.5 Y18.323
G1 F2400 X-48.5 Y24.952 E1288.7192
G0 F12000 X-48 Y24.33
G1 F2400 X-48 Y20.369 E1288.88388
G0 F12000 X-47.5 Y21.417
G1 F2400 X-47.5 Y24.187 E1288.99905
G0 F12000 X-47 Y24.044
G1 F2400 X-47 Y22.465 E1289.06469
G0 F12000 X-46.5 Y23.512
G1 F2400 X-46.5 Y23.901 E1289.08087
G1 F6000 E1287.28087
G1 Z1
G0 F12000 X-46.802 Y24.854
G0 X-47.684 Y25.102
G0 X-48.479 Y28.28
G0 X-48.029 Y28.721
G0 X-50.499 Y36.499
G0 X-50.499 Y36.499
G1 Z0.5
G1 F6000 E1289.08087
G1 F2400 X-50.5 Y-36.499 E1292.11577
G0 F12000 X-51 Y-36.499
G1 F2400 X-50.999 Y36.499 E1295.15067
G0 F12000 X-51.499 Y36.499
G1 F2400 X-51.5 Y-36.499 E1298.18558
G0 F12000 X-52 Y-36.499
G1 F2400 X-51.999 Y36.499 E1301.22048
G0 F12000 X-52.499 Y36.499
G1 F2400 X-52.5 Y-36.499 E1304.25539
G0 F12000 X-53 Y-36.499
G1 F2400 X-52.999 Y36.499 E1307.29029
G0 F12000 X-53.499 Y36.499
G1 F2400 X-53.5 Y-36.499 E1310.3252
G0 F12000 X-54 Y-36.499
G1 F2400 X-53.999 Y36.499 E1313.3601
G0 F12000 X-54.499 Y36.499
G1 F2400 X-54.5 Y-36.499 E1316.395
G0 F12000 X-55 Y-36.499
G1 F2400 X-54.999 Y36.499 E1319.42991
G0 F12000 X-55.499 Y36.499
G1 F2400 X-55.5 Y-36.499 E1322.46481
G0 F12000 X-56 Y-36.499
G1 F2400 X-55.999 Y36.499 E1325.49972
G0 F12000 X-15.999 Y36.499
G1 F2400 X-16 Y-36.5 E1328.53466
G0 F12000 X-15.5 Y-36.5
G1 F2400 X-15.499 Y36.499 E1331.56961
G0 F12000 X-14.999 Y36.499
G1 F2400 X-15 Y-36.5 E1334.60455
G0 F12000 X-14.5 Y-36.5
G1 F2400 X-14.499 Y36.499 E1337.6395
G0 F12000 X-13.999 Y36.499
G1 F2400 X-14 Y-36.5 E1340.67444
G0 F12000 X-13.5 Y-36.5
G1 F2400 X-13.499 Y36.499 E1343.70939
G0 F12000 X-12.999 Y36.499
G1 F2400 X-13 Y-36.5 E1346.74434
G0 F12000 X-12.5 Y-36.5
G1 F2400 X-12.499 Y36.499 E1349.77928
G0 F12000 X-11.999 Y36.499
G1 F2400 X-12 Y-36.5 E1352.81423
G0 F12000 X-11.5 Y-36.5
G1 F2400 X-11.499 Y36.499 E1355.84917
G0 F12000 X-10.999 Y36.499
G1 F2400 X-11 Y-36.5 E1358.88412
G0 F12000 X-10.5 Y-36.5
G1 F2400 X-10.499 Y36.499 E1361.91907
G0 F12000 X-9.999 Y36.499
G1 F2400 X-10 Y-36.5 E1364.95401
G0 F12000 X-9.5 Y-36.5
G1 F2400 X-9.499 Y36.499 E1367.98896
G0 F12000 X-8.999 Y36.499
G1 F2400 X-9 Y-36.5 E1371.0239
G0 F12000 X-8.5 Y-36.5
G1 F2400 X-8.499 Y36.499 E1374.05885
G0 F12000 X-7.999 Y36.499
G1 F2400 X-8 Y-36.5 E1377.09379
G0 F12000 X-7.5 Y-36.5
G1 F2400 X-7.499 Y36.499 E1380.12874
G0 F12000 X-6.999 Y36.499
G1 F2400 X-7 Y-36.5 E1383.16369
G0 F12000 X-6.5 Y-36.5
G1 F2400 X-6.499 Y36.499 E1386.19863
G0 F12000 X-5.999 Y36.499
G1 F2400 X-6 Y-36.5 E1389.23358
G0 F12000 X-5.5 Y-36.5
G1 F2400 X-5.499 Y36.499 E1392.26852
G0 F12000 X-4.999 Y36.499
G1 F2400 X-5 Y-36.5 E1395.30347
G0 F12000 X-4.5 Y-36.5
G1 F2400 X-4.499 Y36.499 E1398.33841
G0 F12000 X-3.999 Y36.499
G1 F2400 X-4 Y-36.5 E1401.37336
G0 F12000 X-3.5 Y-36.5
G1 F2400 X-3.499 Y36.499 E1404.40831
G0 F12000 X-2.999 Y36.499
G1 F2400 X-3 Y-36.5 E1407.44325
G0 F12000 X-2.5 Y-36.5
G1 F2400 X-2.499 Y36.499 E1410.4782
G0 F12000 X-1.999 Y36.499
G1 F2400 X-2 Y-36.5 E1413.51314
G0 F12000 X-1.5 Y-36.5
G1 F2400 X-1.499 Y36.499 E1416.54809
G0 F12000 X-0.999 Y36.499
G1 F2400 X-1 Y-36.5 E1419.58303
G0 F12000 X-0.5 Y-36.5
G1 F2400 X-0.499 Y36.499 E1422.61798
G0 F12000 X0 Y36.5
G1 F2400 X0 Y-36.5 E1425.65297
G0 F12000 X0.499 Y-36.499
G1 F2400 X0.5 Y36.5 E1428.68791
G0 F12000 X1 Y36.5
G1 F2400 X0.999 Y-36.499 E1431.72286
G0 F12000 X1.499 Y-36.499
G1 F2400 X1.5 Y36.5 E1434.7578
G0 F12000 X2 Y36.5
G1 F2400 X1.999 Y-36.499 E1437.79275
G0 F12000 X2.499 Y-36.499
G1 F2400 X2.5 Y36.5 E1440.8277
G0 F12000 X3 Y36.5
G1 F2400 X2.999 Y-36.499 E1443.86264
G0 F12000 X3.499 Y-36.499
G1 F2400 X3.5 Y36.5 E1446.89759
G0 F12000 X4 Y36.5
G1 F2400 X3.999 Y-36.499 E1449.93253
G0 F12000 X4.499 Y-36.499
G1 F2400 X4.5 Y36.5 E1452.96748
G0 F12000 X5 Y36.5
G1 F2400 X4.999 Y-36.499 E1456.00242
G0 F12000 X5.499 Y-36.499
G1 F2400 X5.5 Y36.5 E1459.03737
G0 F12000 X6 Y36.5
G1 F2400 X5.999 Y-36.499 E1462.07232
G0 F12000 X6.499 Y-36.499
G1 F2400 X6.5 Y36.5 E1465.10726
G0 F12000 X7 Y36.5
G1 F2400 X6.999 Y-36.499 E1468.14221
G0 F12000 X7.499 Y-36.499
G1 F2400 X7.5 Y36.5 E1471.17715
G0 F12000 X8 Y36.5
G1 F2400 X7.999 Y-36.499 E1474.2121
G0 F12000 X8.499 Y-36.499
G1 F2400 X8.5 Y36.5 E1477.24705
G0 F12000 X9 Y36.5
G1 F2400 X8.999 Y-36.499 E1480.28199
G0 F12000 X9.499 Y-36.499
G1 F2400 X9.5 Y36.5 E1483.31694
