; Generated with MatterSlice 1.0
; filamentDiameter = 1.75
; extrusionWidth = 0.5
; firstLayerExtrusionWidth = 0.4
; layerThickness = 0.3
; firstLayerThickness = 0.3
; automatic settings before start_gcode
G21 ; set units to millimeters
M107 ; fan off
T0 ; set the active extruder to 0
; settings from start_gcode
M104 S210
M190 S60
M109 S210
G28
; automatic settings after start_gcode
T0 ; set the active extruder to 0
G90 ; use absolute coordinates
G92 E0 ; reset the expected extruder position
M82 ; use absolute distance for extrusion
; Layer count: 83
; LAYER:0
M107
G0 F6000 X16.101 Y-19.265 Z0.3
; TYPE:SKIRT
G1 Z0.3
G1 F6600 E0
G1 F720 X16.094 Y17.496 E1.83396
G1 X12.136 Y19.491 E2.0551
G1 X9.723 Y17.708 E2.20478
G1 X9.182 Y17.351 E2.23712
G1 X8.642 Y17.034 E2.26836
G1 X8.068 Y16.734 E2.30067
G1 X7.486 Y16.466 E2.33264
G1 X6.895 Y16.229 E2.3644
G1 X6.274 Y16.018 E2.39712
G1 X5.676 Y15.848 E2.42814
G1 X5.05 Y15.702 E2.46021
G1 X4.407 Y15.587 E2.4928
G1 X3.787 Y15.508 E2.52398
G1 X3.14 Y15.459 E2.55635
G1 X1.563 Y15.417 E2.63506
G1 X0.628 Y15.34 E2.68186
G1 X-0.299 Y15.214 E2.72854
G1 X-1.218 Y15.039 E2.77526
G1 X-2.128 Y14.813 E2.82209
G1 X-3.026 Y14.539 E2.86897
G1 X-3.905 Y14.216 E2.91574
G1 X-4.766 Y13.847 E2.96252
G1 X-5.605 Y13.431 E3.00929
G1 X-6.421 Y12.973 E3.05601
G1 X-7.213 Y12.468 E3.10292
G1 X-7.974 Y11.924 E3.14963
G1 X-8.706 Y11.338 E3.19645
G1 X-9.406 Y10.712 E3.24334
G1 X-10.072 Y10.049 E3.29026
G1 X-10.697 Y9.354 E3.33692
G1 X-11.284 Y8.629 E3.38349
G1 X-11.834 Y7.869 E3.43033
G1 X-12.344 Y7.077 E3.47735
G1 X-12.804 Y6.265 E3.52393
G1 X-13.225 Y5.428 E3.5707
G1 X-13.599 Y4.565 E3.61764
G1 X-13.923 Y3.691 E3.66416
G1 X-14.203 Y2.794 E3.71106
G1 X-14.432 Y1.883 E3.75794
G1 X-14.612 Y0.965 E3.80462
G1 X-14.742 Y0.045 E3.85098
G1 X-14.794 Y-0.545 E3.88053
G1 X-14.845 Y-1.467 E3.92665
G1 X-14.84 Y-2.482 E3.97734
G1 X-14.784 Y-3.423 E4.02442
G1 X-14.676 Y-4.36 E4.07152
G1 X-14.518 Y-5.287 E4.11848
G1 X-14.31 Y-6.207 E4.16557
G1 X-14.05 Y-7.114 E4.21268
G1 X-13.745 Y-8.004 E4.25965
G1 X-13.389 Y-8.878 E4.30676
G1 X-12.987 Y-9.732 E4.35387
G1 X-12.54 Y-10.559 E4.40079
G1 X-12.052 Y-11.359 E4.44756
G1 X-11.517 Y-12.139 E4.49476
G1 X-10.938 Y-12.886 E4.54192
G1 X-10.324 Y-13.599 E4.58887
G1 X-9.67 Y-14.278 E4.63591
G1 X-8.982 Y-14.92 E4.68285
G1 X-8.258 Y-15.525 E4.72992
G1 X-7.502 Y-16.088 E4.77693
G1 X-6.719 Y-16.611 E4.8239
G1 X-5.905 Y-17.09 E4.871
G1 X-5.071 Y-17.523 E4.91786
G1 X-4.214 Y-17.911 E4.96477
G1 X-3.331 Y-18.253 E5.01198
G1 X-2.436 Y-18.545 E5.05892
G1 X-1.529 Y-18.788 E5.10573
G1 X-0.607 Y-18.983 E5.15271
G1 X0.333 Y-19.127 E5.20011
G1 X1.534 Y-19.241 E5.2603
G1 X2.452 Y-19.266 E5.30612
G1 X16.101 Y-19.265 E5.98707
G0 F6000 X15.701 Y-18.865
G1 F720 X15.694 Y17.249 E7.78876
G1 X12.176 Y19.023 E7.98532
G1 X9.959 Y17.384 E8.12287
G1 X9.388 Y17.008 E8.15698
G1 X8.836 Y16.683 E8.18894
G1 X8.242 Y16.373 E8.22237
G1 X7.656 Y16.104 E8.25454
G1 X7.024 Y15.85 E8.28852
G1 X6.411 Y15.642 E8.32081
G1 X5.761 Y15.456 E8.35454
G1 X5.132 Y15.31 E8.38676
G1 X4.468 Y15.191 E8.42041
G1 X3.828 Y15.109 E8.4526
G1 X3.161 Y15.059 E8.48597
G1 X1.585 Y15.018 E8.56463
G1 X0.671 Y14.942 E8.61039
G1 X-0.235 Y14.819 E8.656
G1 X-1.132 Y14.648 E8.70161
G1 X-2.021 Y14.427 E8.74736
G1 X-2.898 Y14.159 E8.79316
G1 X-3.757 Y13.844 E8.83885
G1 X-4.598 Y13.484 E8.88454
G1 X-5.418 Y13.078 E8.93023
G1 X-6.216 Y12.629 E8.97596
G1 X-6.989 Y12.137 E9.02171
G1 X-7.733 Y11.605 E9.06738
G1 X-8.448 Y11.032 E9.11314
G1 X-9.132 Y10.421 E9.15893
G1 X-9.782 Y9.774 E9.20472
G1 X-10.392 Y9.095 E9.25029
G1 X-10.966 Y8.385 E9.29587
G1 X-11.504 Y7.643 E9.34163
G1 X-12.001 Y6.869 E9.38755
G1 X-12.451 Y6.077 E9.43302
G1 X-12.862 Y5.258 E9.47875
G1 X-13.227 Y4.416 E9.52456
G1 X-13.544 Y3.562 E9.57002
G1 X-13.818 Y2.685 E9.61588
G1 X-14.042 Y1.796 E9.66163
G1 X-14.218 Y0.899 E9.70724
G1 X-14.344 Y-0.001 E9.75259
G1 X-14.395 Y-0.573 E9.78129
G1 X-14.445 Y-1.477 E9.82652
G1 X-14.441 Y-2.468 E9.87601
G1 X-14.385 Y-3.388 E9.92204
G1 X-14.28 Y-4.303 E9.96803
G1 X-14.125 Y-5.209 E10.01393
G1 X-13.923 Y-6.108 E10.05994
G1 X-13.669 Y-6.994 E10.10595
G1 X-13.371 Y-7.864 E10.15186
G1 X-13.023 Y-8.718 E10.1979
G1 X-12.63 Y-9.552 E10.24392
G1 X-12.193 Y-10.359 E10.28973
G1 X-11.716 Y-11.141 E10.33544
G1 X-11.193 Y-11.904 E10.38161
G1 X-10.628 Y-12.633 E10.42763
G1 X-10.028 Y-13.329 E10.47348
G1 X-9.389 Y-13.993 E10.51946
G1 X-8.717 Y-14.62 E10.56531
G1 X-8.01 Y-15.211 E10.61127
G1 X-7.272 Y-15.761 E10.65718
G1 X-6.506 Y-16.272 E10.70311
G1 X-5.712 Y-16.74 E10.74907
G1 X-4.896 Y-17.163 E10.79491
G1 X-4.059 Y-17.542 E10.84072
G1 X-3.197 Y-17.876 E10.88681
G1 X-2.322 Y-18.162 E10.93271
G1 X-1.435 Y-18.399 E10.97848
G1 X-0.536 Y-18.589 E11.02428
G1 X0.382 Y-18.73 E11.07058
G1 X1.558 Y-18.842 E11.12952
G1 X2.457 Y-18.866 E11.17439
G1 X15.701 Y-18.865 E11.83513
G0 F6000 X12.3 Y-15.465
; TYPE:WALL-OUTER
G1 F720 X12.294 Y14.882 E13.3491
G1 X11.896 Y14.588 E13.37379
G1 X11.199 Y14.129 E13.41542
G1 X10.481 Y13.707 E13.45697
G1 X9.743 Y13.321 E13.49852
G1 X8.986 Y12.973 E13.54009
G1 X8.212 Y12.663 E13.58169
G1 X7.423 Y12.395 E13.62326
G1 X6.622 Y12.166 E13.66482
G1 X5.81 Y11.977 E13.70642
G1 X4.99 Y11.83 E13.74798
G1 X4.164 Y11.725 E13.78952
G1 X3.333 Y11.662 E13.8311
G1 X1.763 Y11.621 E13.90945
G1 X1.043 Y11.562 E13.94549
G1 X0.31 Y11.462 E13.9824
G1 X-0.4 Y11.327 E14.01846
G1 X-1.12 Y11.148 E14.05552
G1 X-1.809 Y10.937 E14.09152
G1 X-2.501 Y10.683 E14.12834
G1 X-3.178 Y10.393 E14.16513
G1 X-3.834 Y10.068 E14.2017
G1 X-4.463 Y9.714 E14.23775
G1 X-5.084 Y9.319 E14.27451
G1 X-5.685 Y8.889 E14.31142
G1 X-6.256 Y8.432 E14.34795
G1 X-6.794 Y7.951 E14.38399
G1 X-7.312 Y7.435 E14.4205
G1 X-7.808 Y6.883 E14.45756
G1 X-8.27 Y6.313 E14.4942
G1 X-8.698 Y5.721 E14.53067
G1 X-9.088 Y5.114 E14.56669
G1 X-9.454 Y4.469 E14.60372
G1 X-9.783 Y3.813 E14.64035
G1 X-10.073 Y3.143 E14.6768
G1 X-10.324 Y2.467 E14.71279
G1 X-10.546 Y1.757 E14.74992
G1 X-10.724 Y1.048 E14.7864
G1 X-10.863 Y0.34 E14.82241
G1 X-10.966 Y-0.393 E14.85934
G1 X-11.045 Y-1.569 E14.9182
G1 X-11.041 Y-2.352 E14.95731
G1 X-10.997 Y-3.086 E14.99404
G1 X-10.912 Y-3.828 E15.03135
G1 X-10.79 Y-4.543 E15.06758
G1 X-10.626 Y-5.271 E15.10484
G1 X-10.426 Y-5.969 E15.1411
G1 X-10.184 Y-6.675 E15.17837
G1 X-9.91 Y-7.347 E15.2146
G1 X-9.597 Y-8.013 E15.25134
G1 X-9.247 Y-8.66 E15.28806
G1 X-8.858 Y-9.298 E15.32536
G1 X-8.442 Y-9.904 E15.36204
G1 X-7.999 Y-10.476 E15.39814
G1 X-7.518 Y-11.034 E15.4349
G1 X-7 Y-11.572 E15.47216
G1 X-6.47 Y-12.067 E15.50834
G1 X-5.905 Y-12.539 E15.54507
G1 X-5.306 Y-12.986 E15.58234
G1 X-4.703 Y-13.388 E15.61849
G1 X-4.07 Y-13.761 E15.65512
G1 X-3.406 Y-14.105 E15.69241
G1 X-2.736 Y-14.409 E15.72909
G1 X-2.06 Y-14.671 E15.76524
G1 X-1.355 Y-14.901 E15.8022
G1 X-0.649 Y-15.09 E15.83863
G1 X0.074 Y-15.243 E15.87546
G1 X0.806 Y-15.355 E15.91241
G1 X1.763 Y-15.446 E15.96038
G1 X2.505 Y-15.466 E15.99741
G1 X12.3 Y-15.465 E16.48608
G0 F6000 X11.9 Y-15.065
; TYPE:WALL-INNER
G1 F720 X11.894 Y14.108 E17.94148
G1 X11.41 Y13.79 E17.97037
G1 X10.675 Y13.357 E18.01293
G1 X9.919 Y12.962 E18.05549
G1 X9.144 Y12.606 E18.09804
G1 X8.351 Y12.288 E18.14066
G1 X7.542 Y12.013 E18.18329
G1 X6.723 Y11.779 E18.22579
G1 X5.891 Y11.585 E18.26841
G1 X5.051 Y11.435 E18.31098
G1 X4.205 Y11.327 E18.35353
G1 X3.353 Y11.263 E18.39616
G1 X1.787 Y11.221 E18.47431
G1 X1.092 Y11.164 E18.5091
G1 X0.364 Y11.065 E18.54576
G1 X-0.321 Y10.934 E18.58055
G1 X-0.998 Y10.766 E18.6154
G1 X-1.691 Y10.555 E18.65159
G1 X-2.345 Y10.315 E18.68639
G1 X-3.008 Y10.03 E18.72244
G1 X-3.646 Y9.714 E18.758
G1 X-4.266 Y9.366 E18.79352
G1 X-4.858 Y8.989 E18.82858
G1 X-5.431 Y8.579 E18.86377
G1 X-6.006 Y8.119 E18.90055
G1 X-6.526 Y7.654 E18.93539
G1 X-7.024 Y7.158 E18.97049
G1 X-7.497 Y6.631 E19.00585
G1 X-7.948 Y6.075 E19.0416
G1 X-8.359 Y5.506 E19.07665
G1 X-8.752 Y4.895 E19.11292
G1 X-9.106 Y4.272 E19.14869
G1 X-9.415 Y3.657 E19.18305
G1 X-9.706 Y2.984 E19.21965
G1 X-9.943 Y2.346 E19.25362
G1 X-10.16 Y1.649 E19.29006
G1 X-10.332 Y0.968 E19.32511
G1 X-10.47 Y0.262 E19.36101
G1 X-10.566 Y-0.422 E19.39548
G1 X-10.645 Y-1.572 E19.45304
G1 X-10.641 Y-2.343 E19.49155
G1 X-10.598 Y-3.061 E19.52749
G1 X-10.516 Y-3.772 E19.56324
G1 X-10.397 Y-4.468 E19.59851
G1 X-10.241 Y-5.159 E19.63389
G1 X-10.047 Y-5.839 E19.6692
G1 X-9.808 Y-6.535 E19.70594
G1 X-9.539 Y-7.196 E19.74158
G1 X-9.245 Y-7.822 E19.7761
G1 X-8.89 Y-8.478 E19.81334
G1 X-8.529 Y-9.07 E19.84795
G1 X-8.117 Y-9.67 E19.88427
G1 X-7.69 Y-10.222 E19.9191
G1 X-7.217 Y-10.77 E19.95522
G1 X-6.727 Y-11.28 E19.9905
G1 X-6.199 Y-11.772 E20.02651
G1 X-5.658 Y-12.224 E20.06167
G1 X-5.075 Y-12.659 E20.09795
G1 X-4.491 Y-13.048 E20.13295
G1 X-3.871 Y-13.414 E20.16885
G1 X-3.227 Y-13.748 E20.20502
G1 X-2.586 Y-14.038 E20.2401
G1 X-1.919 Y-14.296 E20.27575
G1 X-1.256 Y-14.513 E20.31052
G1 X-0.543 Y-14.704 E20.34731
G1 X0.146 Y-14.85 E20.38241
G1 X0.854 Y-14.958 E20.41815
G1 X1.782 Y-15.046 E20.46466
G1 X2.516 Y-15.066 E20.50129
G1 X11.9 Y-15.065 E20.96946
G0 F6000 X11.76 Y-14.8
; TYPE:FILL
G1 F720 X0.745 Y-14.8 E21.519
G0 F6000 X-1.136 Y-14.4
G0 X-1.136 Y-14.4
G1 F720 X11.76 Y-14.4 E22.16234
G0 F6000 X11.76 Y-14
G1 F720 X-2.293 Y-14 E22.86344
G0 F6000 X-3.206 Y-13.6
G1 F720 X11.76 Y-13.6 E23.61005
G0 F6000 X11.76 Y-13.2
G1 F720 X-3.958 Y-13.2 E24.39422
G0 F6000 X-4.611 Y-12.8
G1 F720 X11.76 Y-12.8 E25.21093
G0 F6000 X11.759 Y-12.4
G1 F720 X-5.187 Y-12.4 E26.05637
G0 F6000 X-5.707 Y-12
G1 F720 X11.759 Y-12 E26.9277
G0 F6000 X11.759 Y-11.6
G1 F720 X-6.179 Y-11.6 E27.82263
G0 F6000 X-6.607 Y-11.2
G1 F720 X11.759 Y-11.2 E28.73886
G0 F6000 X11.759 Y-10.8
G1 F720 X-6.992 Y-10.8 E29.67435
G0 F6000 X-7.35 Y-10.4
G1 F720 X11.759 Y-10.4 E30.62766
G0 F6000 X11.759 Y-10
G1 F720 X-7.684 Y-10 E31.59767
G0 F6000 X-7.993 Y-9.6
G1 F720 X11.759 Y-9.6 E32.58305
G0 F6000 X11.759 Y-9.2
G1 F720 X-8.269 Y-9.2 E33.58225
G0 F6000 X-8.529 Y-8.8
G1 F720 X11.759 Y-8.8 E34.59438
G0 F6000 X11.759 Y-8.4
G1 F720 X-8.773 Y-8.4 E35.61872
G0 F6000 X-8.99 Y-7.999
G1 F720 X11.759 Y-8 E36.65384
G0 F6000 X11.758 Y-7.6
G1 F720 X-9.195 Y-7.599 E37.69919
G0 F6000 X-9.383 Y-7.199
G1 F720 X11.758 Y-7.2 E38.75387
G0 F6000 X11.758 Y-6.8
G1 F720 X-9.549 Y-6.799 E39.81688
G0 F6000 X-9.706 Y-6.399
G1 F720 X11.758 Y-6.4 E40.88768
G0 F6000 X11.758 Y-6
G1 F720 X-9.844 Y-5.999 E41.9654
G0 F6000 X-9.97 Y-5.599
G1 F720 X11.758 Y-5.6 E43.04937
G0 F6000 X11.758 Y-5.2
G1 F720 X-10.084 Y-5.199 E44.13907
G0 F6000 X-10.179 Y-4.799
G1 F720 X11.758 Y-4.8 E45.23346
G0 F6000 X11.758 Y-4.4
G1 F720 X-10.267 Y-4.399 E46.33229
G0 F6000 X-10.335 Y-3.999
G1 F720 X11.758 Y-4 E47.43447
G0 F6000 X11.758 Y-3.6
G1 F720 X-10.394 Y-3.599 E48.53964
G0 F6000 X-10.441 Y-3.199
G1 F720 X11.758 Y-3.2 E49.6471
G0 F6000 X11.757 Y-2.8
G1 F720 X-10.473 Y-2.799 E50.75616
G0 F6000 X-10.497 Y-2.399
G1 F720 X11.757 Y-2.4 E51.86636
G0 F6000 X11.757 Y-2
G1 F720 X-10.503 Y-1.999 E52.97692
G0 F6000 X-10.505 Y-1.599
G1 F720 X11.757 Y-1.6 E54.08753
G0 F6000 X11.757 Y-1.2
G1 F720 X-10.479 Y-1.199 E55.19688
G0 F6000 X-10.451 Y-0.799
G1 F720 X11.757 Y-0.8 E56.3048
G0 F6000 X11.757 Y-0.4
G1 F720 X-10.422 Y-0.399 E57.41131
G0 F6000 X-10.365 Y0
G1 F720 X11.757 Y0 E58.51493
G0 F6000 X11.757 Y0.399
G1 F720 X-10.3 Y0.4 E59.61536
G0 F6000 X-10.223 Y0.8
G1 F720 X11.757 Y0.799 E60.7119
G0 F6000 X11.757 Y1.199
G1 F720 X-10.129 Y1.2 E61.80379
G0 F6000 X-10.028 Y1.6
G1 F720 X11.757 Y1.599 E62.8906
G0 F6000 X11.756 Y1.999
G1 F720 X-9.904 Y2 E63.97122
G0 F6000 X-9.773 Y2.4
G1 F720 X11.756 Y2.399 E65.04526
G0 F6000 X11.756 Y2.799
G1 F720 X-9.625 Y2.8 E66.11196
G0 F6000 X-9.459 Y3.2
G1 F720 X11.756 Y3.199 E67.17033
G0 F6000 X11.756 Y3.599
G1 F720 X-9.285 Y3.6 E68.22007
G0 F6000 X-9.085 Y4
G1 F720 X11.756 Y3.999 E69.25979
G0 F6000 X11.756 Y4.399
G1 F720 X-8.871 Y4.4 E70.28887
G0 F6000 X-8.644 Y4.8
G1 F720 X11.756 Y4.799 E71.30658
G0 F6000 X11.756 Y5.199
G1 F720 X-8.389 Y5.2 E72.31162
G0 F6000 X-8.118 Y5.6
G1 F720 X11.756 Y5.599 E73.30309
G0 F6000 X11.756 Y5.999
G1 F720 X-7.828 Y6 E74.28014
G0 F6000 X-7.504 Y6.4
G1 F720 X11.756 Y6.399 E75.24097
G0 F6000 X11.755 Y6.799
G1 F720 X-7.157 Y6.8 E76.1845
G0 F6000 X-6.783 Y7.2
G1 F720 X11.755 Y7.199 E77.10931
G0 F6000 X11.755 Y7.599
G1 F720 X-6.376 Y7.6 E78.01387
G0 F6000 X-5.929 Y8
G1 F720 X11.755 Y7.999 E78.89608
G0 F6000 X11.755 Y8.4
G1 F720 X-5.43 Y8.4 E79.75344
G0 F6000 X-4.881 Y8.8
G1 F720 X11.755 Y8.8 E80.58336
G0 F6000 X11.755 Y9.2
G1 F720 X-4.265 Y9.2 E81.38261
G0 F6000 X-3.56 Y9.6
G1 F720 X11.755 Y9.6 E82.14662
G0 F6000 X11.755 Y10
G1 F720 X-2.721 Y10 E82.86884
G0 F6000 X-1.705 Y10.4
G1 F720 X11.755 Y10.4 E83.54031
G0 F6000 X11.755 Y10.8
G1 F720 X-0.282 Y10.8 E84.14084
G0 F6000 X4.31 Y11.2
G0 X4.31 Y11.2
G1 F720 X11.755 Y11.2 E84.51227
G0 F6000 X11.754 Y11.6
G1 F720 X6.571 Y11.6 E84.77085
G0 F6000 X7.938 Y12
G1 F720 X11.754 Y12 E84.96123
G0 F6000 X11.754 Y12.4
G1 F720 X9.006 Y12.4 E85.09833
G0 F6000 X9.901 Y12.8
G1 F720 X11.754 Y12.8 E85.19077
G0 F6000 X11.754 Y13.2
G1 F720 X10.677 Y13.2 E85.24451
G0 F6000 X11.364 Y13.6
G1 F720 X11.754 Y13.6 E85.26396
; LAYER:1
G0 F6000 X11.341 Y14.173 Z0.6
; TYPE:WALL-INNER
G1 F1944 X10.626 Y13.743 E85.316
G1 X9.888 Y13.349 E85.36817
G1 X9.132 Y12.994 E85.42025
G1 X8.359 Y12.678 E85.47233
G1 X7.572 Y12.401 E85.52436
G1 X6.769 Y12.164 E85.57658
G1 X5.959 Y11.969 E85.62853
G1 X5.138 Y11.813 E85.68065
G1 X4.309 Y11.701 E85.73282
G1 X3.475 Y11.63 E85.78502
G1 X1.888 Y11.581 E85.88403
G1 X1.164 Y11.529 E85.9293
G1 X0.444 Y11.438 E85.97456
G1 X-0.281 Y11.307 E86.0205
G1 X-0.985 Y11.138 E86.06571
G1 X-1.672 Y10.935 E86.11045
G1 X-2.375 Y10.685 E86.15704
G1 X-3.049 Y10.404 E86.20263
G1 X-3.698 Y10.09 E86.24765
G1 X-4.339 Y9.735 E86.2934
G1 X-4.951 Y9.354 E86.33841
G1 X-5.56 Y8.927 E86.38485
G1 X-6.119 Y8.487 E86.42926
G1 X-6.691 Y7.985 E86.47677
G1 X-7.199 Y7.488 E86.52113
G1 X-7.683 Y6.961 E86.5658
G1 X-8.155 Y6.389 E86.61209
G1 X-8.588 Y5.802 E86.65761
G1 X-8.994 Y5.183 E86.70381
G1 X-9.357 Y4.559 E86.74886
G1 X-9.685 Y3.918 E86.7938
G1 X-9.978 Y3.255 E86.83903
G1 X-10.245 Y2.557 E86.88565
G1 X-10.465 Y1.874 E86.93042
G1 X-10.656 Y1.144 E86.97749
G1 X-10.797 Y0.46 E87.02106
G1 X-10.907 Y-0.271 E87.06717
G1 X-10.987 Y-1.12 E87.12042
G1 X-11.009 Y-1.855 E87.16634
G1 X-10.991 Y-2.587 E87.21206
G1 X-10.936 Y-3.314 E87.25759
G1 X-10.839 Y-4.054 E87.30419
G1 X-10.706 Y-4.759 E87.34898
G1 X-10.53 Y-5.481 E87.39537
G1 X-10.317 Y-6.18 E87.44098
G1 X-10.064 Y-6.877 E87.48726
G1 X-9.781 Y-7.539 E87.53219
G1 X-9.45 Y-8.212 E87.57899
G1 X-9.094 Y-8.846 E87.62436
G1 X-8.707 Y-9.456 E87.66943
G1 X-8.277 Y-10.057 E87.71553
G1 X-7.803 Y-10.649 E87.76283
G1 X-7.341 Y-11.167 E87.80612
G1 X-6.804 Y-11.707 E87.85362
G1 X-6.271 Y-12.187 E87.89834
G1 X-5.689 Y-12.657 E87.94499
G1 X-5.103 Y-13.08 E87.99004
G1 X-4.474 Y-13.482 E88.03658
G1 X-3.847 Y-13.837 E88.08149
G1 X-3.19 Y-14.165 E88.12725
G1 X-2.509 Y-14.459 E88.17348
G1 X-1.827 Y-14.71 E88.21876
G1 X-1.121 Y-14.928 E88.2648
G1 X-0.4 Y-15.107 E88.31108
G1 X0.302 Y-15.243 E88.35563
G1 X1.026 Y-15.342 E88.40121
G1 X1.771 Y-15.403 E88.44783
G1 X2.209 Y-15.415 E88.47516
G1 X11.75 Y-15.421 E89.07016
G1 X11.75 Y14.447 E90.93275
G1 X11.341 Y14.173 E90.96345
G0 F6000 X11.073 Y14.595
; TYPE:WALL-OUTER
G1 F1701 X10.379 Y14.178 E91.01394
G1 X9.664 Y13.796 E91.06449
G1 X8.931 Y13.452 E91.11499
G1 X8.181 Y13.145 E91.16553
G1 X7.418 Y12.877 E91.21596
G1 X6.64 Y12.647 E91.26655
G1 X5.854 Y12.458 E91.31697
G1 X5.058 Y12.307 E91.36749
G1 X4.254 Y12.198 E91.41809
G1 X3.446 Y12.129 E91.46867
G1 X1.868 Y12.081 E91.56712
G1 X1.121 Y12.028 E91.61382
G1 X0.368 Y11.932 E91.66116
G1 X-0.384 Y11.796 E91.70882
G1 X-1.106 Y11.623 E91.75518
G1 X-1.834 Y11.408 E91.80258
G1 X-2.556 Y11.151 E91.85043
G1 X-3.251 Y10.861 E91.89745
G1 X-3.927 Y10.534 E91.94434
G1 X-4.598 Y10.163 E91.99221
G1 X-5.228 Y9.77 E92.03857
G1 X-5.858 Y9.328 E92.08661
G1 X-6.443 Y8.868 E92.13307
G1 X-7.013 Y8.368 E92.1804
G1 X-7.561 Y7.832 E92.22825
G1 X-8.066 Y7.283 E92.27481
G1 X-8.554 Y6.691 E92.3227
G1 X-8.996 Y6.092 E92.36916
G1 X-9.413 Y5.457 E92.41657
G1 X-9.798 Y4.794 E92.46441
G1 X-10.136 Y4.134 E92.51068
G1 X-10.447 Y3.43 E92.55871
G1 X-10.717 Y2.723 E92.60592
G1 X-10.949 Y2.002 E92.65318
G1 X-11.138 Y1.28 E92.69974
G1 X-11.293 Y0.528 E92.74763
G1 X-11.403 Y-0.205 E92.79386
G1 X-11.486 Y-1.089 E92.8493
G1 X-11.51 Y-1.844 E92.89648
G1 X-11.491 Y-2.618 E92.94482
G1 X-11.434 Y-3.363 E92.99147
G1 X-11.335 Y-4.118 E93.03901
G1 X-11.192 Y-4.879 E93.08735
G1 X-11.011 Y-5.619 E93.13491
G1 X-10.794 Y-6.332 E93.18143
G1 X-10.529 Y-7.06 E93.22978
G1 X-10.236 Y-7.748 E93.27645
G1 X-9.894 Y-8.442 E93.32472
G1 X-9.528 Y-9.095 E93.37143
G1 X-9.121 Y-9.737 E93.41886
G1 X-8.67 Y-10.367 E93.46719
G1 X-8.194 Y-10.962 E93.51472
G1 X-7.696 Y-11.52 E93.56136
G1 X-7.16 Y-12.059 E93.60877
G1 X-6.595 Y-12.568 E93.65619
G1 X-5.992 Y-13.054 E93.70448
G1 X-5.387 Y-13.491 E93.75101
G1 X-4.733 Y-13.909 E93.79939
G1 X-4.083 Y-14.279 E93.84601
G1 X-3.395 Y-14.621 E93.8939
G1 X-2.694 Y-14.924 E93.94149
G1 X-1.983 Y-15.185 E93.98869
G1 X-1.259 Y-15.408 E94.03589
G1 X-0.513 Y-15.594 E94.08379
G1 X0.221 Y-15.736 E94.13036
G1 X0.988 Y-15.841 E94.17865
G1 X1.734 Y-15.902 E94.22533
G1 X2.195 Y-15.915 E94.2541
G1 X12.25 Y-15.922 E94.88115
G1 X12.25 Y15.424 E96.83591
G1 X11.745 Y15.046 E96.87525
G1 X11.073 Y14.595 E96.92572
G0 F6000 X11.42 Y14
; TYPE:FILL
G1 F1944 X11.56 Y14 E96.93445
G0 F6000 X11.5 Y13.916
G1 F1944 X11.499 Y-15.124 E98.74547
G0 F6000 X10.999 Y-15.124
G1 F1944 X11 Y13.621 E100.53802
G0 F6000 X11.031 Y13.5
G1 F1944 X10.575 Y13.5 E100.56646
G0 F6000 X10.5 Y13.333
G1 F1944 X10.499 Y-15.124 E102.34112
G0 F6000 X9.999 Y-15.124
G1 F1944 X10 Y13.072 E104.09944
G0 F6000 X10.121 Y13
G1 F1944 X9.593 Y13 E104.13236
G0 F6000 X9.5 Y12.835
G1 F1944 X9.499 Y-15.124 E105.87596
G0 F6000 X8.999 Y-15.125
G1 F1944 X9 Y12.613 E107.60572
G0 F6000 X9.041 Y12.5
G1 F1944 X8.425 Y12.5 E107.64413
G0 F6000 X8.5 Y12.412
G1 F1944 X8.499 Y-15.125 E109.36142
G0 F6000 X7.999 Y-15.125
G1 F1944 X8 Y12.231 E111.06735
G0 F6000 X7.689 Y12
G1 F1944 X6.884 Y12 E111.11755
G0 F6000 X7 Y11.921
G1 F1944 X6.999 Y-15.125 E112.80422
G0 F6000 X6.499 Y-15.125
G1 F1944 X6.5 Y11.789 E114.48258
G0 F6000 X6 Y11.672
G1 F1944 X5.999 Y-15.125 E116.15372
G0 F6000 X5.499 Y-15.125
G1 F1944 X5.5 Y11.577 E117.81887
G0 F6000 X5.756 Y11.5
G1 F1944 X4.189 Y11.5 E117.91659
G0 F6000 X4 Y11.372
G1 F1944 X3.999 Y-15.126 E119.56908
G0 F6000 X3.499 Y-15.126
G1 F1944 X3.5 Y11.334 E121.21913
G0 F6000 X3 Y11.314
G1 F1944 X2.999 Y-15.126 E122.868
G0 F6000 X2.499 Y-15.126
G1 F1944 X2.5 Y11.3 E124.51594
G0 F6000 X2 Y11.287
G1 F1944 X1.999 Y-15.112 E126.16225
G0 F6000 X2.298 Y-15
G1 F1944 X0.046 Y-15 E126.3027
G0 F6000 X0 Y-14.88
G1 F1944 X0 Y11.057 E127.92014
G0 F6000 X0.343 Y11
G1 F1944 X-0.746 Y11 E127.98805
G0 F6000 X-0.499 Y10.952
G1 F1944 X-0.5 Y-14.774 E129.59239
G0 F6000 X-1 Y-14.644
G1 F1944 X-0.999 Y10.827 E131.18077
G0 F6000 X-1.499 Y10.676
G1 F1944 X-1.5 Y-14.496 E132.75057
G0 F6000 X-1.846 Y-14.5
G1 F1944 X-1.071 Y-14.5 E132.79884
G0 F6000 X-2 Y-14.329
G1 F1944 X-1.999 Y10.506 E134.34755
G0 F6000 X-2.324 Y10.5
G1 F1944 X-1.666 Y10.5 E134.38853
G0 F6000 X-2.499 Y10.314
G1 F1944 X-2.5 Y-14.135 E135.91323
G0 F6000 X-2.516 Y-14
G1 F1944 X-3.09 Y-14 E135.94909
G0 F6000 X-3 Y-13.916
G1 F1944 X-2.999 Y10.098 E137.44661
G0 F6000 X-2.924 Y10
G1 F1944 X-3.446 Y10 E137.47922
G0 F6000 X-3.499 Y9.853
G1 F1944 X-3.5 Y-13.674 E138.94643
G0 F6000 X-3.573 Y-13.5
G1 F1944 X-4.055 Y-13.5 E138.97655
G0 F6000 X-4 Y-13.407
G1 F1944 X-3.999 Y9.584 E140.41027
G0 F6000 X-3.905 Y9.5
G1 F1944 X-4.356 Y9.5 E140.43846
G0 F6000 X-4.499 Y9.289
G1 F1944 X-4.5 Y-13.112 E141.83545
G0 F6000 X-4.452 Y-13
G1 F1944 X-4.874 Y-13 E141.86183
G0 F6000 X-5 Y-12.781
G1 F1944 X-4.999 Y8.962 E143.21772
G0 F6000 X-5.123 Y9
G1 F1944 X-5.08 Y8.75 E143.24232
G1 X-5.794 Y8.5 E143.28956
G0 F6000 X-5.499 Y8.601
G1 F1944 X-5.5 Y-12.416 E144.60023
G0 F6000 X-5.58 Y-12.5
G1 F1944 X-5.509 Y-12.25 E144.62472
G1 X-6.194 Y-12 E144.67023
G0 F6000 X-6 Y-12.016
G1 F1944 X-5.999 Y8.2 E145.93089
G0 F6000 X-6.048 Y8
G1 F1944 X-6.385 Y8 E145.95197
G0 F6000 X-6.499 Y7.757
G1 F1944 X-6.5 Y-11.573 E147.15744
G0 F6000 X-6.402 Y-11.5
G1 F1944 X-6.741 Y-11.5 E147.17865
G0 F6000 X-7 Y-11.081
G1 F1944 X-6.999 Y7.266 E148.32276
G0 F6000 X-6.914 Y7.5
G1 F1944 X-6.839 Y7.25 E148.34269
G1 X-7.389 Y7 E148.38042
G0 F6000 X-7.499 Y6.717
G1 F1944 X-7.5 Y-10.531 E149.45606
G0 F6000 X-7.37 Y-10.5
G1 F1944 X-7.732 Y-10.25 E149.47538
G1 X-8.079 Y-10 E149.50207
G0 F6000 X-8 Y-9.916
G1 F1944 X-7.999 Y6.104 E150.50106
G0 F6000 X-7.927 Y6
G1 F1944 X-8.246 Y5.75 E150.51843
G1 X-8.558 Y5.5 E150.54341
G0 F6000 X-8.5 Y5.397
G1 F1944 X-8.5 Y-9.215 E151.45465
G0 F6000 X-8.502 Y-9
G1 F1944 X-8.789 Y-8.75 E151.47156
G1 X-9.071 Y-8.5 E151.49507
G0 F6000 X-9 Y-8.398
G1 F1944 X-9 Y4.579 E152.30429
G0 F6000 X-8.907 Y4.5
G1 F1944 X-9.173 Y4.25 E152.32085
G1 X-9.429 Y4 E152.34321
G0 F6000 X-9.5 Y3.609
G1 F1944 X-9.5 Y-7.419 E153.03094
G0 F6000 X-9.589 Y-7.499
G1 F1944 X-9.336 Y-7.749 E153.04705
G1 X-9.08 Y-7.999 E153.06936
G0 F6000 X-9.553 Y-6.999
G1 F1944 X-9.78 Y-6.749 E153.08515
G1 X-9.999 Y-6.499 E153.10587
G0 F6000 X-10 Y-6.159
G1 F1944 X-10 Y2.364 E153.63733
G0 F6000 X-10.064 Y2.5
G1 F1944 X-9.847 Y2.75 E153.65237
G1 X-9.647 Y3.25 E153.66727
G1 X-9.417 Y3.5 E153.68841
G0 F6000 X-8.88 Y5
G0 X-8.88 Y5
G1 F1944 X-8.613 Y5 E153.705
G0 F6000 X-7.816 Y6.5
G0 X-7.816 Y6.5
G1 F1944 X-7.525 Y6.5 E153.72308
G0 F6000 X-9.988 Y2
G0 X-9.988 Y2
G1 F1944 X-10.18 Y1.75 E153.73794
G1 X-10.314 Y1.25 E153.75228
G1 X-10.543 Y0.75 E153.76655
G1 X-10.362 Y0.5 E153.78577
G0 F6000 X-10.5 Y0.42
G1 F1944 X-10.5 Y-4.22 E154.07513
G0 F6000 X-10.416 Y-3.999
G1 F1944 X-10.687 Y-3.749 E154.09003
G1 X-10.514 Y-3.249 E154.10458
G1 X-10.786 Y-2.749 E154.11884
G1 X-10.577 Y-2.249 E154.13327
G1 X-10.811 Y-1.749 E154.14772
G1 X-10.563 Y-1.249 E154.16195
G1 X-10.761 Y-0.749 E154.17683
G1 X-10.479 Y-0.249 E154.19097
G1 X-10.674 Y0 E154.21068
G0 F6000 X-10.561 Y-4.499
G0 X-10.561 Y-4.499
G1 F1944 X-10.271 Y-4.749 E154.22515
G1 X-10.389 Y-5.249 E154.23992
G1 X-10.127 Y-5.749 E154.25521
G1 X-9.928 Y-5.999 E154.27515
G0 F6000 X-8.443 Y-9.5
G0 X-8.443 Y-9.5
G1 F1944 X-8.161 Y-9.5 E154.29267
G0 F6000 X-7.234 Y-11
G0 X-7.234 Y-11
G1 F1944 X-6.912 Y-11 E154.31269
G0 F6000 X0.499 Y-14.965
G0 X0.499 Y-14.965
G1 F1944 X0.5 Y11.144 E155.94086
G0 F6000 X1 Y11.212
G1 F1944 X0.999 Y-15.032 E157.5775
G0 F6000 X1.499 Y-15.08
G1 F1944 X1.5 Y11.258 E159.21995
G0 F6000 X4.5 Y11.426
G0 X4.5 Y11.426
G1 F1944 X4.499 Y-15.126 E160.87581
G0 F6000 X4.999 Y-15.125
G1 F1944 X5 Y11.49 E162.53553
G0 F6000 X7.5 Y12.063
G0 X7.5 Y12.063
G1 F1944 X7.499 Y-15.125 E164.23105
; LAYER:2
M106 S153
G0 F6000 X11.75 Y-15.721 Z0.9
G0 X11.75 Y-15.721
; TYPE:WALL-INNER
G1 F1992 X11.75 Y14.796 E166.13411
G1 X11.065 Y14.346 E166.18522
G1 X10.358 Y13.93 E166.23638
G1 X9.627 Y13.548 E166.28782
G1 X8.697 Y13.133 E166.35133
G1 X8.124 Y12.904 E166.38981
G1 X7.348 Y12.638 E166.44096
G1 X6.558 Y12.412 E166.49221
G1 X5.759 Y12.226 E166.54337
G1 X4.951 Y12.082 E166.59455
G1 X4.138 Y11.979 E166.64566
G1 X3.321 Y11.917 E166.69675
G1 X1.757 Y11.876 E166.79432
G1 X0.999 Y11.814 E166.84175
G1 X0.268 Y11.714 E166.88776
G1 X-0.45 Y11.576 E166.93336
G1 X-1.185 Y11.394 E166.98064
G1 X-1.893 Y11.177 E167.02688
G1 X-2.592 Y10.922 E167.07334
G1 X-3.271 Y10.631 E167.11947
G1 X-3.956 Y10.293 E167.16716
G1 X-4.592 Y9.934 E167.21276
G1 X-5.237 Y9.523 E167.26051
G1 X-5.832 Y9.097 E167.30619
G1 X-6.416 Y8.631 E167.35284
G1 X-6.969 Y8.136 E167.39917
G1 X-7.506 Y7.602 E167.44644
G1 X-8.003 Y7.052 E167.49271
G1 X-8.464 Y6.478 E167.53866
G1 X-8.904 Y5.869 E167.58555
G1 X-9.308 Y5.244 E167.632
G1 X-9.675 Y4.599 E167.67831
G1 X-10.012 Y3.922 E167.7255
G1 X-10.31 Y3.238 E167.77205
G1 X-10.568 Y2.544 E167.81825
G1 X-10.792 Y1.824 E167.86529
G1 X-10.968 Y1.123 E167.91038
G1 X-11.114 Y0.381 E167.95755
G1 X-11.221 Y-0.37 E168.00486
G1 X-11.299 Y-1.563 E168.07949
G1 X-11.293 Y-2.48 E168.13674
G1 X-11.243 Y-3.219 E168.18299
G1 X-11.151 Y-3.966 E168.22998
G1 X-11.023 Y-4.689 E168.27582
G1 X-10.846 Y-5.436 E168.32374
G1 X-10.639 Y-6.148 E168.37002
G1 X-10.389 Y-6.854 E168.41677
G1 X-10.097 Y-7.557 E168.46427
G1 X-9.776 Y-8.225 E168.51052
G1 X-9.413 Y-8.885 E168.55752
G1 X-9.013 Y-9.528 E168.60477
G1 X-8.586 Y-10.138 E168.65122
G1 X-8.13 Y-10.72 E168.69734
G1 X-7.639 Y-11.281 E168.74384
G1 X-7.106 Y-11.825 E168.79133
G1 X-6.554 Y-12.332 E168.83807
G1 X-5.969 Y-12.814 E168.88533
G1 X-5.381 Y-13.245 E168.93078
G1 X-4.742 Y-13.665 E168.97845
G1 X-4.096 Y-14.039 E169.02498
G1 X-3.434 Y-14.377 E169.07131
G1 X-2.733 Y-14.687 E169.11908
G1 X-2.049 Y-14.946 E169.16465
G1 X-1.323 Y-15.177 E169.21212
G1 X-0.604 Y-15.363 E169.25839
G1 X0.138 Y-15.515 E169.30558
G1 X0.87 Y-15.622 E169.35172
G1 X1.611 Y-15.688 E169.39812
G1 X2.527 Y-15.721 E169.45528
G1 X11.75 Y-15.721 E170.03046
G0 F6000 X12.25 Y-16.221
; TYPE:WALL-OUTER
G1 F1743 X12.25 Y15.797 E172.02712
G1 X11.465 Y15.208 E172.08833
G1 X10.8 Y14.771 E172.13795
G1 X10.115 Y14.367 E172.18755
G1 X9.409 Y13.998 E172.23723
G1 X8.502 Y13.594 E172.29915
G1 X7.95 Y13.373 E172.33623
G1 X7.198 Y13.115 E172.38581
G1 X6.433 Y12.896 E172.43543
G1 X5.658 Y12.716 E172.48505
G1 X4.876 Y12.577 E172.53458
G1 X4.087 Y12.476 E172.58419
G1 X3.296 Y12.416 E172.63366
G1 X1.721 Y12.375 E172.73191
G1 X0.964 Y12.313 E172.77928
G1 X0.185 Y12.207 E172.82831
G1 X-0.558 Y12.064 E172.87549
G1 X-1.321 Y11.875 E172.92457
G1 X-2.047 Y11.653 E172.97198
G1 X-2.776 Y11.386 E173.02045
G1 X-3.495 Y11.078 E173.06929
G1 X-4.178 Y10.741 E173.11684
G1 X-4.861 Y10.356 E173.16579
G1 X-5.514 Y9.94 E173.21413
G1 X-6.133 Y9.498 E173.26161
G1 X-6.736 Y9.015 E173.30984
G1 X-7.32 Y8.493 E173.35874
G1 X-7.858 Y7.957 E173.40614
G1 X-8.376 Y7.384 E173.45435
G1 X-8.869 Y6.772 E173.5034
G1 X-9.317 Y6.152 E173.55114
G1 X-9.741 Y5.495 E173.59994
G1 X-10.119 Y4.831 E173.64762
G1 X-10.466 Y4.133 E173.69626
G1 X-10.775 Y3.423 E173.74457
G1 X-11.039 Y2.712 E173.79189
G1 X-11.273 Y1.961 E173.84097
G1 X-11.461 Y1.212 E173.88914
G1 X-11.607 Y0.467 E173.93649
G1 X-11.717 Y-0.31 E173.98544
G1 X-11.799 Y-1.557 E174.06344
G1 X-11.793 Y-2.5 E174.12231
G1 X-11.742 Y-3.259 E174.16981
G1 X-11.647 Y-4.031 E174.21837
G1 X-11.509 Y-4.809 E174.2677
G1 X-11.333 Y-5.553 E174.31543
G1 X-11.116 Y-6.298 E174.36386
G1 X-10.852 Y-7.043 E174.41319
G1 X-10.554 Y-7.761 E174.4617
G1 X-10.224 Y-8.448 E174.50926
G1 X-9.842 Y-9.142 E174.55869
G1 X-9.439 Y-9.791 E174.60635
G1 X-8.994 Y-10.427 E174.65477
G1 X-8.515 Y-11.039 E174.70325
G1 X-8.004 Y-11.623 E174.75165
G1 X-7.45 Y-12.188 E174.801
G1 X-6.888 Y-12.705 E174.84862
G1 X-6.278 Y-13.207 E174.89787
G1 X-5.663 Y-13.659 E174.94546
G1 X-5.002 Y-14.093 E174.99475
G1 X-4.341 Y-14.475 E175.04234
G1 X-3.641 Y-14.832 E175.09132
G1 X-2.934 Y-15.145 E175.1395
G1 X-2.2 Y-15.423 E175.18841
G1 X-1.472 Y-15.655 E175.23602
G1 X-0.712 Y-15.851 E175.28493
G1 X0.053 Y-16.008 E175.33358
G1 X0.807 Y-16.118 E175.38111
G1 X1.585 Y-16.188 E175.42983
G1 X2.509 Y-16.221 E175.48749
G1 X12.25 Y-16.221 E176.09497
G0 F6000 X11.559 Y-15.5
; TYPE:FILL
G1 F1992 X1.674 Y-15.5 E176.71142
G0 F6000 X-0.582 Y-15
G0 X-0.582 Y-15
G1 F1992 X-1.249 Y-15 E176.75308
G0 F6000 X-1.08 Y-15
G1 F1992 X11.559 Y-15 E177.54122
G0 F6000 X11.56 Y-14.5
G1 F1992 X-2.565 Y-14.5 E178.42209
G0 F6000 X-2.686 Y-14.5
G1 F1992 X-2.223 Y-14.5 E178.45091
G0 F6000 X-3.384 Y-14
G1 F1992 X-3.753 Y-14 E178.47398
G0 F6000 X-3.653 Y-14
G1 F1992 X11.56 Y-14 E179.42264
G0 F6000 X11.56 Y-13.5
G1 F1992 X-4.556 Y-13.5 E180.42768
G0 F6000 X-4.647 Y-13.5
G1 F1992 X-4.714 Y-13.25 E180.44806
G1 X-5.392 Y-13 E180.49316
G0 F6000 X-5.316 Y-13
G1 F1992 X11.56 Y-13 E181.54553
G0 F6000 X11.56 Y-12.5
G1 F1992 X-5.978 Y-12.5 E182.63925
G0 F6000 X-6.05 Y-12.5
G1 F1992 X-6.087 Y-12.25 E182.65568
G1 X-6.633 Y-12 E182.69316
G0 F6000 X-6.567 Y-12
G1 F1992 X11.56 Y-12 E183.82355
G0 F6000 X11.56 Y-11.5
G1 F1992 X-7.093 Y-11.5 E184.9868
G0 F6000 X-7.157 Y-11.5
G1 F1992 X-7.166 Y-11.25 E185.00125
G1 X-7.631 Y-11 E185.0342
G0 F6000 X-7.57 Y-11
G1 F1992 X11.56 Y-11 E186.22714
G0 F6000 X11.56 Y-10.5
G1 F1992 X-7.999 Y-10.5 E187.44689
G0 F6000 X-8.06 Y-10.5
G1 F1992 X-8.044 Y-10.25 E187.4603
G1 X-8.451 Y-10 E187.49011
G0 F6000 X-8.392 Y-10
G1 F1992 X11.56 Y-10 E188.73431
G0 F6000 X11.56 Y-9.5
G1 F1992 X-8.75 Y-9.5 E190.0009
G0 F6000 X-8.801 Y-9.5
G1 F1992 X-8.763 Y-9.25 E190.01333
G1 X-9.118 Y-9 E190.04042
G0 F6000 X-9.068 Y-9
G1 F1992 X11.56 Y-9 E191.32678
G0 F6000 X11.56 Y-8.5
G1 F1992 X-9.357 Y-8.5 E192.63122
G0 F6000 X-9.408 Y-8.5
G1 F1992 X-9.353 Y-8.249 E192.6429
G1 X-9.674 Y-7.999 E192.66828
G0 F6000 X-9.621 Y-7.999
G1 F1992 X11.56 Y-8 E193.98913
G0 F6000 X11.56 Y-7.5
G1 F1992 X-9.863 Y-7.499 E195.32512
G0 F6000 X-9.914 Y-7.499
G1 F1992 X-9.839 Y-7.249 E195.33637
G1 X-10.123 Y-6.999 E195.35997
G0 F6000 X-10.077 Y-6.999
G1 F1992 X11.56 Y-7 E196.70925
G0 F6000 X11.56 Y-6.5
G1 F1992 X-10.265 Y-6.499 E198.07031
G0 F6000 X-10.313 Y-6.499
G1 F1992 X-10.223 Y-6.249 E198.08123
G1 X-10.484 Y-5.999 E198.10377
G0 F6000 X-10.435 Y-5.999
G1 F1992 X11.56 Y-6 E199.47538
G0 F6000 X11.56 Y-5.5
G1 F1992 X-10.587 Y-5.499 E200.85653
G0 F6000 X-10.629 Y-5.499
G1 F1992 X-10.524 Y-5.249 E200.86689
G1 X-10.755 Y-4.999 E200.88812
G0 F6000 X-10.709 Y-4.999
G1 F1992 X11.56 Y-5 E202.27681
G0 F6000 X11.56 Y-4.5
G1 F1992 X-10.816 Y-4.499 E203.67224
G0 F6000 X-10.864 Y-4.499
G1 F1992 X-10.74 Y-4.249 E203.6828
G1 X-10.952 Y-3.999 E203.70324
G0 F6000 X-10.906 Y-3.999
G1 F1992 X11.56 Y-4 E205.10422
G0 F6000 X11.56 Y-3.5
G1 F1992 X-10.972 Y-3.499 E206.50938
G0 F6000 X-11.017 Y-3.499
G1 F1992 X-10.875 Y-3.249 E206.51958
G1 X-11.068 Y-2.999 E206.53927
G0 F6000 X-11.02 Y-2.999
G1 F1992 X11.56 Y-3 E207.94736
G0 F6000 X11.56 Y-2.5
G1 F1992 X-11.053 Y-2.499 E209.35757
G0 F6000 X-11.102 Y-2.499
G1 F1992 X-10.939 Y-2.249 E209.36801
G1 X-11.106 Y-1.999 E209.38675
G0 F6000 X-11.065 Y-1.999
G1 F1992 X11.56 Y-2 E210.79764
G0 F6000 X11.56 Y-1.5
G1 F1992 X-11.058 Y-1.499 E212.20816
G0 F6000 X-11.105 Y-1.499
G1 F1992 X-10.926 Y-1.249 E212.21851
G1 X-11.072 Y-0.999 E212.23654
G0 F6000 X-11.036 Y-0.999
G1 F1992 X11.56 Y-1 E213.64563
G0 F6000 X11.56 Y-0.5
G1 F1992 X-10.989 Y-0.499 E215.05184
G0 F6000 X-11.04 Y-0.499
G1 F1992 X-10.868 Y-0.499 E215.06251
G0 F6000 X-10.927 Y0
G1 F1992 X11.56 Y0 E216.4648
G0 F6000 X11.56 Y0.499
G1 F1992 X-10.85 Y0.5 E217.86235
G0 F6000 X-10.897 Y0.5
G1 F1992 X-10.727 Y0.5 E217.87289
G0 F6000 X-10.746 Y1
G1 F1992 X11.56 Y0.999 E219.26389
G0 F6000 X11.56 Y1.499
G1 F1992 X-10.625 Y1.5 E220.6474
G0 F6000 X-10.678 Y1.5
G1 F1992 X-10.501 Y1.5 E220.65838
G0 F6000 X-10.488 Y2
G1 F1992 X11.56 Y1.999 E222.03329
G0 F6000 X11.56 Y2.499
G1 F1992 X-10.326 Y2.5 E223.39816
G0 F6000 X-10.382 Y2.5
G1 F1992 X-10.198 Y2.75 E223.40945
G1 X-10.011 Y3 E223.42888
G0 F6000 X-10.139 Y3
G1 F1992 X11.56 Y2.999 E224.78203
G0 F6000 X11.56 Y3.499
G1 F1992 X-9.935 Y3.5 E226.12251
G0 F6000 X-9.988 Y3.5
G1 F1992 X-9.782 Y3.75 E226.13393
G1 X-9.575 Y4 E226.15413
G0 F6000 X-9.71 Y4
G1 F1992 X11.56 Y3.999 E227.48052
G0 F6000 X11.56 Y4.499
G1 F1992 X-9.454 Y4.5 E228.79101
G0 F6000 X-9.511 Y4.5
G1 F1992 X-9.273 Y4.75 E228.80291
G1 X-9.031 Y5 E228.82457
G0 F6000 X-9.17 Y5
G1 F1992 X11.56 Y4.999 E230.11729
G0 F6000 X11.56 Y5.499
G1 F1992 X-8.857 Y5.5 E231.39055
G0 F6000 X-8.916 Y5.5
G1 F1992 X-8.644 Y5.75 E231.4031
G1 X-8.367 Y6 E231.42632
G0 F6000 X-8.515 Y6
G1 F1992 X11.56 Y5.999 E232.67819
G0 F6000 X11.56 Y6.499
G1 F1992 X-8.14 Y6.5 E233.90674
G0 F6000 X-8.201 Y6.5
G1 F1992 X-7.889 Y6.75 E233.92013
G1 X-7.565 Y7 E233.9456
G0 F6000 X-7.727 Y7
G1 F1992 X11.56 Y6.999 E235.14833
G0 F6000 X11.56 Y7.499
G1 F1992 X-7.268 Y7.5 E236.32249
G0 F6000 X-7.338 Y7.5
G1 F1992 X-6.967 Y7.75 E236.33725
G1 X-6.582 Y8 E236.36583
G0 F6000 X-6.761 Y8
G1 F1992 X11.56 Y7.999 E237.50831
G0 F6000 X11.56 Y8.5
G1 F1992 X-6.194 Y8.5 E238.6155
G0 F6000 X-6.275 Y8.5
G1 F1992 X-5.822 Y8.75 E238.63232
G1 X-5.351 Y9 E238.66552
G0 F6000 X-5.559 Y9
G1 F1992 X11.56 Y9 E239.73304
G0 F6000 X11.56 Y9.5
G1 F1992 X-4.829 Y9.5 E240.7551
G0 F6000 X-4.919 Y9.5
G1 F1992 X-4.344 Y9.75 E240.77478
G1 X-3.736 Y10 E240.81572
G0 F6000 X-3.983 Y10
G1 F1992 X11.56 Y10 E241.78496
G0 F6000 X11.56 Y10.5
G1 F1992 X-2.975 Y10.5 E242.69141
G0 F6000 X-3.095 Y10.5
G1 F1992 X-2.242 Y10.75 E242.71821
G1 X-1.238 Y11 E242.78267
G0 F6000 X-1.663 Y11
G1 F1992 X11.56 Y11 E243.60723
G0 F6000 X11.56 Y11.5
G1 F1992 X0.458 Y11.5 E244.29958
G0 F6000 X0.164 Y11.5
G1 F1992 X1.6 Y11.5 E244.38914
G0 F6000 X5.572 Y12
G0 X5.572 Y12
G1 F1992 X6.344 Y12 E244.43728
G0 F6000 X5.8 Y12
G1 F1992 X11.56 Y12 E244.79649
G0 F6000 X11.56 Y12.5
G1 F1992 X7.67 Y12.5 E245.03908
G0 F6000 X7.53 Y12.5
G1 F1992 X8.448 Y12.75 E245.07041
G1 X9.286 Y13 E245.12494
G0 F6000 X8.987 Y13
G1 F1992 X11.56 Y13 E245.2854
G0 F6000 X11.56 Y13.5
G1 F1992 X10.044 Y13.5 E245.37995
G0 F6000 X9.945 Y13.5
G1 F1992 X10.575 Y13.75 E245.40201
G1 X11.044 Y14 E245.42117
G1 X11.56 Y14 E245.45335
G0 F6000 X-10.361 Y2
G0 X-10.361 Y2
G1 F1992 X-10.538 Y2 E245.46445
G0 F6000 X-10.624 Y1
G1 F1992 X-10.799 Y1 E245.47542
G0 F6000 X-10.806 Y0
G1 F1992 X-10.976 Y0 E245.48609
; LAYER:3
G0 F6000 X-11.311 Y0.414 Z1.2
; TYPE:WALL-INNER
G1 F936 X-11.419 Y-0.347 E245.53403
G1 X-11.482 Y-1.08 E245.57998
G1 X-11.507 Y-1.84 E245.62746
G1 X-11.49 Y-2.611 E245.67562
G1 X-11.43 Y-3.39 E245.7244
G1 X-11.332 Y-4.119 E245.77032
G1 X-11.192 Y-4.865 E245.81771
G1 X-11.009 Y-5.619 E245.86614
G1 X-10.792 Y-6.332 E245.91266
G1 X-10.53 Y-7.054 E245.9606
G1 X-10.232 Y-7.754 E246.00808
G1 X-9.893 Y-8.443 E246.05599
G1 X-9.526 Y-9.095 E246.10267
G1 X-9.11 Y-9.748 E246.15098
G1 X-8.679 Y-10.354 E246.19737
G1 X-8.191 Y-10.963 E246.24605
G1 X-7.694 Y-11.52 E246.2926
G1 X-7.148 Y-12.068 E246.34085
G1 X-6.584 Y-12.576 E246.38818
G1 X-6.003 Y-13.045 E246.43473
G1 X-5.383 Y-13.493 E246.48242
G1 X-4.732 Y-13.909 E246.53058
G1 X-4.074 Y-14.282 E246.57773
G1 X-3.409 Y-14.614 E246.62405
G1 X-2.701 Y-14.919 E246.6721
G1 X-1.975 Y-15.187 E246.72032
G1 X-1.259 Y-15.406 E246.76697
G1 X-0.509 Y-15.593 E246.81513
G1 X0.226 Y-15.736 E246.86178
G1 X0.986 Y-15.839 E246.90962
G1 X1.726 Y-15.9 E246.95593
G1 X2.52 Y-15.921 E247.00546
G1 X11.75 Y-15.92 E247.58107
G1 X11.75 Y15.044 E249.51201
G1 X10.959 Y14.515 E249.57135
G1 X10.261 Y14.104 E249.62187
G1 X9.542 Y13.728 E249.67247
G1 X8.807 Y13.39 E249.72292
G1 X8.05 Y13.089 E249.77372
G1 X7.044 Y12.758 E249.83977
G1 X6.508 Y12.605 E249.87453
G1 X5.72 Y12.421 E249.92499
G1 X4.921 Y12.278 E249.97561
G1 X4.117 Y12.177 E250.02615
G1 X3.311 Y12.115 E250.07656
G1 X1.747 Y12.074 E250.17413
G1 X0.981 Y12.012 E250.22205
G1 X0.249 Y11.912 E250.26813
G1 X-0.509 Y11.766 E250.31627
G1 X-1.239 Y11.586 E250.36322
G1 X-1.957 Y11.367 E250.41009
G1 X-2.674 Y11.103 E250.4578
G1 X-3.355 Y10.812 E250.50404
G1 X-4.041 Y10.471 E250.55187
G1 X-4.694 Y10.104 E250.59864
G1 X-5.348 Y9.688 E250.64703
G1 X-5.951 Y9.256 E250.69334
G1 X-6.543 Y8.783 E250.74064
G1 X-7.107 Y8.28 E250.78781
G1 X-7.651 Y7.739 E250.8357
G1 X-8.146 Y7.189 E250.88189
G1 X-8.63 Y6.589 E250.93
G1 X-9.074 Y5.974 E250.97735
G1 X-9.478 Y5.348 E251.02384
G1 X-9.845 Y4.701 E251.07026
G1 X-10.19 Y4.012 E251.11834
G1 X-10.501 Y3.298 E251.16693
G1 X-10.756 Y2.61 E251.21271
G1 X-10.977 Y1.896 E251.25934
G1 X-11.166 Y1.152 E251.30723
G1 X-11.311 Y0.414 E251.35415
G0 F6000 X-11.804 Y0.5
; TYPE:WALL-OUTER
G1 F819 X-11.915 Y-0.287 E251.40372
G1 X-11.982 Y-1.058 E251.45205
G1 X-12.008 Y-1.826 E251.50004
G1 X-11.99 Y-2.643 E251.55106
G1 X-11.93 Y-3.415 E251.59941
G1 X-11.826 Y-4.196 E251.6486
G1 X-11.678 Y-4.984 E251.69865
G1 X-11.492 Y-5.75 E251.74785
G1 X-11.266 Y-6.491 E251.79621
G1 X-10.998 Y-7.231 E251.84532
G1 X-10.684 Y-7.968 E251.89532
G1 X-10.342 Y-8.663 E251.94365
G1 X-9.948 Y-9.362 E251.99371
G1 X-9.527 Y-10.025 E252.04271
G1 X-9.068 Y-10.669 E252.09204
G1 X-8.585 Y-11.273 E252.14028
G1 X-8.05 Y-11.871 E252.19033
G1 X-7.504 Y-12.42 E252.23861
G1 X-6.909 Y-12.956 E252.28855
G1 X-6.306 Y-13.443 E252.33688
G1 X-5.667 Y-13.904 E252.386
G1 X-4.991 Y-14.336 E252.43602
G1 X-4.318 Y-14.719 E252.48428
G1 X-3.613 Y-15.07 E252.53337
G1 X-2.889 Y-15.382 E252.5825
G1 X-2.136 Y-15.66 E252.63252
G1 X-1.397 Y-15.887 E252.68069
G1 X-0.619 Y-16.081 E252.73065
G1 X0.139 Y-16.228 E252.77875
G1 X0.934 Y-16.336 E252.82879
G1 X1.708 Y-16.4 E252.87723
G1 X2.507 Y-16.421 E252.92708
G1 X12.25 Y-16.42 E253.53468
G1 X12.25 Y16.056 E255.55991
G1 X11.984 Y15.837 E255.5814
G1 X11.35 Y15.371 E255.63047
G1 X10.694 Y14.94 E255.67942
G1 X10.018 Y14.541 E255.72837
G1 X9.322 Y14.177 E255.77735
G1 X8.61 Y13.85 E255.82621
G1 X7.879 Y13.559 E255.87528
G1 X6.897 Y13.236 E255.93975
G1 X6.383 Y13.089 E255.97309
G1 X5.619 Y12.911 E256.02201
G1 X4.846 Y12.773 E256.07098
G1 X4.066 Y12.674 E256.12001
G1 X3.285 Y12.614 E256.16886
G1 X1.712 Y12.573 E256.26699
G1 X0.942 Y12.511 E256.31516
G1 X0.163 Y12.404 E256.3642
G1 X-0.61 Y12.256 E256.41328
G1 X-1.375 Y12.067 E256.46248
G1 X-2.111 Y11.842 E256.51054
G1 X-2.86 Y11.567 E256.56036
G1 X-3.572 Y11.262 E256.60872
G1 X-4.28 Y10.911 E256.65806
G1 X-4.956 Y10.531 E256.70647
G1 X-5.625 Y10.105 E256.75598
G1 X-6.252 Y9.657 E256.80409
G1 X-6.863 Y9.168 E256.85295
G1 X-7.458 Y8.637 E256.90273
G1 X-8.003 Y8.094 E256.95075
G1 X-8.527 Y7.513 E256.99958
G1 X-9.027 Y6.893 E257.04929
G1 X-9.486 Y6.258 E257.09819
G1 X-9.911 Y5.599 E257.14713
G1 X-10.291 Y4.929 E257.19519
G1 X-10.647 Y4.216 E257.24492
G1 X-10.96 Y3.498 E257.29379
G1 X-11.227 Y2.776 E257.34182
G1 X-11.463 Y2.015 E257.39153
G1 X-11.656 Y1.255 E257.44044
G1 X-11.804 Y0.5 E257.48843
G0 F6000 X-11 Y1.015
; TYPE:FILL
G1 F936 X-11 Y-4.852 E257.85432
G0 F6000 X-10.338 Y-4.999
G1 F936 X11.56 Y-5 E259.21987
G0 F6000 X11.559 Y-9.978
G0 X11.559 Y-9.978
G1 F936 X8.588 Y-15.124 E259.59049
G0 F6000 X8.732 Y-15.125
G1 F936 X-5.123 Y8.873 E261.31853
G0 F6000 X-4.999 Y8.813
G1 F936 X-4.749 Y9.84 E261.37284
G1 X-4.249 Y9.296 E261.42578
G1 X-3.749 Y10.401 E261.47734
G1 X-3.499 Y9.719 E261.52262
G0 F6000 X-3.202 Y10
G1 F936 X11.56 Y10 E262.44316
G0 F6000 X11.559 Y10.02
G1 F936 X-2.407 Y-14.17 E264.18508
G0 F6000 X-2.5 Y-14.006
G1 F936 X-2.25 Y-14.882 E264.23398
G1 X-1.75 Y-14.285 E264.28226
G1 X-1.25 Y-15.203 E264.32987
G1 X-0.75 Y-14.585 E264.37698
G1 X-0.25 Y-15.448 E264.42364
G1 X0.249 Y-14.8 E264.46988
G1 X0.749 Y-15.615 E264.51583
G1 X0.999 Y-14.911 E264.56236
G0 F6000 X0.728 Y-15
G1 F936 X11.559 Y-15 E265.23781
G0 F6000 X11.499 Y-15.004
G1 F936 X11.249 Y-15.729 E265.28311
G1 X10.749 Y-15.004 E265.32833
G1 X10.249 Y-15.729 E265.37351
G1 X9.749 Y-15.004 E265.41873
G1 X9.249 Y-15.729 E265.46392
G1 X8.749 Y-15.005 E265.50909
G1 X8.249 Y-15.73 E265.55428
G1 X7.749 Y-15.005 E265.59949
G1 X7.249 Y-15.73 E265.64468
G1 X6.749 Y-15.005 E265.68989
G1 X6.249 Y-15.73 E265.73508
G1 X5.749 Y-15.005 E265.7803
G1 X5.249 Y-15.73 E265.82549
G1 X4.749 Y-15.005 E265.8707
G1 X4.249 Y-15.731 E265.91582
G1 X3.749 Y-15.006 E265.96103
G1 X3.249 Y-15.731 E266.00622
G1 X2.999 Y-15.006 E266.05399
G0 F6000 X2.959 Y-15.125
G1 F936 X-8.705 Y5.077 E267.5087
G0 F6000 X-8.755 Y5
G1 F936 X11.56 Y4.999 E268.77554
G0 F6000 X11.559 Y0.021
G0 X11.559 Y0.021
G1 F936 X2.814 Y-15.125 E269.86622
G0 F6000 X2.499 Y-15.006
G1 F936 X2.249 Y-15.723 E269.91136
G1 X1.749 Y-14.975 E269.95654
G1 X1.499 Y-15.691 E270.00389
G0 F6000 X-3 Y-14.582
G0 X-3 Y-14.582
G1 F936 X-3.25 Y-13.661 E270.05361
G1 X-3.75 Y-14.23 E270.10453
G1 X-4 Y-13.267 E270.16653
G0 F6000 X-3.718 Y-13.559
G1 F936 X-10.697 Y-1.471 E271.03697
G0 F6000 X-10.5 Y-0.382
G1 F936 X-10.5 Y2.754 E271.23248
G0 F6000 X-10 Y1.961
G1 F936 X-10 Y3.964 E271.35739
G0 F6000 X-9.611 Y3.352
G1 F936 X-8.11 Y5.951 E271.54453
G0 F6000 X-7.999 Y5.899
G1 F936 X-7.999 Y7.066 E271.61731
G0 F6000 X-7.499 Y6.531
G1 F936 X-7.499 Y7.619 E271.68516
G0 F6000 X-6.999 Y8.118
G1 F936 X-6.999 Y7.094 E271.74902
G0 F6000 X-6.499 Y7.594
G1 F936 X-6.249 Y8.77 E271.80959
G1 X-5.749 Y8.245 E271.86759
G1 X-5.499 Y9.346 E271.93798
G0 F6000 X-2.999 Y9.967
G0 X-2.999 Y9.967
G1 F936 X-2.749 Y10.861 E271.98717
G1 X-2.249 Y10.28 E272.03599
G1 X-1.749 Y11.228 E272.08396
G1 X-1.249 Y10.627 E272.13111
G1 X-0.749 Y11.511 E272.17758
G1 X-0.499 Y10.828 E272.22291
G0 F6000 X-0.542 Y10.94
G1 F936 X11.559 Y-10.02 E273.73221
G0 F6000 X11.56 Y-10
G1 F936 X-7.936 Y-10 E274.94804
G0 F6000 X-8 Y-9.721
G1 F936 X-8 Y-10.89 E275.021
G0 F6000 X-7.5 Y-10.349
G1 F936 X-7.5 Y-11.444 E275.08935
G0 F6000 X-7 Y-11.944
G1 F936 X-7 Y-10.908 E275.1539
G0 F6000 X-6.617 Y-11.462
G1 F936 X6.858 Y11.88 E276.83463
G0 F6000 X7 Y11.796
G1 F936 X6.75 Y12.478 E276.88147
G1 X6.25 Y11.607 E276.92769
G1 X5.75 Y12.24 E276.97397
G1 X5.25 Y11.411 E277.01973
G1 X4.75 Y12.067 E277.06541
G1 X4.5 Y11.304 E277.11548
G0 F6000 X4.919 Y11.478
G1 F936 X11.559 Y-0.022 E277.94362
G0 F6000 X11.56 Y0
G1 F936 X-10.567 Y0 E279.32352
G0 F6000 X-10.5 Y-3.382
G0 X-10.5 Y-3.382
G1 F936 X-10.5 Y-6.58 E279.52301
G0 F6000 X-9.737 Y-6.865
G1 F936 X0.673 Y11.167 E280.82139
G0 F6000 X0.5 Y11.023
G1 F936 X0.75 Y11.788 E280.86697
G1 X1.25 Y11.114 E280.9125
G1 X1.75 Y11.877 E280.95778
G1 X2.25 Y11.173 E281.00291
G1 X2.75 Y11.91 E281.04801
G1 X3.25 Y11.203 E281.09315
G1 X3.75 Y11.958 E281.13833
G1 X4 Y11.251 E281.1851
G0 F6000 X7.5 Y11.938
G0 X7.5 Y11.938
G1 F936 X7.75 Y12.79 E281.23316
G1 X8.25 Y12.194 E281.281
G1 X8.75 Y13.165 E281.32963
G1 X9.25 Y12.593 E281.37862
G1 X9.75 Y13.626 E281.42815
G1 X10 Y12.936 E281.47391
G0 F6000 X9.823 Y12.984
G1 F936 X11.559 Y9.977 E281.69045
G0 F6000 X10.5 Y13.198
G0 X10.5 Y13.198
G1 F936 X10.75 Y14.171 E281.74194
G1 X11.25 Y13.63 E281.79413
G1 X11.5 Y14.643 E281.8592
G0 F6000 X10.212 Y14.309
G0 X9.52 Y13.774
G0 X8.786 Y13.437
G0 X8.033 Y13.136
G0 X7.029 Y12.806
G0 X6.495 Y12.654
G0 X5.71 Y12.471
G0 X4.913 Y12.329
G0 X4.112 Y12.227
G0 X3.308 Y12.166
G0 X2.422 Y12.296
G0 X0 Y11.671
G0 X0 Y11.671
G1 F936 X0 Y10.934 E281.90516
G0 F6000 X-8.5 Y6.443
G0 X-8.5 Y6.443
G1 F936 X-8.5 Y5.176 E281.98418
G0 F6000 X-9 Y5.738
G1 F936 X-9 Y4.336 E282.07161
G0 F6000 X-9.5 Y4.924
G1 F936 X-9.5 Y3.308 E282.17239
G0 F6000 X-10 Y-5.784
G0 X-10 Y-5.784
G1 F936 X-10 Y-7.794 E282.2978
G0 F6000 X-9.5 Y-7.13
G1 F936 X-9.5 Y-8.75 E282.39889
G0 F6000 X-9 Y-8.145
G1 F936 X-9 Y-9.565 E282.48751
G0 F6000 X-8.5 Y-9.001
G1 F936 X-8.5 Y-10.271 E282.56677
G0 F6000 X-6.5 Y-11.408
G0 X-6.5 Y-11.408
G1 F936 X-6.25 Y-12.598 E282.62838
G1 X-5.75 Y-12.062 E282.68724
G1 X-5.25 Y-13.342 E282.74382
G1 X-4.75 Y-12.802 E282.79842
G1 X-4.5 Y-13.821 E282.8639
; LAYER:4
G0 F6000 X-4.812 Y-14.014 Z1.5
; TYPE:WALL-INNER
G1 F912 X-4.144 Y-14.394 E282.91181
G1 X-3.434 Y-14.747 E282.96123
G1 X-2.76 Y-15.038 E283.00698
G1 X-2.024 Y-15.309 E283.05585
G1 X-1.298 Y-15.532 E283.10317
G1 X-0.531 Y-15.724 E283.15244
G1 X0.201 Y-15.865 E283.19888
G1 X0.974 Y-15.97 E283.24753
G1 X1.719 Y-16.031 E283.29415
G1 X2.519 Y-16.053 E283.34406
G1 X11.75 Y-16.045 E283.91974
G1 X11.75 Y15.209 E285.86876
G1 X10.887 Y14.626 E285.93371
G1 X10.057 Y14.145 E285.99353
G1 X9.484 Y13.847 E286.03381
G1 X8.755 Y13.512 E286.08384
G1 X8.009 Y13.214 E286.13394
G1 X7.248 Y12.953 E286.18411
G1 X6.475 Y12.733 E286.23423
G1 X5.692 Y12.551 E286.28436
G1 X4.901 Y12.409 E286.33448
G1 X4.104 Y12.309 E286.38457
G1 X3.304 Y12.247 E286.43461
G1 X1.74 Y12.206 E286.53218
G1 X0.964 Y12.143 E286.58074
G1 X0.214 Y12.041 E286.62794
G1 X-0.522 Y11.899 E286.67468
G1 X-1.275 Y11.713 E286.72311
G1 X-1.999 Y11.492 E286.77038
G1 X-2.706 Y11.232 E286.81742
G1 X-3.426 Y10.924 E286.86631
G1 X-4.102 Y10.589 E286.91342
G1 X-4.772 Y10.212 E286.96142
G1 X-5.415 Y9.803 E287.00899
G1 X-6.034 Y9.36 E287.05651
G1 X-6.628 Y8.885 E287.10399
G1 X-7.205 Y8.369 E287.15231
G1 X-7.737 Y7.839 E287.19919
G1 X-8.256 Y7.263 E287.24758
G1 X-8.719 Y6.689 E287.29361
G1 X-9.186 Y6.044 E287.34331
G1 X-9.587 Y5.42 E287.3896
G1 X-9.967 Y4.753 E287.4375
G1 X-10.313 Y4.062 E287.48572
G1 X-10.62 Y3.357 E287.5337
G1 X-10.879 Y2.658 E287.58021
G1 X-11.108 Y1.922 E287.6283
G1 X-11.293 Y1.188 E287.67552
G1 X-11.443 Y0.43 E287.72372
G1 X-11.55 Y-0.332 E287.77171
G1 X-11.611 Y-1.047 E287.81653
G1 X-11.638 Y-1.834 E287.86571
G1 X-11.621 Y-2.618 E287.91467
G1 X-11.563 Y-3.379 E287.96232
G1 X-11.459 Y-4.165 E288.01182
G1 X-11.32 Y-4.902 E288.05864
G1 X-11.143 Y-5.626 E288.10517
G1 X-10.912 Y-6.387 E288.15481
G1 X-10.652 Y-7.103 E288.20235
G1 X-10.348 Y-7.817 E288.25078
G1 X-10.015 Y-8.491 E288.29769
G1 X-9.634 Y-9.169 E288.34621
G1 X-9.223 Y-9.817 E288.39409
G1 X-8.779 Y-10.438 E288.44171
G1 X-8.299 Y-11.04 E288.48973
G1 X-7.789 Y-11.61 E288.53744
G1 X-7.239 Y-12.162 E288.58603
G1 X-6.669 Y-12.676 E288.63389
G1 X-6.087 Y-13.146 E288.68054
G1 X-5.448 Y-13.606 E288.72962
G1 X-4.812 Y-14.014 E288.77673
G0 F6000 X-5.07 Y-14.443
; TYPE:WALL-OUTER
G1 F798 X-4.376 Y-14.838 E288.8265
G1 X-3.657 Y-15.195 E288.87654
G1 X-2.939 Y-15.505 E288.92528
G1 X-2.18 Y-15.784 E288.97567
G1 X-1.431 Y-16.014 E289.02449
G1 X-0.647 Y-16.21 E289.07484
G1 X0.118 Y-16.358 E289.12338
G1 X0.92 Y-16.467 E289.17387
G1 X1.7 Y-16.531 E289.22268
G1 X2.507 Y-16.553 E289.27303
G1 X12.25 Y-16.544 E289.88063
G1 X12.25 Y16.23 E291.92444
G1 X11.903 Y15.941 E291.9526
G1 X11.274 Y15.48 E292.00124
G1 X10.624 Y15.051 E292.04981
G1 X9.816 Y14.584 E292.10801
G1 X9.264 Y14.296 E292.14683
G1 X8.558 Y13.971 E292.1953
G1 X7.835 Y13.683 E292.24384
G1 X7.099 Y13.43 E292.29237
G1 X6.35 Y13.217 E292.34093
G1 X5.591 Y13.041 E292.38952
G1 X4.826 Y12.904 E292.43799
G1 X4.053 Y12.806 E292.48658
G1 X3.278 Y12.746 E292.53506
G1 X1.704 Y12.705 E292.63325
G1 X0.929 Y12.642 E292.68174
G1 X0.131 Y12.534 E292.73196
G1 X-0.63 Y12.387 E292.78029
G1 X-1.411 Y12.194 E292.83053
G1 X-2.153 Y11.967 E292.87898
G1 X-2.908 Y11.69 E292.92919
G1 X-3.629 Y11.382 E292.97814
G1 X-4.332 Y11.034 E293.02711
G1 X-5.031 Y10.639 E293.07724
G1 X-5.699 Y10.215 E293.12663
G1 X-6.333 Y9.762 E293.17528
G1 X-6.95 Y9.267 E293.22465
G1 X-7.547 Y8.734 E293.27461
G1 X-8.098 Y8.185 E293.32316
G1 X-8.636 Y7.588 E293.37332
G1 X-9.125 Y6.983 E293.42187
G1 X-9.596 Y6.331 E293.47207
G1 X-10.016 Y5.677 E293.52058
G1 X-10.407 Y4.991 E293.56985
G1 X-10.767 Y4.272 E293.62002
G1 X-11.083 Y3.547 E293.66937
G1 X-11.352 Y2.819 E293.71779
G1 X-11.591 Y2.051 E293.76797
G1 X-11.782 Y1.295 E293.81661
G1 X-11.935 Y0.522 E293.86576
G1 X-12.046 Y-0.273 E293.91583
G1 X-12.111 Y-1.026 E293.96303
G1 X-12.139 Y-1.819 E294.01258
G1 X-12.121 Y-2.65 E294.06448
G1 X-12.061 Y-3.429 E294.11326
G1 X-11.957 Y-4.217 E294.16288
G1 X-11.811 Y-4.998 E294.21248
G1 X-11.618 Y-5.784 E294.263
G1 X-11.391 Y-6.533 E294.31185
G1 X-11.12 Y-7.28 E294.36144
G1 X-10.809 Y-8.011 E294.41102
G1 X-10.451 Y-8.736 E294.46147
G1 X-10.068 Y-9.419 E294.51033
G1 X-9.635 Y-10.101 E294.56073
G1 X-9.181 Y-10.737 E294.60947
G1 X-8.685 Y-11.358 E294.65905
G1 X-8.146 Y-11.961 E294.70949
G1 X-7.595 Y-12.515 E294.75822
G1 X-6.994 Y-13.056 E294.80864
G1 X-6.386 Y-13.547 E294.85737
G1 X-5.729 Y-14.02 E294.90784
G1 X-5.07 Y-14.443 E294.95666
G0 F6000 X-4.451 Y-14
; TYPE:FILL
G1 F912 X-3.384 Y-14 E295.02314
G0 F6000 X-3.388 Y-14.131
G1 F912 X-11.026 Y-0.901 E295.9758
G0 F6000 X-10.915 Y-0.999
G1 F912 X-11.427 Y-1.249 E296.00714
G1 X-10.941 Y-1.749 E296.03819
G1 X-11.439 Y-2.249 E296.06923
G1 X-10.916 Y-2.749 E296.10046
G1 X-11.378 Y-3.249 E296.13177
G1 X-10.819 Y-3.749 E296.1631
G1 X-11.245 Y-4.249 E296.19447
G1 X-10.694 Y-4.499 E296.23217
G0 F6000 X-10.709 Y-4.999
G1 F912 X11.56 Y-5 E297.62086
G0 F6000 X11.559 Y-9.977
G0 X11.559 Y-9.977
G1 F912 X8.384 Y-15.477 E298.01696
G0 F6000 X8.936 Y-15.478
G1 F912 X-5.301 Y9.181 E299.79261
G0 F6000 X-5.351 Y9
G1 F912 X-6.092 Y8.75 E299.84437
G1 X-6.677 Y8.25 E299.89231
G1 X-7.305 Y8 E299.93453
G0 F6000 X-7.145 Y7.623
G1 F912 X-10.577 Y1.679 E300.36259
G0 F6000 X-10.501 Y1.5
G1 F912 X-11.078 Y1.25 E300.39495
G1 X-10.675 Y0.75 E300.42696
G1 X-11.273 Y0.25 E300.45859
G1 X-10.806 Y0 E300.49157
G0 F6000 X-10.927 Y0
G1 F912 X11.56 Y0 E301.89386
G0 F6000 X11.559 Y-0.021
G1 F912 X4.724 Y11.816 E302.74622
G0 F6000 X6.344 Y12
G0 X6.344 Y12
G1 F912 X1.546 Y12 E303.04543
G0 F6000 X1.6 Y11.5
G1 F912 X-1.322 Y11.5 E303.22766
G0 F6000 X-1.238 Y11
G1 F912 X-2.765 Y11 E303.32295
G0 F6000 X-2.663 Y10.5
G1 F912 X-3.854 Y10.5 E303.39728
G0 F6000 X-3.736 Y10
G1 F912 X-4.75 Y10 E303.46058
G0 F6000 X-4.602 Y9.5
G1 F912 X-5.512 Y9.5 E303.5174
G0 F6000 X-3.983 Y10
G0 X-3.983 Y10
G1 F912 X11.56 Y10 E304.48664
G0 F6000 X11.559 Y10.02
G1 F912 X-2.591 Y-14.488 E306.25148
G0 F6000 X-2.223 Y-14.5
G1 F912 X-3.502 Y-14.5 E306.3313
G0 F6000 X-2.312 Y-15
G1 F912 X-0.582 Y-15 E306.43912
G0 F6000 X-1.08 Y-15
G1 F912 X11.559 Y-15 E307.22727
G0 F6000 X11.559 Y-15.5
G1 F912 X-0.642 Y-15.5 E307.98815
G0 F6000 X2.612 Y-15.474
G0 X2.612 Y-15.474
G1 F912 X11.559 Y0.022 E309.10398
G0 F6000 X11.56 Y4.999
G0 X11.56 Y4.999
G1 F912 X-9.17 Y5 E310.39676
G0 F6000 X-9.031 Y5
G1 F912 X-9.743 Y4.75 E310.43276
G1 X-9.447 Y4.25 E310.46773
G1 X-10.24 Y3.75 E310.50226
G1 X-9.907 Y3.25 E310.53632
G1 X-10.639 Y2.75 E310.56985
G1 X-10.28 Y2.25 E310.60283
G1 X-10.884 Y2 E310.64366
G0 F6000 X-10.868 Y-0.499
G0 X-10.868 Y-0.499
G1 F912 X-11.374 Y-0.499 E310.67527
G0 F6000 X-11.101 Y-4.999
G0 X-11.101 Y-4.999
G1 F912 X-10.524 Y-5.249 E310.70733
G1 X-10.904 Y-5.749 E310.73951
G1 X-10.223 Y-6.249 E310.77196
G1 X-10.578 Y-6.749 E310.80515
G1 X-9.946 Y-6.999 E310.8475
G0 F6000 X-9.965 Y-7.26
G1 F912 X0.897 Y11.555 E312.20226
G0 F6000 X-0.727 Y11.26
G0 X-0.727 Y11.26
G1 F912 X11.559 Y-10.02 E313.73461
G0 F6000 X11.56 Y-10
G1 F912 X-8.392 Y-10 E314.97887
G0 F6000 X-8.244 Y-10
G1 F912 X-8.73 Y-9.75 E315.01742
G1 X-9.062 Y-9.25 E315.05483
G1 X-9.652 Y-8.75 E315.09139
G1 X-9.353 Y-8.249 E315.12704
G1 X-10.161 Y-7.749 E315.16189
G1 X-9.733 Y-7.499 E315.19272
G0 F6000 X-8.487 Y-10.5
G0 X-8.487 Y-10.5
G1 F912 X-7.961 Y-10.75 E315.23278
G1 X-7.519 Y-11.25 E315.27457
G1 X-6.924 Y-11.5 E315.31479
G0 F6000 X-6.804 Y-11.785
G1 F912 X7.118 Y12.329 E317.05115
G0 F6000 X6.31 Y12.5
G1 F912 X8.033 Y12.5 E317.1586
G0 F6000 X7.967 Y13
G1 F912 X9.286 Y13 E317.24086
G0 F6000 X9.641 Y13.299
G1 F912 X11.559 Y9.978 E317.48003
G0 F6000 X10.299 Y13.5
G0 X10.299 Y13.5
G1 F912 X9.184 Y13.5 E317.54956
G0 F6000 X10.185 Y14
G1 F912 X11.099 Y14.25 E317.61031
G1 X11.56 Y14.5 E317.64301
G0 F6000 X-7.1 Y7.5
G0 X-7.1 Y7.5
G1 F912 X-7.674 Y7.25 E317.68579
G1 X-8.104 Y6.75 E317.72679
G1 X-8.494 Y6.25 E317.76646
G1 X-8.848 Y5.75 E317.80485
G1 X-9.31 Y5.5 E317.83766
G0 F6000 X-8.905 Y5.424
G1 F912 X3.16 Y-15.474 E319.34249
G0 F6000 X-4.319 Y-13.5
G0 X-4.319 Y-13.5
G1 F912 X-5.186 Y-13.25 E319.40128
G1 X-5.875 Y-12.75 E319.45449
G1 X-6.484 Y-12.25 E319.50393
G1 X-7.131 Y-12 E319.54723
; LAYER:5
G0 F6000 X-7.382 Y-12.128 Z1.8
; TYPE:WALL-INNER
G1 F888 X-6.789 Y-12.67 E319.59732
G1 X-6.202 Y-13.15 E319.6446
G1 X-5.584 Y-13.603 E319.69237
G1 X-4.918 Y-14.036 E319.7419
G1 X-4.268 Y-14.412 E319.7887
G1 X-3.574 Y-14.763 E319.83718
G1 X-2.864 Y-15.075 E319.88551
G1 X-2.141 Y-15.347 E319.93364
G1 X-1.404 Y-15.58 E319.98181
G1 X-0.661 Y-15.771 E320.0296
G1 X0.1 Y-15.924 E320.07796
G1 X0.851 Y-16.031 E320.12528
G1 X1.62 Y-16.099 E320.17343
G1 X2.507 Y-16.129 E320.22878
G1 X11.75 Y-16.123 E320.8052
G1 X11.75 Y15.306 E322.76513
G1 X11.527 Y15.142 E322.7824
G1 X10.859 Y14.701 E322.83232
G1 X10.171 Y14.295 E322.88213
G1 X9.462 Y13.925 E322.93201
G1 X8.737 Y13.59 E322.98181
G1 X7.995 Y13.292 E323.03168
G1 X7.237 Y13.034 E323.08161
G1 X6.469 Y12.813 E323.13145
G1 X5.69 Y12.631 E323.18134
G1 X4.903 Y12.491 E323.23119
G1 X4.111 Y12.388 E323.281
G1 X3.314 Y12.327 E323.33085
G1 X1.749 Y12.285 E323.42848
G1 X0.968 Y12.222 E323.47734
G1 X0.231 Y12.122 E323.52373
G1 X-0.545 Y11.974 E323.57299
G1 X-1.278 Y11.794 E323.62012
G1 X-2.01 Y11.57 E323.66792
G1 X-2.73 Y11.307 E323.71578
G1 X-3.449 Y11.001 E323.76457
G1 X-4.112 Y10.673 E323.81076
G1 X-4.806 Y10.283 E323.86046
G1 X-5.442 Y9.878 E323.90753
G1 X-6.063 Y9.436 E323.95512
G1 X-6.676 Y8.945 E324.00414
G1 X-7.243 Y8.441 E324.0515
G1 X-7.784 Y7.903 E324.09913
G1 X-8.307 Y7.324 E324.14783
G1 X-8.781 Y6.739 E324.19482
G1 X-9.241 Y6.103 E324.24381
G1 X-9.651 Y5.468 E324.29098
G1 X-10.029 Y4.804 E324.33866
G1 X-10.384 Y4.094 E324.38819
G1 X-10.682 Y3.412 E324.43463
G1 X-10.95 Y2.69 E324.48268
G1 X-11.178 Y1.96 E324.53039
G1 X-11.367 Y1.215 E324.57834
G1 X-11.517 Y0.459 E324.62641
G1 X-11.627 Y-0.32 E324.67549
G1 X-11.69 Y-1.066 E324.72224
G1 X-11.715 Y-1.854 E324.77147
G1 X-11.701 Y-2.526 E324.81345
G1 X-11.647 Y-3.291 E324.86133
G1 X-11.551 Y-4.054 E324.90935
G1 X-11.413 Y-4.815 E324.95763
G1 X-11.233 Y-5.575 E325.00638
G1 X-11.018 Y-6.303 E325.05376
G1 X-10.757 Y-7.036 E325.10232
G1 X-10.457 Y-7.754 E325.15089
G1 X-10.126 Y-8.442 E325.19853
G1 X-9.746 Y-9.127 E325.2474
G1 X-9.344 Y-9.772 E325.29482
G1 X-8.903 Y-10.398 E325.34259
G1 X-8.406 Y-11.027 E325.39259
G1 X-7.909 Y-11.593 E325.43957
G1 X-7.382 Y-12.128 E325.48641
G0 F6000 X-7.719 Y-12.497
; TYPE:WALL-OUTER
G1 F777 X-7.119 Y-13.045 E325.53708
G1 X-6.511 Y-13.544 E325.58612
G1 X-5.856 Y-14.023 E325.63671
G1 X-5.186 Y-14.458 E325.68651
G1 X-4.505 Y-14.852 E325.73555
G1 X-3.785 Y-15.217 E325.78587
G1 X-3.057 Y-15.537 E325.83543
G1 X-2.3 Y-15.821 E325.88581
G1 X-1.551 Y-16.058 E325.93476
G1 X-0.772 Y-16.258 E325.98487
G1 X0.018 Y-16.417 E326.03508
G1 X0.794 Y-16.528 E326.08398
G1 X1.595 Y-16.599 E326.13413
G1 X2.491 Y-16.629 E326.19004
G1 X12.25 Y-16.622 E326.79864
G1 X12.25 Y16.334 E328.8538
G1 X11.866 Y16.012 E328.88505
G1 X11.241 Y15.552 E328.93345
G1 X10.594 Y15.126 E328.98176
G1 X9.928 Y14.732 E329.03002
G1 X9.241 Y14.374 E329.07833
G1 X8.539 Y14.049 E329.12657
G1 X7.821 Y13.761 E329.17482
G1 X7.087 Y13.511 E329.22317
G1 X6.343 Y13.297 E329.27145
G1 X5.589 Y13.121 E329.31974
G1 X4.827 Y12.985 E329.36801
G1 X4.06 Y12.885 E329.41624
G1 X3.288 Y12.826 E329.46453
G1 X1.714 Y12.784 E329.56272
G1 X0.934 Y12.721 E329.61152
G1 X0.144 Y12.615 E329.66123
G1 X-0.641 Y12.465 E329.71107
G1 X-1.417 Y12.274 E329.76097
G1 X-2.165 Y12.046 E329.8098
G1 X-2.924 Y11.768 E329.86026
G1 X-3.65 Y11.459 E329.90953
G1 X-4.355 Y11.11 E329.95864
G1 X-5.059 Y10.714 E330.00907
G1 X-5.719 Y10.295 E330.05787
G1 X-6.378 Y9.825 E330.1084
G1 X-6.988 Y9.337 E330.15717
G1 X-7.592 Y8.8 E330.20762
G1 X-8.145 Y8.249 E330.25634
G1 X-8.687 Y7.649 E330.30681
G1 X-9.179 Y7.042 E330.35558
G1 X-9.652 Y6.387 E330.406
G1 X-10.084 Y5.719 E330.45564
G1 X-10.469 Y5.041 E330.5043
G1 X-10.831 Y4.318 E330.55475
G1 X-11.15 Y3.589 E330.6044
G1 X-11.421 Y2.858 E330.65304
G1 X-11.662 Y2.086 E330.70349
G1 X-11.858 Y1.315 E330.75312
G1 X-12.009 Y0.549 E330.80182
G1 X-12.122 Y-0.25 E330.85215
G1 X-12.19 Y-1.044 E330.90192
G1 X-12.216 Y-1.841 E330.95171
G1 X-12.201 Y-2.549 E330.99594
G1 X-12.146 Y-3.334 E331.04507
G1 X-12.046 Y-4.126 E331.09491
G1 X-11.901 Y-4.926 E331.14566
G1 X-11.72 Y-5.691 E331.19473
G1 X-11.493 Y-6.457 E331.2446
G1 X-11.226 Y-7.211 E331.29452
G1 X-10.912 Y-7.96 E331.3452
G1 X-10.572 Y-8.668 E331.39421
G1 X-10.178 Y-9.379 E331.44492
G1 X-9.755 Y-10.057 E331.49478
G1 X-9.303 Y-10.699 E331.54376
G1 X-8.807 Y-11.327 E331.59368
G1 X-8.271 Y-11.937 E331.64432
G1 X-7.719 Y-12.497 E331.69336
G0 F6000 X-7 Y-12.218
; TYPE:FILL
G1 F888 X-7 Y-11.84 E331.71687
G0 F6000 X-6.953 Y-12.044
G1 F888 X7.329 Y12.695 E333.49822
G0 F6000 X7.5 Y12.626
G1 F888 X7.75 Y12.86 E333.51667
G1 X8.25 Y13.041 E333.53504
G1 X8.75 Y13.246 E333.55378
G1 X9 Y13.501 E333.57605
G0 F6000 X9.494 Y13.554
G1 F888 X11.559 Y9.977 E333.83362
G0 F6000 X11.56 Y10
G1 F888 X-4.595 Y10 E334.84109
G0 F6000 X-4.499 Y9.918
G1 F888 X-4.249 Y10.218 E334.86103
G1 X-3.749 Y10.483 E334.88069
G1 X-3.249 Y10.723 E334.90023
G1 X-2.749 Y10.939 E334.91916
G1 X-2.249 Y11.131 E334.93769
G1 X-1.749 Y11.303 E334.95619
G1 X-1.249 Y11.597 E334.97447
G1 X-0.999 Y11.378 E334.99515
G0 F6000 X-0.883 Y11.53
G1 F888 X11.559 Y-10.02 E336.54694
G0 F6000 X11.56 Y-10
G1 F888 X-8.756 Y-10 E337.8139
G0 F6000 X-9 Y-9.929
G1 F888 X-9.25 Y-9.296 E337.84478
G1 X-9.75 Y-8.431 E337.87978
G1 X-10 Y-7.617 E337.93284
G0 F6000 X-10.151 Y-7.582
G1 F888 X1.085 Y11.88 E339.33421
G0 F6000 X1 Y11.755
G1 F888 X1.25 Y12.054 E339.35161
G1 X1.75 Y11.808 E339.36906
G1 X2.25 Y12.108 E339.38651
G1 X2.75 Y11.842 E339.40396
G1 X3.25 Y12.139 E339.42137
G1 X3.75 Y11.889 E339.43887
G1 X4.25 Y12.217 E339.4564
G1 X4.5 Y11.965 E339.47853
G0 F6000 X4.564 Y12.093
G1 F888 X11.559 Y-0.022 E340.35095
G0 F6000 X11.56 Y0
G1 F888 X-11.229 Y0 E341.77214
G0 F6000 X-11.286 Y-0.451
G1 F888 X-3.131 Y-14.575 E342.78925
G0 F6000 X-3 Y-14.503
G1 F888 X-3 Y-14.807 E342.80827
G0 F6000 X-2.74 Y-14.747
G1 F888 X11.559 Y10.021 E344.59171
G0 F6000 X10 Y13.675
G0 X10 Y13.675
G1 F888 X10.25 Y13.967 E344.61141
G1 X10.75 Y14.253 E344.63167
G1 X11.25 Y14.563 E344.65215
G1 X11.5 Y14.892 E344.67792
G0 F6000 X9.5 Y13.733
G0 X9.5 Y13.733
G1 F888 X9.5 Y13.425 E344.69712
G0 F6000 X7 Y12.769
G0 X7 Y12.769
G1 F888 X6.75 Y12.407 E344.71534
G1 X6.25 Y12.566 E344.73327
G1 X5.75 Y12.17 E344.75117
G1 X5.25 Y12.359 E344.7689
G1 X5 Y12.03 E344.79467
G0 F6000 X0.5 Y11.966
G0 X0.5 Y11.966
G1 F888 X0.25 Y11.643 E344.81215
G1 X-0.249 Y11.836 E344.82976
G1 X-0.499 Y11.502 E344.85582
G0 F6000 X-4.999 Y9.934
G0 X-4.999 Y9.934
G1 F888 X-4.999 Y9.603 E344.87646
G0 F6000 X-5.451 Y9.442
G1 F888 X9.111 Y-15.78 E346.69268
G0 F6000 X8.999 Y-15.66
G1 F888 X8.749 Y-15.934 E346.70983
G1 X8.499 Y-15.66 E346.73291
G0 F6000 X8.209 Y-15.78
G1 F888 X11.559 Y-9.977 E347.15072
G0 F6000 X11.56 Y-5
G0 X11.56 Y-5
G1 F888 X-11.011 Y-4.999 E348.55831
G0 F6000 X-11 Y-4.475
G1 F888 X-11 Y-5.691 E348.63421
G0 F6000 X-10.5 Y-6.359
G1 F888 X-10.5 Y-7.157 E348.68404
G0 F6000 X-8.5 Y-10.148
G0 X-8.5 Y-10.148
G1 F888 X-8.25 Y-10.687 E348.71222
G1 X-7.75 Y-11.267 E348.73868
G1 X-7.5 Y-11.736 E348.77185
G0 F6000 X-6.5 Y-12.298
G1 F888 X-6.25 Y-12.684 E348.79441
G1 X-5.75 Y-13.072 E348.81627
G1 X-5.25 Y-13.425 E348.83771
G1 X-4.75 Y-13.745 E348.85836
G1 X-4.25 Y-14.039 E348.87846
G1 X-3.75 Y-14.305 E348.89801
G1 X-3.5 Y-14.587 E348.92152
G0 F6000 X-2.5 Y-14.711
G1 F888 X-2.5 Y-15.009 E348.94016
G0 F6000 X-2.076 Y-15
G1 F888 X11.559 Y-15 E349.79042
G0 F6000 X11.499 Y-15.66
G1 F888 X11.249 Y-15.932 E349.80741
G1 X10.749 Y-15.66 E349.82436
G1 X10.249 Y-15.933 E349.84136
G1 X9.749 Y-15.66 E349.85832
G1 X9.499 Y-15.934 E349.8815
G0 F6000 X7.999 Y-15.935
G1 F888 X7.749 Y-15.66 E349.89862
G1 X7.249 Y-15.935 E349.91571
G1 X6.749 Y-15.661 E349.93284
G1 X6.249 Y-15.936 E349.94993
G1 X5.749 Y-15.661 E349.96707
G1 X5.249 Y-15.937 E349.98425
G1 X4.749 Y-15.661 E350.00148
G1 X4.249 Y-15.937 E350.01866
G1 X3.749 Y-15.661 E350.03588
G1 X3.499 Y-15.938 E350.0592
G0 F6000 X3.336 Y-15.779
G1 F888 X-9.073 Y5.715 E351.60692
G0 F6000 X-9 Y5.609
G1 F888 X-8.75 Y6.217 E351.63822
G1 X-8.249 Y6.871 E351.66687
G1 X-7.749 Y7.448 E351.69294
G1 X-7.249 Y7.967 E351.71772
G1 X-6.999 Y8.403 E351.74903
G0 F6000 X-6.626 Y8.522
G1 F888 X-11.095 Y0.782 E352.30643
G0 F6000 X-11 Y0.648
G1 F888 X-11 Y1.888 E352.38376
G0 F6000 X-10.5 Y2.554
G1 F888 X-10.25 Y3.576 E352.43362
G1 X-9.75 Y4.609 E352.47325
G1 X-9.5 Y5.348 E352.52189
G0 F6000 X-9.515 Y5
G1 F888 X11.56 Y4.999 E353.83612
G0 F6000 X11.559 Y0.022
G0 X11.559 Y0.022
G1 F888 X2.438 Y-15.776 E354.97374
G0 F6000 X2.499 Y-15.66
G1 F888 X2.749 Y-15.939 E354.9912
G1 X2.999 Y-15.661 E355.01447
G0 F6000 X1.999 Y-15.642
G1 F888 X1.749 Y-15.91 E355.03197
G1 X1.249 Y-15.595 E355.04942
G1 X0.749 Y-15.821 E355.06688
G1 X0.249 Y-15.466 E355.08446
G1 X-0.25 Y-15.66 E355.10223
G1 X-0.75 Y-15.26 E355.12013
G1 X-1.25 Y-15.419 E355.13823
G1 X-1.75 Y-15.125 E355.15647
G1 X-2 Y-14.899 E355.1775
G0 F6000 X-11.5 Y-2.68
G0 X-11.5 Y-2.68
G1 F888 X-11.5 Y-1.071 E355.27777
G0 F6000 X-6.499 Y8.475
G0 X-6.499 Y8.475
G1 F888 X-6.249 Y8.864 E355.30076
G1 X-5.749 Y9.252 E355.32299
G1 X-5.499 Y9.604 E355.34988
; LAYER:6
G0 F6000 X-5.927 Y9.567 Z2.1
; TYPE:WALL-INNER
G1 F840 X-6.556 Y9.078 E355.39962
G1 X-7.104 Y8.603 E355.44489
G1 X-7.827 Y7.901 E355.50778
G1 X-8.328 Y7.345 E355.55449
G1 X-8.784 Y6.78 E355.59981
G1 X-9.137 Y6.296 E355.63721
G1 X-9.56 Y5.661 E355.68483
G1 X-9.99 Y4.929 E355.7378
G1 X-10.312 Y4.305 E355.78162
G1 X-10.621 Y3.622 E355.82839
G1 X-10.895 Y2.919 E355.87547
G1 X-11.135 Y2.195 E355.92306
G1 X-11.347 Y1.417 E355.97336
G1 X-11.506 Y0.662 E356.02149
G1 X-11.636 Y-0.174 E356.07426
G1 X-11.721 Y-1.078 E356.13095
G1 X-11.738 Y-1.61 E356.16421
G1 X-11.733 Y-2.382 E356.21242
G1 X-11.685 Y-3.169 E356.26165
G1 X-11.586 Y-4.024 E356.31538
G1 X-11.423 Y-4.928 E356.37272
G1 X-11.241 Y-5.667 E356.42022
G1 X-11.017 Y-6.408 E356.46854
G1 X-10.765 Y-7.099 E356.51445
G1 X-10.54 Y-7.638 E356.55091
G1 X-10.208 Y-8.341 E356.59942
G1 X-9.83 Y-9.039 E356.64895
G1 X-9.31 Y-9.879 E356.71058
G1 X-8.858 Y-10.511 E356.75905
G1 X-8.531 Y-10.919 E356.79167
G1 X-7.93 Y-11.613 E356.84892
G1 X-7.492 Y-12.061 E356.888
G1 X-6.908 Y-12.604 E356.93773
G1 X-6.33 Y-13.086 E356.98465
G1 X-5.534 Y-13.675 E357.04639
G1 X-5.062 Y-13.98 E357.08142
G1 X-4.401 Y-14.37 E357.12926
G1 X-3.635 Y-14.765 E357.18298
G1 X-2.784 Y-15.141 E357.24097
G1 X-2.056 Y-15.41 E357.28933
G1 X-1.322 Y-15.636 E357.33719
G1 X-0.646 Y-15.805 E357.38059
G1 X-0.028 Y-15.928 E357.41984
G1 X0.71 Y-16.042 E357.46636
G1 X1.535 Y-16.121 E357.51805
G1 X2.261 Y-16.152 E357.56337
G1 X11.75 Y-16.158 E358.15513
G1 X11.75 Y15.343 E360.11956
G1 X11.024 Y14.844 E360.17449
G1 X10.309 Y14.41 E360.22666
G1 X9.64 Y14.05 E360.27403
G1 X8.92 Y13.706 E360.3238
G1 X7.97 Y13.314 E360.38789
G1 X6.951 Y12.981 E360.45474
G1 X6.448 Y12.837 E360.48737
G1 X5.901 Y12.71 E360.52239
G1 X5.11 Y12.556 E360.57264
G1 X4.098 Y12.416 E360.63636
G1 X3.298 Y12.355 E360.68639
G1 X1.943 Y12.319 E360.77092
G1 X1.183 Y12.269 E360.81842
G1 X0.308 Y12.162 E360.8734
G1 X-0.328 Y12.046 E360.91371
G1 X-1.094 Y11.868 E360.96282
G1 X-1.835 Y11.654 E361.01097
G1 X-2.543 Y11.406 E361.05782
G1 X-3.467 Y11.022 E361.12028
G1 X-3.958 Y10.78 E361.15447
G1 X-4.76 Y10.342 E361.21151
G1 X-5.276 Y10.018 E361.24956
G1 X-5.927 Y9.567 E361.299
G0 F6000 X-6.22 Y9.973
; TYPE:WALL-OUTER
G1 F735 X-6.873 Y9.465 E361.35064
G1 X-7.451 Y8.964 E361.39839
G1 X-8.178 Y8.257 E361.46168
G1 X-8.709 Y7.669 E361.51113
G1 X-9.182 Y7.083 E361.55813
G1 X-9.543 Y6.588 E361.59638
G1 X-9.984 Y5.927 E361.64597
G1 X-10.429 Y5.169 E361.70081
G1 X-10.756 Y4.535 E361.74533
G1 X-11.09 Y3.797 E361.79587
G1 X-11.366 Y3.089 E361.84328
G1 X-11.618 Y2.329 E361.89324
G1 X-11.831 Y1.543 E361.94404
G1 X-11.998 Y0.751 E361.99453
G1 X-12.133 Y-0.116 E362.04926
G1 X-12.22 Y-1.047 E362.10764
G1 X-12.238 Y-1.584 E362.14121
G1 X-12.233 Y-2.399 E362.1921
G1 X-12.183 Y-3.212 E362.24295
G1 X-12.082 Y-4.089 E362.29806
G1 X-11.914 Y-5.021 E362.35717
G1 X-11.72 Y-5.812 E362.40801
G1 X-11.492 Y-6.565 E362.45711
G1 X-11.239 Y-7.26 E362.50328
G1 X-11.001 Y-7.832 E362.54195
G1 X-10.659 Y-8.557 E362.59197
G1 X-10.255 Y-9.302 E362.64484
G1 X-9.722 Y-10.163 E362.70801
G1 X-9.258 Y-10.811 E362.75773
G1 X-8.917 Y-11.237 E362.79177
G1 X-8.308 Y-11.94 E362.84978
G1 X-7.83 Y-12.429 E362.89243
G1 X-7.254 Y-12.966 E362.94153
G1 X-6.641 Y-13.477 E362.9913
G1 X-5.818 Y-14.086 E363.05513
G1 X-5.321 Y-14.408 E363.09204
G1 X-4.641 Y-14.809 E363.14125
G1 X-3.86 Y-15.212 E363.19603
G1 X-2.977 Y-15.603 E363.25622
G1 X-2.213 Y-15.885 E363.30698
G1 X-1.46 Y-16.117 E363.35607
G1 X-0.751 Y-16.294 E363.4016
G1 X-0.132 Y-16.418 E363.44092
G1 X0.657 Y-16.539 E363.49065
G1 X1.485 Y-16.619 E363.54253
G1 X2.264 Y-16.652 E363.59116
G1 X12.25 Y-16.659 E364.21391
G1 X12.25 Y16.37 E366.27363
G1 X11.957 Y16.125 E366.29745
G1 X11.392 Y15.7 E366.34154
G1 X10.753 Y15.265 E366.38974
G1 X10.061 Y14.844 E366.44026
G1 X9.413 Y14.496 E366.48613
G1 X8.717 Y14.163 E366.53424
G1 X7.797 Y13.783 E366.59632
G1 X6.804 Y13.459 E366.66146
G1 X6.323 Y13.321 E366.69267
G1 X5.797 Y13.199 E366.72634
G1 X5.028 Y13.049 E366.7752
G1 X4.045 Y12.913 E366.83709
G1 X3.273 Y12.854 E366.88537
G1 X1.93 Y12.819 E366.96915
G1 X1.143 Y12.768 E367.01833
G1 X0.228 Y12.656 E367.07582
G1 X-0.428 Y12.536 E367.11741
G1 X-1.217 Y12.353 E367.16798
G1 X-1.992 Y12.129 E367.21835
G1 X-2.727 Y11.871 E367.26699
G1 X-3.676 Y11.477 E367.33113
G1 X-4.185 Y11.226 E367.36657
G1 X-5.005 Y10.778 E367.4249
G1 X-5.563 Y10.428 E367.46603
G1 X-6.22 Y9.973 E367.51592
G0 F6000 X-5.543 Y9.6
; TYPE:FILL
G1 F840 X9.218 Y-15.966 E369.35692
G0 F6000 X8.103 Y-15.964
G1 F840 X11.559 Y-9.977 E369.78797
G0 F6000 X11.56 Y-10
G1 F840 X-8.99 Y-10 E371.06953
G0 F6000 X-10.263 Y-7.777
G0 X-10.263 Y-7.777
G1 F840 X1.2 Y12.079 E372.49925
G0 F6000 X-0.979 Y11.697
G0 X-0.979 Y11.697
G1 F840 X11.559 Y-10.021 E374.06311
G0 F6000 X11.559 Y-15
G0 X11.559 Y-15
G1 F840 X-2.616 Y-15 E374.9471
G0 F6000 X-2.834 Y-14.91
G1 F840 X11.559 Y10.021 E376.74228
G0 F6000 X11.559 Y10
G1 F840 X-4.946 Y10 E377.77158
G0 F6000 X-6.355 Y8.992
G0 X-6.355 Y8.992
G1 F840 X-11.367 Y0.31 E378.39678
G0 F6000 X-11.417 Y0
G1 F840 X11.559 Y0 E379.82957
G0 F6000 X11.559 Y0.022
G1 F840 X2.332 Y-15.96 E380.98043
G0 F6000 X3.441 Y-15.961
G1 F840 X-9.175 Y5.892 E382.55399
G0 F6000 X-9.727 Y5
G1 F840 X11.559 Y4.999 E383.88138
G0 F6000 X11.559 Y9.977
G0 X11.559 Y9.977
G1 F840 X9.397 Y13.722 E384.15106
G0 F6000 X7.478 Y12.953
G0 X7.478 Y12.953
G1 F840 X-7.05 Y-12.211 E385.96311
G0 F6000 X-2.974 Y-14.848
G0 X-2.974 Y-14.848
G1 F840 X-11.444 Y-0.177 E387.01954
G0 F6000 X-11.21 Y-4.999
G0 X-11.21 Y-4.999
G1 F840 X11.56 Y-5 E388.43948
G0 F6000 X11.559 Y-0.022
G0 X11.559 Y-0.022
G1 F840 X4.46 Y12.273 E389.32481
; LAYER:7
G0 F6000 X4.096 Y12.418 Z2.4
; TYPE:WALL-INNER
G1 F840 X3.299 Y12.357 E389.37465
G1 X1.735 Y12.316 E389.47222
G1 X0.952 Y12.252 E389.52122
G1 X0.352 Y12.17 E389.55898
G1 X-0.562 Y12.003 E389.61692
G1 X-1.299 Y11.82 E389.66434
G1 X-2.041 Y11.593 E389.71279
G1 X-2.752 Y11.333 E389.76006
G1 X-3.457 Y11.029 E389.808
G1 X-4.158 Y10.685 E389.85675
G1 X-4.73 Y10.362 E389.89777
G1 X-5.465 Y9.901 E389.95193
G1 X-6.094 Y9.452 E390.00018
G1 X-6.691 Y8.974 E390.04792
G1 X-7.266 Y8.462 E390.09598
G1 X-7.819 Y7.912 E390.14466
G1 X-8.324 Y7.352 E390.19173
G1 X-8.77 Y6.801 E390.23598
G1 X-9.264 Y6.123 E390.28833
G1 X-9.679 Y5.481 E390.33604
G1 X-10.065 Y4.804 E390.38467
G1 X-10.403 Y4.129 E390.43177
G1 X-10.724 Y3.39 E390.48204
G1 X-10.984 Y2.691 E390.52858
G1 X-11.198 Y2.003 E390.57353
G1 X-11.403 Y1.205 E390.62492
G1 X-11.547 Y0.47 E390.67164
G1 X-11.633 Y-0.143 E390.71026
G1 X-11.699 Y-0.769 E390.74958
G1 X-11.744 Y-1.637 E390.80385
G1 X-11.731 Y-2.584 E390.86297
G1 X-11.667 Y-3.425 E390.91563
G1 X-11.598 Y-3.941 E390.94815
G1 X-11.434 Y-4.881 E391.00771
G1 X-11.245 Y-5.662 E391.05786
G1 X-11.011 Y-6.434 E391.10821
G1 X-10.788 Y-7.042 E391.14864
G1 X-10.453 Y-7.847 E391.20304
G1 X-10.12 Y-8.527 E391.25029
G1 X-9.717 Y-9.244 E391.30161
G1 X-9.329 Y-9.854 E391.34671
G1 X-8.879 Y-10.488 E391.39521
G1 X-8.399 Y-11.088 E391.44314
G1 X-8 Y-11.537 E391.4806
G1 X-7.322 Y-12.233 E391.5412
G1 X-6.765 Y-12.737 E391.58804
G1 X-6.135 Y-13.244 E391.63846
G1 X-5.542 Y-13.671 E391.68402
G1 X-4.849 Y-14.119 E391.73546
G1 X-4.198 Y-14.488 E391.78211
G1 X-3.703 Y-14.734 E391.81655
G1 X-2.792 Y-15.141 E391.87874
G1 X-2.062 Y-15.411 E391.92724
G1 X-1.313 Y-15.642 E391.97608
G1 X-0.669 Y-15.801 E392.01741
G1 X0.193 Y-15.974 E392.07219
G1 X0.949 Y-16.076 E392.11977
G1 X1.83 Y-16.142 E392.17487
G1 X2.52 Y-16.161 E392.21792
G1 X11.75 Y-16.159 E392.79352
G1 X11.75 Y15.349 E394.75839
G1 X11.517 Y15.174 E394.77656
G1 X10.847 Y14.731 E394.82665
G1 X10.367 Y14.447 E394.86143
G1 X9.454 Y13.956 E394.92608
G1 X8.725 Y13.618 E394.97619
G1 X7.978 Y13.319 E395.02637
G1 X7.225 Y13.062 E395.07599
G1 X6.456 Y12.841 E395.12589
G1 X5.677 Y12.66 E395.17576
G1 X4.885 Y12.518 E395.22594
G1 X4.096 Y12.418 E395.27554
G0 F6000 X4.045 Y12.915
; TYPE:WALL-OUTER
G1 F735 X3.274 Y12.856 E395.32376
G1 X1.699 Y12.815 E395.42202
G1 X0.917 Y12.751 E395.47095
G1 X0.259 Y12.662 E395.51235
G1 X-0.663 Y12.493 E395.57081
G1 X-1.436 Y12.301 E395.62054
G1 X-2.184 Y12.072 E395.66939
G1 X-2.941 Y11.795 E395.71972
G1 X-3.674 Y11.48 E395.76953
G1 X-4.378 Y11.134 E395.8185
G1 X-4.988 Y10.79 E395.86223
G1 X-5.755 Y10.309 E395.91874
G1 X-6.393 Y9.854 E395.96766
G1 X-7.013 Y9.357 E396.01727
G1 X-7.617 Y8.819 E396.06775
G1 X-8.171 Y8.267 E396.11657
G1 X-8.712 Y7.668 E396.16695
G1 X-9.163 Y7.111 E396.21168
G1 X-9.672 Y6.413 E396.26559
G1 X-10.112 Y5.733 E396.31614
G1 X-10.501 Y5.049 E396.36524
G1 X-10.86 Y4.331 E396.41533
G1 X-11.189 Y3.575 E396.46677
G1 X-11.455 Y2.859 E396.51443
G1 X-11.684 Y2.125 E396.5624
G1 X-11.891 Y1.316 E396.61449
G1 X-12.04 Y0.552 E396.66304
G1 X-12.128 Y-0.073 E396.70241
G1 X-12.198 Y-0.731 E396.74375
G1 X-12.244 Y-1.637 E396.80039
G1 X-12.231 Y-2.616 E396.86151
G1 X-12.166 Y-3.46 E396.91435
G1 X-12.089 Y-4.037 E396.95071
G1 X-11.926 Y-4.971 E397.00989
G1 X-11.725 Y-5.802 E397.06325
G1 X-11.489 Y-6.581 E397.11405
G1 X-11.25 Y-7.234 E397.15746
G1 X-10.912 Y-8.047 E397.2124
G1 X-10.556 Y-8.772 E397.2628
G1 X-10.148 Y-9.497 E397.3147
G1 X-9.752 Y-10.121 E397.36081
G1 X-9.269 Y-10.801 E397.41284
G1 X-8.783 Y-11.409 E397.46139
G1 X-8.368 Y-11.876 E397.50036
G1 X-7.67 Y-12.592 E397.56272
G1 X-7.089 Y-13.118 E397.61159
G1 X-6.435 Y-13.645 E397.66396
G1 X-5.831 Y-14.08 E397.71036
G1 X-5.107 Y-14.547 E397.76407
G1 X-4.427 Y-14.933 E397.81281
G1 X-3.916 Y-15.187 E397.84837
G1 X-2.989 Y-15.601 E397.91165
G1 X-2.216 Y-15.887 E397.96302
G1 X-1.455 Y-16.121 E398.01263
G1 X-0.781 Y-16.288 E398.05588
G1 X0.107 Y-16.466 E398.11231
G1 X0.909 Y-16.575 E398.1628
G1 X1.802 Y-16.642 E398.21865
G1 X2.507 Y-16.661 E398.26263
G1 X12.25 Y-16.659 E398.87023
G1 X12.25 Y16.367 E400.92976
G1 X11.228 Y15.583 E401.01009
G1 X10.582 Y15.155 E401.05842
G1 X10.121 Y14.882 E401.09183
G1 X9.23 Y14.403 E401.15491
G1 X8.527 Y14.077 E401.20324
G1 X7.804 Y13.788 E401.2518
G1 X7.075 Y13.539 E401.29984
G1 X6.33 Y13.325 E401.34818
G1 X5.576 Y13.15 E401.39645
G1 X4.809 Y13.013 E401.44504
G1 X4.045 Y12.915 E401.49307
G0 F6000 X4.461 Y12.272
; TYPE:FILL
G1 F840 X11.559 Y-0.021 E402.37832
G0 F6000 X11.559 Y0
G1 F840 X-11.421 Y0 E403.81141
G0 F6000 X-11.445 Y-0.176
G1 F840 X-2.972 Y-14.851 E404.8682
G0 F6000 X-2.836 Y-14.912
G1 F840 X11.559 Y10.02 E406.66349
G0 F6000 X11.559 Y10
G1 F840 X-4.949 Y10 E407.69297
G0 F6000 X-5.547 Y9.608
G1 F840 X9.22 Y-15.969 E409.53475
G0 F6000 X8.1 Y-15.968
G1 F840 X11.559 Y-9.978 E409.96606
G0 F6000 X11.56 Y-10
G1 F840 X-8.992 Y-10 E411.24774
G0 F6000 X-10.269 Y-7.787
G0 X-10.269 Y-7.787
G1 F840 X1.201 Y12.081 E412.67833
G0 F6000 X-0.982 Y11.702
G0 X-0.982 Y11.702
G1 F840 X11.559 Y-10.02 E414.2425
G0 F6000 X11.559 Y-15
G0 X11.559 Y-15
G1 F840 X-2.626 Y-15 E415.12712
G0 F6000 X2.329 Y-15.964
G0 X2.329 Y-15.964
G1 F840 X11.559 Y0.021 E416.27818
G0 F6000 X11.559 Y4.999
G0 X11.559 Y4.999
G1 F840 X-9.734 Y5 E417.60607
G0 F6000 X-9.18 Y5.9
G1 F840 X3.446 Y-15.97 E419.18089
G0 F6000 X-7.054 Y-12.218
G0 X-7.054 Y-12.218
G1 F840 X7.473 Y12.945 E420.99277
G0 F6000 X9.399 Y13.719
G0 X9.399 Y13.719
G1 F840 X11.559 Y9.977 E421.26222
G0 F6000 X11.56 Y-5
G0 X11.56 Y-5
G1 F840 X-11.21 Y-4.999 E422.68222
G0 F6000 X-11.378 Y0.291
G0 X-11.378 Y0.291
G1 F840 X-6.347 Y9.006 E423.30974
; LAYER:8
G0 F6000 X-6.696 Y8.971 Z2.7
; TYPE:WALL-INNER
G1 F840 X-7.251 Y8.477 E423.35612
G1 X-7.802 Y7.929 E423.40463
G1 X-8.325 Y7.35 E423.45333
G1 X-8.762 Y6.811 E423.49664
G1 X-9.255 Y6.138 E423.5487
G1 X-9.675 Y5.487 E423.59705
G1 X-10.058 Y4.818 E423.64516
G1 X-10.4 Y4.133 E423.69293
G1 X-10.722 Y3.396 E423.74311
G1 X-10.98 Y2.701 E423.78937
G1 X-11.207 Y1.975 E423.83682
G1 X-11.397 Y1.234 E423.88454
G1 X-11.55 Y0.457 E423.93394
G1 X-11.65 Y-0.245 E423.97817
G1 X-11.729 Y-1.239 E424.04042
G1 X-11.741 Y-1.823 E424.07691
G1 X-11.733 Y-2.535 E424.12138
G1 X-11.666 Y-3.44 E424.17803
G1 X-11.593 Y-3.968 E424.21132
G1 X-11.446 Y-4.824 E424.26554
G1 X-11.254 Y-5.63 E424.31726
G1 X-11.005 Y-6.45 E424.37074
G1 X-10.788 Y-7.041 E424.41004
G1 X-10.468 Y-7.812 E424.46213
G1 X-10.108 Y-8.548 E424.51326
G1 X-9.716 Y-9.244 E424.5631
G1 X-9.356 Y-9.812 E424.60505
G1 X-8.891 Y-10.47 E424.65531
G1 X-8.402 Y-11.082 E424.70418
G1 X-7.973 Y-11.569 E424.74466
G1 X-7.345 Y-12.211 E424.80066
G1 X-6.772 Y-12.731 E424.84892
G1 X-6.142 Y-13.24 E424.89942
G1 X-5.553 Y-13.664 E424.94466
G1 X-4.835 Y-14.126 E424.99789
G1 X-4.186 Y-14.495 E425.04442
G1 X-3.713 Y-14.73 E425.07733
G1 X-2.825 Y-15.126 E425.13793
G1 X-2.05 Y-15.415 E425.18948
G1 X-1.319 Y-15.639 E425.23712
G1 X-0.67 Y-15.801 E425.27879
G1 X0.19 Y-15.973 E425.33343
G1 X0.964 Y-16.078 E425.38215
G1 X1.418 Y-16.115 E425.41056
G1 X2.507 Y-16.161 E425.47854
G1 X11.75 Y-16.159 E426.05496
G1 X11.75 Y15.348 E428.01976
G1 X11.536 Y15.187 E428.03646
G1 X10.866 Y14.744 E428.08655
G1 X10.368 Y14.447 E428.12271
G1 X9.47 Y13.964 E428.1863
G1 X8.74 Y13.625 E428.23649
G1 X7.989 Y13.324 E428.28695
G1 X7.237 Y13.066 E428.33653
G1 X6.465 Y12.844 E428.38663
G1 X5.686 Y12.662 E428.43651
G1 X4.897 Y12.52 E428.48651
G1 X4.101 Y12.419 E428.53655
G1 X3.302 Y12.357 E428.58653
G1 X1.717 Y12.315 E428.68541
G1 X0.973 Y12.254 E428.73196
G1 X0.349 Y12.17 E428.77122
G1 X-0.555 Y12.004 E428.82854
G1 X-1.296 Y11.821 E428.8762
G1 X-2.026 Y11.598 E428.92386
G1 X-2.754 Y11.332 E428.97226
G1 X-3.446 Y11.036 E429.01925
G1 X-4.152 Y10.688 E429.0684
G1 X-4.72 Y10.368 E429.10911
G1 X-5.463 Y9.902 E429.16385
G1 X-6.089 Y9.455 E429.21187
G1 X-6.696 Y8.971 E429.26034
G0 F6000 X-7.005 Y9.364
; TYPE:WALL-OUTER
G1 F735 X-7.61 Y8.826 E429.31087
G1 X-8.163 Y8.275 E429.3596
G1 X-8.704 Y7.676 E429.40998
G1 X-9.151 Y7.125 E429.45427
G1 X-9.673 Y6.413 E429.50936
G1 X-10.104 Y5.745 E429.55897
G1 X-10.497 Y5.057 E429.60841
G1 X-10.853 Y4.345 E429.65809
G1 X-11.19 Y3.573 E429.71064
G1 X-11.453 Y2.863 E429.75788
G1 X-11.684 Y2.124 E429.80618
G1 X-11.889 Y1.326 E429.85758
G1 X-12.041 Y0.554 E429.90666
G1 X-12.148 Y-0.197 E429.95398
G1 X-12.228 Y-1.207 E430.01723
G1 X-12.241 Y-1.828 E430.05603
G1 X-12.233 Y-2.565 E430.10205
G1 X-12.164 Y-3.483 E430.15952
G1 X-12.088 Y-4.036 E430.19439
G1 X-11.939 Y-4.911 E430.24979
G1 X-11.733 Y-5.775 E430.30523
G1 X-11.483 Y-6.599 E430.35897
G1 X-11.25 Y-7.233 E430.40113
G1 X-10.93 Y-8.004 E430.45322
G1 X-10.551 Y-8.78 E430.50711
G1 X-10.139 Y-9.511 E430.55946
G1 X-9.768 Y-10.096 E430.60268
G1 X-9.286 Y-10.78 E430.65488
G1 X-8.793 Y-11.395 E430.70404
G1 X-8.343 Y-11.904 E430.74642
G1 X-7.685 Y-12.577 E430.80512
G1 X-7.095 Y-13.113 E430.85482
G1 X-6.441 Y-13.641 E430.90723
G1 X-5.827 Y-14.083 E430.9544
G1 X-5.099 Y-14.552 E431.00838
G1 X-4.422 Y-14.936 E431.0569
G1 X-3.916 Y-15.187 E431.0921
G1 X-3.013 Y-15.59 E431.15373
G1 X-2.219 Y-15.886 E431.20654
G1 X-1.457 Y-16.12 E431.25621
G1 X-0.787 Y-16.287 E431.29923
G1 X0.104 Y-16.465 E431.35584
G1 X0.91 Y-16.575 E431.40658
G1 X1.385 Y-16.614 E431.43631
G1 X2.51 Y-16.661 E431.50653
G1 X12.25 Y-16.659 E432.11394
G1 X12.25 Y16.367 E434.17347
G1 X12.004 Y16.165 E434.19332
G1 X11.247 Y15.596 E434.25238
G1 X10.6 Y15.167 E434.30079
G1 X10.121 Y14.882 E434.33555
G1 X9.246 Y14.411 E434.39752
G1 X8.541 Y14.084 E434.44599
G1 X7.815 Y13.793 E434.49476
G1 X7.087 Y13.543 E434.54277
G1 X6.339 Y13.328 E434.5913
G1 X5.585 Y13.152 E434.63959
G1 X4.821 Y13.015 E434.68799
G1 X4.05 Y12.916 E434.73647
G1 X3.276 Y12.856 E434.78488
G1 X1.699 Y12.815 E434.88326
G1 X0.919 Y12.751 E434.93207
G1 X0.256 Y12.661 E434.97379
G1 X-0.652 Y12.495 E435.03136
G1 X-1.432 Y12.302 E435.08153
G1 X-2.181 Y12.074 E435.13041
G1 X-2.94 Y11.796 E435.18088
G1 X-3.67 Y11.483 E435.23047
G1 X-4.372 Y11.137 E435.27933
G1 X-4.988 Y10.79 E435.32348
G1 X-5.742 Y10.317 E435.37904
G1 X-6.395 Y9.851 E435.42912
G1 X-7.005 Y9.364 E435.47785
G0 F6000 X-6.347 Y9.005
; TYPE:FILL
G1 F840 X-11.38 Y0.287 E436.10565
G0 F6000 X-11.423 Y0
G1 F840 X11.559 Y0 E437.53881
G0 F6000 X11.559 Y0.022
G1 F840 X2.331 Y-15.962 E438.68981
G0 F6000 X3.446 Y-15.97
G1 F840 X-9.18 Y5.9 E440.2646
G0 F6000 X-9.734 Y5
G1 F840 X11.559 Y4.999 E441.59243
G0 F6000 X11.559 Y9.977
G0 X11.559 Y9.977
G1 F840 X9.398 Y13.72 E441.86197
G0 F6000 X7.473 Y12.945
G0 X7.473 Y12.945
G1 F840 X-7.053 Y-12.217 E443.67385
G0 F6000 X-8.991 Y-10
G0 X-8.991 Y-10
G1 F840 X11.56 Y-10 E444.9554
G0 F6000 X11.559 Y-10.02
G1 F840 X-0.982 Y11.702 E446.51955
G0 F6000 X1.201 Y12.081
G0 X1.201 Y12.081
G1 F840 X-10.268 Y-7.784 E447.95003
G0 F6000 X-11.209 Y-4.999
G0 X-11.209 Y-4.999
G1 F840 X11.56 Y-5 E449.36991
G0 F6000 X11.559 Y-9.978
G0 X11.559 Y-9.978
G1 F840 X8.1 Y-15.968 E449.80133
G0 F6000 X9.22 Y-15.969
G1 F840 X-5.547 Y9.607 E451.64303
G0 F6000 X-4.948 Y10
G1 F840 X11.559 Y10 E452.67239
G0 F6000 X11.559 Y10.021
G1 F840 X-2.836 Y-14.913 E454.46787
G0 F6000 X-2.971 Y-14.852
G1 F840 X-11.446 Y-0.173 E455.52489
G0 F6000 X-2.622 Y-15
G0 X-2.622 Y-15
G1 F840 X11.559 Y-15 E456.4092
G0 F6000 X11.559 Y-0.022
G0 X11.559 Y-0.022
G1 F840 X4.461 Y12.272 E457.29444
; LAYER:9
G0 F6000 X4.105 Y12.419 Z3
; TYPE:WALL-INNER
G1 F840 X3.304 Y12.357 E457.34454
G1 X1.735 Y12.316 E457.44242
G1 X0.957 Y12.253 E457.4911
G1 X0.346 Y12.17 E457.52955
G1 X-0.552 Y12.005 E457.58649
G1 X-1.293 Y11.822 E457.63415
G1 X-2.012 Y11.603 E457.68108
G1 X-2.753 Y11.332 E457.73035
G1 X-3.447 Y11.034 E457.7775
G1 X-4.133 Y10.697 E457.82522
G1 X-4.731 Y10.361 E457.86805
G1 X-5.46 Y9.904 E457.92176
G1 X-6.081 Y9.461 E457.96939
G1 X-6.678 Y8.986 E458.01701
G1 X-7.262 Y8.466 E458.06582
G1 X-7.796 Y7.936 E458.11279
G1 X-8.31 Y7.368 E458.1606
G1 X-8.747 Y6.83 E458.20387
G1 X-9.248 Y6.148 E458.25668
G1 X-9.668 Y5.499 E458.30492
G1 X-10.066 Y4.803 E458.35495
G1 X-10.39 Y4.156 E458.40011
G1 X-10.725 Y3.388 E458.45238
G1 X-10.978 Y2.707 E458.49771
G1 X-11.2 Y1.997 E458.54412
G1 X-11.396 Y1.231 E458.59344
G1 X-11.547 Y0.47 E458.64184
G1 X-11.683 Y-0.606 E458.70948
G1 X-11.732 Y-1.737 E458.78015
G1 X-11.735 Y-2.49 E458.82717
G1 X-11.663 Y-3.456 E458.88764
G1 X-11.458 Y-4.764 E458.97025
G1 X-11.253 Y-5.633 E459.02598
G1 X-10.998 Y-6.471 E459.08065
G1 X-10.777 Y-7.068 E459.12039
G1 X-10.483 Y-7.779 E459.1684
G1 X-10.118 Y-8.53 E459.2205
G1 X-9.819 Y-9.059 E459.25842
G1 X-9.373 Y-9.785 E459.31158
G1 X-8.897 Y-10.461 E459.36315
G1 X-8.434 Y-11.043 E459.40954
G1 X-7.971 Y-11.569 E459.45325
G1 X-7.352 Y-12.204 E459.50855
G1 X-6.796 Y-12.709 E459.55539
G1 X-6.126 Y-13.251 E459.60912
G1 X-5.548 Y-13.668 E459.65356
G1 X-4.848 Y-14.12 E459.7055
G1 X-4.177 Y-14.5 E459.75357
G1 X-3.67 Y-14.751 E459.78882
G1 X-2.854 Y-15.114 E459.84448
G1 X-2.045 Y-15.416 E459.8983
G1 X-1.316 Y-15.64 E459.94582
G1 X-0.67 Y-15.801 E459.98729
G1 X0.192 Y-15.974 E460.04207
G1 X0.963 Y-16.078 E460.0906
G1 X1.42 Y-16.116 E460.1192
G1 X2.507 Y-16.161 E460.18705
G1 X11.75 Y-16.159 E460.76347
G1 X11.75 Y15.348 E462.72827
G1 X11.556 Y15.202 E462.74341
G1 X10.884 Y14.755 E462.79374
G1 X10.168 Y14.33 E462.84567
G1 X9.483 Y13.971 E462.8939
G1 X8.755 Y13.632 E462.94398
G1 X8 Y13.328 E462.99474
G1 X7.249 Y13.07 E463.04426
G1 X6.475 Y12.846 E463.09451
G1 X5.694 Y12.664 E463.14452
G1 X4.903 Y12.522 E463.19464
G1 X4.105 Y12.419 E463.24481
G0 F6000 X4.054 Y12.916
; TYPE:WALL-OUTER
G1 F735 X3.278 Y12.856 E463.29335
G1 X1.7 Y12.815 E463.39179
G1 X0.92 Y12.752 E463.4406
G1 X0.253 Y12.661 E463.48258
G1 X-0.649 Y12.496 E463.53976
G1 X-1.429 Y12.303 E463.58993
G1 X-2.177 Y12.075 E463.63876
G1 X-2.926 Y11.801 E463.68855
G1 X-3.663 Y11.485 E463.73862
G1 X-4.366 Y11.14 E463.78751
G1 X-4.988 Y10.79 E463.83207
G1 X-5.735 Y10.322 E463.8871
G1 X-6.387 Y9.857 E463.93709
G1 X-6.998 Y9.37 E463.98587
G1 X-7.602 Y8.833 E464.03631
G1 X-8.157 Y8.282 E464.08513
G1 X-8.688 Y7.694 E464.13458
G1 X-9.146 Y7.131 E464.17988
G1 X-9.665 Y6.424 E464.23461
G1 X-10.096 Y5.758 E464.28412
G1 X-10.5 Y5.052 E464.33488
G1 X-10.841 Y4.372 E464.38235
G1 X-11.193 Y3.565 E464.43728
G1 X-11.451 Y2.869 E464.48359
G1 X-11.684 Y2.124 E464.53229
G1 X-11.886 Y1.336 E464.58303
G1 X-12.038 Y0.567 E464.63193
G1 X-12.128 Y-0.059 E464.67138
G1 X-12.183 Y-0.581 E464.70418
G1 X-12.232 Y-1.735 E464.77628
G1 X-12.235 Y-2.518 E464.82517
G1 X-12.161 Y-3.506 E464.88702
G1 X-11.947 Y-4.868 E464.97305
G1 X-11.737 Y-5.761 E465.0303
G1 X-11.473 Y-6.63 E465.08698
G1 X-11.249 Y-7.234 E465.12719
G1 X-10.943 Y-7.976 E465.17728
G1 X-10.56 Y-8.763 E465.23189
G1 X-10.245 Y-9.321 E465.27188
G1 X-9.789 Y-10.063 E465.32621
G1 X-9.3 Y-10.757 E465.37917
G1 X-8.811 Y-11.372 E465.42818
G1 X-8.343 Y-11.904 E465.47237
G1 X-7.701 Y-12.562 E465.5297
G1 X-7.111 Y-13.098 E465.57941
G1 X-6.435 Y-13.645 E465.63363
G1 X-5.837 Y-14.076 E465.67959
G1 X-5.108 Y-14.547 E465.73369
G1 X-4.406 Y-14.944 E465.78397
G1 X-3.881 Y-15.204 E465.82047
G1 X-3.036 Y-15.581 E465.87815
G1 X-2.215 Y-15.887 E465.93275
G1 X-1.454 Y-16.121 E465.98236
G1 X-0.787 Y-16.287 E466.02518
G1 X0.106 Y-16.466 E466.08193
G1 X0.911 Y-16.575 E466.1326
G1 X1.385 Y-16.614 E466.16226
G1 X2.51 Y-16.661 E466.23248
G1 X12.25 Y-16.659 E466.8399
G1 X12.25 Y16.369 E468.89955
G1 X12.004 Y16.166 E468.91944
G1 X11.267 Y15.61 E468.97701
G1 X10.618 Y15.178 E469.02563
G1 X9.924 Y14.767 E469.07593
G1 X9.261 Y14.419 E469.12263
G1 X8.556 Y14.091 E469.17112
G1 X7.825 Y13.797 E469.22026
G1 X7.098 Y13.547 E469.2682
G1 X6.349 Y13.33 E469.31683
G1 X5.593 Y13.154 E469.36524
G1 X4.826 Y13.016 E469.41384
G1 X4.054 Y12.916 E469.46238
G0 F6000 X4.461 Y12.272
; TYPE:FILL
G1 F840 X11.559 Y-0.022 E470.34768
G0 F6000 X11.559 Y0
G1 F840 X-11.415 Y0 E471.7804
G0 F6000 X-11.438 Y-0.188
G1 F840 X-2.97 Y-14.854 E472.83655
G0 F6000 X-2.836 Y-14.913
G1 F840 X11.559 Y10.021 E474.63195
G0 F6000 X11.559 Y10
G1 F840 X-4.948 Y10 E475.66137
G0 F6000 X-5.547 Y9.607
G1 F840 X9.22 Y-15.969 E477.50309
G0 F6000 X8.1 Y-15.968
G1 F840 X11.559 Y-9.978 E477.9344
G0 F6000 X11.56 Y-10
G1 F840 X-8.989 Y-10 E479.2159
G0 F6000 X-10.268 Y-7.785
G0 X-10.268 Y-7.785
G1 F840 X1.202 Y12.082 E480.64643
G0 F6000 X-0.982 Y11.702
G0 X-0.982 Y11.702
G1 F840 X11.559 Y-10.02 E482.2106
G0 F6000 X11.559 Y-15
G0 X11.559 Y-15
G1 F840 X-2.619 Y-15 E483.09478
G0 F6000 X2.33 Y-15.963
G0 X2.33 Y-15.963
G1 F840 X11.559 Y0.022 E484.24581
G0 F6000 X11.559 Y4.999
G0 X11.559 Y4.999
G1 F840 X-9.734 Y5 E485.5737
G0 F6000 X-9.18 Y5.9
G1 F840 X3.446 Y-15.97 E487.14852
G0 F6000 X-7.053 Y-12.217
G0 X-7.053 Y-12.217
G1 F840 X7.474 Y12.946 E488.9604
G0 F6000 X9.398 Y13.721
G0 X9.398 Y13.721
G1 F840 X11.559 Y9.977 E489.22999
G0 F6000 X11.56 Y-5
G0 X11.56 Y-5
G1 F840 X-11.208 Y-4.999 E490.64986
G0 F6000 X-11.376 Y0.294
G0 X-11.376 Y0.294
G1 F840 X-6.348 Y9.003 E491.27697
; LAYER:10
G0 F6000 X-6.502 Y9.126 Z3.3
; TYPE:WALL-INNER
G1 F840 X-7.255 Y8.473 E491.33917
G1 X-7.779 Y7.953 E491.38525
G1 X-8.313 Y7.364 E491.43487
G1 X-8.74 Y6.839 E491.47712
G1 X-9.243 Y6.154 E491.53015
G1 X-9.658 Y5.515 E491.5777
G1 X-10.055 Y4.824 E491.62743
G1 X-10.387 Y4.162 E491.67365
G1 X-10.729 Y3.379 E491.72695
G1 X-10.978 Y2.708 E491.77161
G1 X-11.202 Y1.989 E491.81859
G1 X-11.396 Y1.237 E491.86704
G1 X-11.542 Y0.506 E491.91354
G1 X-11.633 Y-0.126 E491.95337
G1 X-11.677 Y-0.577 E491.9817
G1 X-11.659 Y-0.996 E492.00791
G1 X-11.671 Y-1.467 E492.03736
G1 X-11.733 Y-2.428 E492.09748
G1 X-11.669 Y-3.378 E492.15692
G1 X-11.469 Y-4.707 E492.24078
G1 X-11.258 Y-5.614 E492.2989
G1 X-10.994 Y-6.483 E492.35558
G1 X-10.776 Y-7.067 E492.39449
G1 X-10.5 Y-7.741 E492.43995
G1 X-10.112 Y-8.539 E492.49531
G1 X-9.801 Y-9.091 E492.53485
G1 X-9.4 Y-9.743 E492.5826
G1 X-8.897 Y-10.461 E492.63729
G1 X-8.454 Y-11.019 E492.68173
G1 X-7.978 Y-11.562 E492.72677
G1 X-7.373 Y-12.181 E492.78075
G1 X-6.804 Y-12.701 E492.82882
G1 X-6.117 Y-13.258 E492.88396
G1 X-5.552 Y-13.665 E492.92737
G1 X-4.843 Y-14.123 E492.97999
G1 X-4.172 Y-14.502 E493.02803
G1 X-3.657 Y-14.757 E493.06384
G1 X-2.869 Y-15.108 E493.1176
G1 X-2.052 Y-15.414 E493.17197
G1 X-1.313 Y-15.641 E493.22014
G1 X-0.67 Y-15.801 E493.26142
G1 X0.194 Y-15.974 E493.31632
G1 X0.964 Y-16.078 E493.36479
G1 X2.201 Y-16.153 E493.44207
G1 X11.75 Y-16.159 E494.03758
G1 X11.75 Y15.348 E496.00238
G1 X10.903 Y14.767 E496.06643
G1 X10.177 Y14.335 E496.11912
G1 X9.499 Y13.979 E496.16687
G1 X8.77 Y13.639 E496.21704
G1 X8.011 Y13.332 E496.26809
G1 X7.261 Y13.074 E496.31756
G1 X6.486 Y12.849 E496.36788
G1 X5.978 Y12.73 E496.40042
G1 X4.913 Y12.522 E496.46809
G1 X4.109 Y12.42 E496.51863
G1 X3.306 Y12.357 E496.56887
G1 X1.736 Y12.316 E496.66681
G1 X0.959 Y12.253 E496.71542
G1 X0.355 Y12.171 E496.75344
G1 X-0.554 Y12.004 E496.81107
G1 X-1.274 Y11.827 E496.85737
G1 X-1.777 Y11.674 E496.89022
G1 X-2.751 Y11.332 E496.95465
G1 X-3.445 Y11.036 E497.00176
G1 X-4.135 Y10.696 E497.04979
G1 X-4.711 Y10.373 E497.09103
G1 X-5.453 Y9.909 E497.14566
G1 X-6.072 Y9.468 E497.1931
G1 X-6.502 Y9.126 E497.22742
G0 F6000 X-6.824 Y9.508
; TYPE:WALL-OUTER
G1 F735 X-7.596 Y8.839 E497.29117
G1 X-8.149 Y8.29 E497.33981
G1 X-8.681 Y7.703 E497.38926
G1 X-9.14 Y7.139 E497.43464
G1 X-9.657 Y6.435 E497.48915
G1 X-10.089 Y5.77 E497.53864
G1 X-10.496 Y5.06 E497.58971
G1 X-10.835 Y4.385 E497.63684
G1 X-11.197 Y3.556 E497.69328
G1 X-11.449 Y2.876 E497.73852
G1 X-11.683 Y2.125 E497.7876
G1 X-11.884 Y1.345 E497.83785
G1 X-12.036 Y0.582 E497.88638
G1 X-12.128 Y-0.056 E497.92658
G1 X-12.177 Y-0.564 E497.95848
G1 X-12.159 Y-1 E497.98575
G1 X-12.17 Y-1.444 E498.01351
G1 X-12.234 Y-2.426 E498.07495
G1 X-12.168 Y-3.414 E498.13676
G1 X-12.086 Y-4.029 E498.17551
G1 X-11.959 Y-4.808 E498.22478
G1 X-11.74 Y-5.748 E498.28502
G1 X-11.467 Y-6.648 E498.34371
G1 X-11.248 Y-7.234 E498.38276
G1 X-10.956 Y-7.947 E498.43084
G1 X-10.562 Y-8.759 E498.48716
G1 X-10.227 Y-9.353 E498.52971
G1 X-9.812 Y-10.027 E498.57909
G1 X-9.307 Y-10.748 E498.634
G1 X-8.838 Y-11.339 E498.68106
G1 X-8.343 Y-11.904 E498.72791
G1 X-7.726 Y-12.536 E498.783
G1 X-7.127 Y-13.083 E498.83358
G1 X-6.429 Y-13.649 E498.88961
G1 X-5.837 Y-14.076 E498.93512
G1 X-5.103 Y-14.55 E498.98959
G1 X-4.401 Y-14.946 E499.03983
G1 X-3.869 Y-15.21 E499.07684
G1 X-3.065 Y-15.568 E499.13169
G1 X-2.206 Y-15.89 E499.18887
G1 X-1.451 Y-16.122 E499.23808
G1 X-0.787 Y-16.287 E499.2807
G1 X0.108 Y-16.466 E499.33758
G1 X0.912 Y-16.575 E499.38818
G1 X1.387 Y-16.614 E499.41791
G1 X2.198 Y-16.653 E499.46855
G1 X12.25 Y-16.659 E500.09542
G1 X12.25 Y16.374 E502.15538
G1 X12.005 Y16.167 E502.17539
G1 X11.286 Y15.624 E502.23158
G1 X10.636 Y15.19 E502.28032
G1 X9.932 Y14.772 E502.33138
G1 X9.277 Y14.427 E502.37754
G1 X8.571 Y14.098 E502.42612
G1 X7.836 Y13.801 E502.47555
G1 X7.11 Y13.551 E502.52344
G1 X6.359 Y13.333 E502.57221
G1 X5.873 Y13.219 E502.60334
G1 X4.834 Y13.016 E502.66936
G1 X4.058 Y12.917 E502.71814
G1 X3.28 Y12.856 E502.76681
G1 X1.701 Y12.815 E502.86531
G1 X0.922 Y12.752 E502.91405
G1 X0.262 Y12.662 E502.95559
G1 X-0.646 Y12.496 E503.01316
G1 X-1.425 Y12.304 E503.06325
G1 X-1.93 Y12.15 E503.09624
G1 X-2.928 Y11.8 E503.16225
G1 X-3.659 Y11.488 E503.21187
G1 X-4.362 Y11.142 E503.26079
G1 X-4.967 Y10.803 E503.3041
G1 X-5.728 Y10.327 E503.36013
G1 X-6.371 Y9.868 E503.40945
G1 X-6.824 Y9.508 E503.44558
G0 F6000 X-6.349 Y9.002
; TYPE:FILL
G1 F840 X-11.381 Y0.286 E504.07325
G0 F6000 X-11.423 Y0
G1 F840 X11.559 Y0 E505.5064
G0 F6000 X11.559 Y0.021
G1 F840 X2.331 Y-15.962 E506.65735
G0 F6000 X3.442 Y-15.963
G1 F840 X-9.18 Y5.9 E508.23164
G0 F6000 X-9.733 Y5
G1 F840 X11.559 Y4.999 E509.55941
G0 F6000 X11.559 Y9.978
G0 X11.559 Y9.978
G1 F840 X9.397 Y13.722 E509.82902
G0 F6000 X7.474 Y12.946
G0 X7.474 Y12.946
G1 F840 X-7.052 Y-12.215 E511.64085
G0 F6000 X-8.988 Y-10
G0 X-8.988 Y-10
G1 F840 X11.56 Y-10 E512.92222
G0 F6000 X11.559 Y-10.02
G1 F840 X-0.982 Y11.702 E514.48637
G0 F6000 X1.201 Y12.081
G0 X1.201 Y12.081
G1 F840 X-10.267 Y-7.784 E515.91682
G0 F6000 X-11.206 Y-4.999
G0 X-11.206 Y-4.999
G1 F840 X11.56 Y-5 E517.33651
G0 F6000 X11.559 Y-9.978
G0 X11.559 Y-9.978
G1 F840 X8.102 Y-15.966 E517.76775
G0 F6000 X9.218 Y-15.966
G1 F840 X-5.547 Y9.607 E519.60923
G0 F6000 X-4.948 Y10
G1 F840 X11.559 Y10 E520.63859
G0 F6000 X11.559 Y10.02
G1 F840 X-2.837 Y-14.914 E522.43411
G0 F6000 X-2.97 Y-14.854
G1 F840 X-11.446 Y-0.174 E523.49121
G0 F6000 X-11.469 Y-0.999
G1 F840 X-11.136 Y-1.249 E523.50736
G1 X-11.498 Y-1.749 E523.53344
G1 X-11.021 Y-2.249 E523.56499
G1 X-11.521 Y-2.749 E523.59636
G1 X-11.206 Y-3.249 E523.61789
G1 X-11.459 Y-3.499 E523.64016
G0 F6000 X-2.616 Y-15
G0 X-2.616 Y-15
G1 F840 X11.559 Y-15 E524.52409
G0 F6000 X11.559 Y-0.021
G0 X11.559 Y-0.021
G1 F840 X4.461 Y12.272 E525.40928
; LAYER:11
G0 F6000 X4.113 Y12.42 Z3.6
; TYPE:WALL-INNER
G1 F840 X3.308 Y12.358 E525.45963
G1 X1.737 Y12.316 E525.55764
G1 X0.96 Y12.253 E525.60625
G1 X0.355 Y12.171 E525.64433
G1 X-0.547 Y12.006 E525.70151
G1 X-1.274 Y11.827 E525.74826
G1 X-1.784 Y11.672 E525.78156
G1 X-2.746 Y11.334 E525.84521
G1 X-3.44 Y11.038 E525.89232
G1 X-4.123 Y10.702 E525.93985
G1 X-4.722 Y10.368 E525.98267
G1 X-5.442 Y9.916 E526.03574
G1 X-6.064 Y9.474 E526.08338
G1 X-6.508 Y9.122 E526.11876
G1 X-7.238 Y8.488 E526.1791
G1 X-7.78 Y7.951 E526.22673
G1 X-8.297 Y7.382 E526.27472
G1 X-8.742 Y6.837 E526.31863
G1 X-9.235 Y6.165 E526.37065
G1 X-9.654 Y5.521 E526.41859
G1 X-10.048 Y4.836 E526.46791
G1 X-10.381 Y4.176 E526.51404
G1 X-10.732 Y3.371 E526.56883
G1 X-10.976 Y2.714 E526.61256
G1 X-11.2 Y1.994 E526.6596
G1 X-11.393 Y1.249 E526.70761
G1 X-11.489 Y0.773 E526.7379
G1 X-11.637 Y-0.148 E526.79609
G1 X-11.663 Y-0.534 E526.82028
G1 X-11.589 Y-1.357 E526.87187
G1 X-11.687 Y-2.318 E526.93218
G1 X-11.695 Y-2.756 E526.95956
G1 X-11.657 Y-3.513 E527.00689
G1 X-11.519 Y-4.445 E527.0657
G1 X-11.258 Y-5.613 E527.14038
G1 X-11.04 Y-6.33 E527.18716
G1 X-10.778 Y-7.064 E527.2358
G1 X-10.512 Y-7.715 E527.27969
G1 X-10.117 Y-8.529 E527.33614
G1 X-9.768 Y-9.148 E527.38048
G1 X-9.423 Y-9.707 E527.42147
G1 X-8.919 Y-10.431 E527.47649
G1 X-8.463 Y-11.007 E527.52232
G1 X-7.968 Y-11.574 E527.56926
G1 X-7.389 Y-12.168 E527.621
G1 X-6.827 Y-12.681 E527.66845
G1 X-6.12 Y-13.256 E527.72527
G1 X-5.545 Y-13.669 E527.7694
G1 X-4.838 Y-14.126 E527.82188
G1 X-4.167 Y-14.505 E527.86992
G1 X-3.701 Y-14.735 E527.9023
G1 X-2.898 Y-15.096 E527.95717
G1 X-2.043 Y-15.417 E528.01409
G1 X-1.31 Y-15.642 E528.06187
G1 X-0.67 Y-15.801 E528.10295
G1 X0.193 Y-15.973 E528.15778
G1 X0.953 Y-16.077 E528.20562
G1 X1.435 Y-16.116 E528.23578
G1 X2.328 Y-16.156 E528.29153
G1 X11.75 Y-16.159 E528.87911
G1 X11.75 Y15.348 E530.84392
G1 X10.924 Y14.781 E530.9064
G1 X10.369 Y14.448 E530.94676
G1 X9.518 Y13.989 E531.00706
G1 X8.785 Y13.646 E531.05753
G1 X8.246 Y13.426 E531.09383
G1 X7.277 Y13.079 E531.15802
G1 X6.496 Y12.851 E531.20876
G1 X5.974 Y12.729 E531.24219
G1 X4.92 Y12.523 E531.30916
G1 X4.113 Y12.42 E531.3599
G0 F6000 X4.062 Y12.917
; TYPE:WALL-OUTER
G1 F735 X3.282 Y12.857 E531.40868
G1 X1.702 Y12.815 E531.50725
G1 X0.924 Y12.752 E531.55593
G1 X0.262 Y12.662 E531.59759
G1 X-0.643 Y12.497 E531.65496
G1 X-1.421 Y12.305 E531.705
G1 X-1.937 Y12.148 E531.73869
G1 X-2.923 Y11.802 E531.80392
G1 X-3.654 Y11.49 E531.85354
G1 X-4.357 Y11.145 E531.90243
G1 X-4.965 Y10.805 E531.94593
G1 X-5.721 Y10.331 E532.00163
G1 X-6.373 Y9.867 E532.05158
G1 X-6.817 Y9.515 E532.08697
G1 X-7.581 Y8.852 E532.1501
G1 X-8.149 Y8.29 E532.19997
G1 X-8.673 Y7.712 E532.24867
G1 X-9.135 Y7.147 E532.29422
G1 X-9.649 Y6.446 E532.34847
G1 X-10.075 Y5.791 E532.39723
G1 X-10.492 Y5.066 E532.44942
G1 X-10.828 Y4.399 E532.49602
G1 X-11.2 Y3.548 E532.55397
G1 X-11.447 Y2.882 E532.59829
G1 X-11.683 Y2.125 E532.64776
G1 X-11.882 Y1.354 E532.69743
G1 X-11.979 Y0.872 E532.7281
G1 X-12.136 Y-0.105 E532.78982
G1 X-12.164 Y-0.541 E532.81713
G1 X-12.091 Y-1.354 E532.8681
G1 X-12.186 Y-2.293 E532.92702
G1 X-12.195 Y-2.753 E532.95578
G1 X-12.154 Y-3.57 E533.00685
G1 X-12.013 Y-4.527 E533.06723
G1 X-11.739 Y-5.752 E533.14556
G1 X-11.519 Y-6.475 E533.19273
G1 X-11.248 Y-7.235 E533.24309
G1 X-10.969 Y-7.919 E533.28919
G1 X-10.564 Y-8.755 E533.34715
G1 X-10.208 Y-9.386 E533.39235
G1 X-9.835 Y-9.991 E533.4367
G1 X-9.319 Y-10.733 E533.49308
G1 X-8.849 Y-11.325 E533.54023
G1 X-8.343 Y-11.905 E533.58823
G1 X-7.742 Y-12.522 E533.64195
G1 X-7.154 Y-13.06 E533.69165
G1 X-6.416 Y-13.66 E533.75095
G1 X-5.837 Y-14.075 E533.79536
G1 X-5.098 Y-14.553 E533.85023
G1 X-4.396 Y-14.949 E533.90047
G1 X-3.916 Y-15.187 E533.93386
G1 X-3.088 Y-15.558 E533.99041
G1 X-2.203 Y-15.891 E534.04934
G1 X-1.448 Y-16.123 E534.09856
G1 X-0.787 Y-16.287 E534.14098
G1 X0.109 Y-16.466 E534.19791
G1 X0.914 Y-16.576 E534.24859
G1 X1.386 Y-16.614 E534.27813
G1 X2.328 Y-16.656 E534.33693
G1 X12.25 Y-16.659 E534.9557
G1 X12.25 Y16.37 E537.01541
G1 X12.004 Y16.166 E537.03534
G1 X11.305 Y15.638 E537.08997
G1 X10.656 Y15.203 E537.1387
G1 X10.122 Y14.883 E537.17752
G1 X9.293 Y14.436 E537.23626
G1 X8.585 Y14.104 E537.28502
G1 X8.067 Y13.893 E537.3199
G1 X7.122 Y13.555 E537.38249
G1 X6.369 Y13.335 E537.43141
G1 X5.869 Y13.218 E537.46344
G1 X4.84 Y13.017 E537.52882
G1 X4.062 Y12.917 E537.57774
G0 F6000 X4.461 Y12.272
; TYPE:FILL
G1 F840 X11.559 Y-0.022 E538.46304
G0 F6000 X11.559 Y0
G1 F840 X-11.421 Y0 E539.89613
G0 F6000 X-11.447 Y-0.171
G1 F840 X-2.97 Y-14.854 E540.95348
G0 F6000 X-2.837 Y-14.915
G1 F840 X11.559 Y10.021 E542.74901
G0 F6000 X11.559 Y10
G1 F840 X-4.95 Y10 E543.77856
G0 F6000 X-5.547 Y9.607
G1 F840 X9.219 Y-15.967 E545.62015
G0 F6000 X8.101 Y-15.967
G1 F840 X11.559 Y-9.978 E546.05137
G0 F6000 X11.56 Y-10
G1 F840 X-8.988 Y-10 E547.3328
G0 F6000 X-10.267 Y-7.783
G0 X-10.267 Y-7.783
G1 F840 X1.201 Y12.081 E548.76311
G0 F6000 X-0.982 Y11.702
G0 X-0.982 Y11.702
G1 F840 X11.559 Y-10.02 E550.32728
G0 F6000 X11.559 Y-15
G0 X11.559 Y-15
G1 F840 X-2.614 Y-15 E551.21115
G0 F6000 X2.329 Y-15.964
G0 X2.329 Y-15.964
G1 F840 X11.559 Y0.022 E552.36227
G0 F6000 X11.559 Y4.999
G0 X11.559 Y4.999
G1 F840 X-9.733 Y5 E553.6901
G0 F6000 X-9.179 Y5.899
G1 F840 X3.444 Y-15.965 E555.26449
G0 F6000 X-7.052 Y-12.216
G0 X-7.052 Y-12.216
G1 F840 X7.474 Y12.946 E557.07629
G0 F6000 X9.397 Y13.722
G0 X9.397 Y13.722
G1 F840 X11.559 Y9.977 E557.34596
G0 F6000 X11.56 Y-5
G0 X11.56 Y-5
G1 F840 X-11.2 Y-4.999 E558.76534
G0 F6000 X-11 Y-3.378
G0 X-11 Y-3.378
G1 F840 X-11 Y-1.174 E558.90272
G0 F6000 X-11.5 Y-2.485
G1 F840 X-11.5 Y-2.842 E558.92505
G0 F6000 X-11.37 Y0.305
G0 X-11.37 Y0.305
G1 F840 X-6.347 Y9.006 E559.55156
; LAYER:12
G0 F6000 X-6.508 Y9.122 Z3.9
; TYPE:WALL-INNER
G1 F840 X-7.231 Y8.495 E559.61129
G1 X-7.783 Y7.949 E559.65976
G1 X-8.29 Y7.39 E559.70686
G1 X-8.727 Y6.856 E559.74993
G1 X-9.231 Y6.171 E559.80301
G1 X-9.644 Y5.537 E559.85023
G1 X-10.043 Y4.843 E559.90018
G1 X-10.374 Y4.19 E559.94586
G1 X-10.735 Y3.363 E560.00216
G1 X-10.972 Y2.725 E560.04463
G1 X-11.206 Y1.975 E560.09364
G1 X-11.387 Y1.271 E560.13899
G1 X-11.497 Y0.736 E560.17306
G1 X-11.642 Y-0.211 E560.23282
G1 X-11.641 Y-0.491 E560.25034
G1 X-11.529 Y-1.135 E560.29116
G1 X-11.507 Y-1.665 E560.3243
G1 X-11.574 Y-2.162 E560.35564
G1 X-11.633 Y-2.775 E560.39412
G1 X-11.646 Y-3.433 E560.43522
G1 X-11.615 Y-3.757 E560.45558
G1 X-11.494 Y-4.584 E560.50775
G1 X-11.305 Y-5.423 E560.56143
G1 X-11.027 Y-6.373 E560.62321
G1 X-10.773 Y-7.072 E560.66962
G1 X-10.521 Y-7.696 E560.71163
G1 X-10.123 Y-8.52 E560.76872
G1 X-9.749 Y-9.18 E560.81605
G1 X-9.448 Y-9.67 E560.85194
G1 X-8.931 Y-10.416 E560.90856
G1 X-8.482 Y-10.982 E560.95362
G1 X-7.966 Y-11.576 E561.0027
G1 X-7.412 Y-12.145 E561.05222
G1 X-6.835 Y-12.674 E561.10104
G1 X-6.103 Y-13.269 E561.15986
G1 X-5.559 Y-13.66 E561.20162
G1 X-4.825 Y-14.133 E561.25606
G1 X-4.18 Y-14.497 E561.30222
G1 X-3.7 Y-14.736 E561.33563
G1 X-2.921 Y-15.086 E561.38886
G1 X-2.033 Y-15.421 E561.44801
G1 X-1.304 Y-15.644 E561.49551
G1 X-0.675 Y-15.8 E561.53588
G1 X0.197 Y-15.975 E561.5913
G1 X0.95 Y-16.077 E561.63869
G1 X1.436 Y-16.116 E561.6691
G1 X2.434 Y-16.158 E561.7314
G1 X11.75 Y-16.159 E562.31237
G1 X11.75 Y15.346 E564.27705
G1 X10.943 Y14.793 E564.33806
G1 X10.37 Y14.448 E564.37977
G1 X9.535 Y13.997 E564.43895
G1 X8.801 Y13.652 E564.48953
G1 X8.246 Y13.426 E564.5269
G1 X7.288 Y13.082 E564.59038
G1 X6.507 Y12.855 E564.6411
G1 X5.97 Y12.727 E564.67553
G1 X4.926 Y12.524 E564.74185
G1 X4.117 Y12.42 E564.79272
G1 X3.31 Y12.358 E564.84319
G1 X1.738 Y12.316 E564.94126
G1 X0.96 Y12.253 E564.98994
G1 X0.351 Y12.17 E565.02827
G1 X-0.541 Y12.008 E565.08481
G1 X-1.271 Y11.828 E565.13176
G1 X-1.79 Y11.67 E565.16565
G1 X-2.741 Y11.335 E565.22859
G1 X-3.427 Y11.044 E565.27512
G1 X-4.13 Y10.699 E565.32401
G1 X-4.707 Y10.376 E565.3653
G1 X-5.44 Y9.918 E565.41925
G1 X-6.056 Y9.48 E565.46644
G1 X-6.508 Y9.122 E565.50245
G0 F6000 X-6.817 Y9.515
; TYPE:WALL-OUTER
G1 F735 X-7.573 Y8.859 E565.56492
G1 X-8.141 Y8.298 E565.61475
G1 X-8.673 Y7.712 E565.66415
G1 X-9.128 Y7.157 E565.70894
G1 X-9.641 Y6.457 E565.7631
G1 X-10.066 Y5.805 E565.81167
G1 X-10.487 Y5.074 E565.86431
G1 X-10.827 Y4.402 E565.9113
G1 X-11.203 Y3.54 E565.96998
G1 X-11.445 Y2.886 E566.01349
G1 X-11.683 Y2.124 E566.06329
G1 X-11.876 Y1.375 E566.11154
G1 X-11.987 Y0.837 E566.14581
G1 X-12.142 Y-0.175 E566.20967
G1 X-12.141 Y-0.538 E566.23237
G1 X-12.027 Y-1.188 E566.27357
G1 X-12.008 Y-1.642 E566.30197
G1 X-12.069 Y-2.095 E566.33055
G1 X-12.133 Y-2.755 E566.37197
G1 X-12.147 Y-3.453 E566.41557
G1 X-12.112 Y-3.815 E566.43831
G1 X-11.987 Y-4.671 E566.49231
G1 X-11.789 Y-5.55 E566.54854
G1 X-11.5 Y-6.537 E566.61272
G1 X-11.246 Y-7.234 E566.65902
G1 X-10.975 Y-7.905 E566.70419
G1 X-10.566 Y-8.751 E566.76282
G1 X-10.189 Y-9.418 E566.81062
G1 X-9.859 Y-9.956 E566.85
G1 X-9.331 Y-10.717 E566.90778
G1 X-8.875 Y-11.292 E566.95356
G1 X-8.333 Y-11.915 E567.00506
G1 X-7.757 Y-12.507 E567.05657
G1 X-7.171 Y-13.045 E567.10618
G1 X-6.41 Y-13.664 E567.16734
G1 X-5.837 Y-14.075 E567.21131
G1 X-5.092 Y-14.556 E567.26659
G1 X-4.391 Y-14.951 E567.31675
G1 X-3.924 Y-15.183 E567.34924
G1 X-3.106 Y-15.551 E567.40514
G1 X-2.199 Y-15.893 E567.46556
G1 X-1.445 Y-16.124 E567.51469
G1 X-0.787 Y-16.287 E567.55692
G1 X0.111 Y-16.467 E567.61399
G1 X0.915 Y-16.576 E567.6646
G1 X1.385 Y-16.614 E567.69401
G1 X2.437 Y-16.658 E567.75967
G1 X12.25 Y-16.659 E568.37164
G1 X12.25 Y16.371 E570.43142
G1 X12.005 Y16.166 E570.45134
G1 X11.325 Y15.652 E570.5045
G1 X10.674 Y15.215 E570.5534
G1 X10.122 Y14.883 E570.59357
G1 X9.31 Y14.444 E570.65113
G1 X8.6 Y14.11 E570.70006
G1 X8.067 Y13.893 E570.73595
G1 X7.133 Y13.558 E570.79783
G1 X6.379 Y13.338 E570.84682
G1 X5.865 Y13.216 E570.87976
G1 X4.846 Y13.018 E570.9445
G1 X4.066 Y12.917 E570.99355
G1 X3.284 Y12.857 E571.04246
G1 X1.702 Y12.815 E571.14115
G1 X0.925 Y12.752 E571.18976
G1 X0.262 Y12.662 E571.23149
G1 X-0.64 Y12.498 E571.28866
G1 X-1.418 Y12.306 E571.3387
G1 X-1.943 Y12.146 E571.37298
G1 X-2.918 Y11.804 E571.43748
G1 X-3.636 Y11.498 E571.48621
G1 X-4.361 Y11.143 E571.53661
G1 X-4.962 Y10.806 E571.57963
G1 X-5.714 Y10.336 E571.63499
G1 X-6.365 Y9.873 E571.68486
G1 X-6.817 Y9.515 E571.72087
G0 F6000 X-6.347 Y9.005
; TYPE:FILL
G1 F840 X-11.37 Y0.306 E572.34733
G0 F6000 X-11.418 Y0
G1 F840 X11.559 Y0 E573.78018
G0 F6000 X11.559 Y0.022
G1 F840 X2.331 Y-15.962 E574.93118
G0 F6000 X3.445 Y-15.967
G1 F840 X-9.18 Y5.901 E576.50583
G0 F6000 X-9.733 Y5
G1 F840 X11.559 Y4.999 E577.8336
G0 F6000 X11.559 Y9.977
G0 X11.559 Y9.977
G1 F840 X9.397 Y13.723 E578.10333
G0 F6000 X7.473 Y12.945
G0 X7.473 Y12.945
G1 F840 X-7.052 Y-12.216 E579.91512
G0 F6000 X-8.989 Y-10
G0 X-8.989 Y-10
G1 F840 X11.56 Y-10 E581.19655
G0 F6000 X11.559 Y-10.02
G1 F840 X-0.982 Y11.702 E582.7607
G0 F6000 X1.201 Y12.08
G0 X1.201 Y12.08
G1 F840 X-10.267 Y-7.784 E584.1911
G0 F6000 X-11.048 Y-4.999
G0 X-11.048 Y-4.999
G1 F840 X-11.205 Y-4.999 E584.20095
G0 F6000 X-11.168 Y-4.999
G1 F840 X11.56 Y-5 E585.61827
G0 F6000 X11.559 Y-9.978
G0 X11.559 Y-9.978
G1 F840 X8.101 Y-15.967 E586.0496
G0 F6000 X9.219 Y-15.968
G1 F840 X-5.547 Y9.607 E587.89122
G0 F6000 X-4.95 Y10
G1 F840 X11.559 Y10 E588.9207
G0 F6000 X11.559 Y10.021
G1 F840 X-2.836 Y-14.913 E590.71619
G0 F6000 X-2.97 Y-14.855
G1 F840 X-11.444 Y-0.177 E591.77312
G0 F6000 X-11.447 Y-0.499
G1 F840 X-11.286 Y-0.749 E591.78768
G1 X-10.782 Y-1.249 E591.8161
G1 X-11.342 Y-1.749 E591.85738
G1 X-10.484 Y-2.249 E591.91025
G1 X-11.431 Y-2.749 E591.97003
G1 X-10.611 Y-3.249 E592.0281
G1 X-11.418 Y-3.749 E592.07423
G1 X-10.961 Y-4.249 E592.10406
G1 X-11.315 Y-4.499 E592.13117
G0 F6000 X-2.61 Y-15
G0 X-2.61 Y-15
G1 F840 X11.559 Y-15 E593.01473
G0 F6000 X11.559 Y-0.022
G0 X11.559 Y-0.022
G1 F840 X4.461 Y12.272 E593.89997
; LAYER:13
G0 F6000 X4.121 Y12.421 Z4.2
; TYPE:WALL-INNER
G1 F840 X3.312 Y12.358 E593.95057
G1 X1.739 Y12.316 E594.0487
G1 X0.962 Y12.253 E594.09732
G1 X0.355 Y12.17 E594.13553
G1 X-0.545 Y12.006 E594.19258
G1 X-1.263 Y11.83 E594.23874
G1 X-1.796 Y11.668 E594.27354
G1 X-2.736 Y11.337 E594.33575
G1 X-3.422 Y11.046 E594.38228
G1 X-4.118 Y10.705 E594.43067
G1 X-4.72 Y10.368 E594.47374
G1 X-5.426 Y9.928 E594.52568
G1 X-6.059 Y9.477 E594.5742
G1 X-6.496 Y9.132 E594.60897
G1 X-7.224 Y8.5 E594.66914
G1 X-7.776 Y7.956 E594.71751
G1 X-8.282 Y7.4 E594.76444
G1 X-8.731 Y6.852 E594.80866
G1 X-9.215 Y6.195 E594.85959
G1 X-9.635 Y5.551 E594.90757
G1 X-9.944 Y5.018 E594.94602
G1 X-10.366 Y4.206 E595.00312
G1 X-10.738 Y3.355 E595.06106
G1 X-10.97 Y2.73 E595.10266
G1 X-11.206 Y1.975 E595.15201
G1 X-11.385 Y1.279 E595.19684
G1 X-11.501 Y0.714 E595.23282
G1 X-11.609 Y0.032 E595.27589
